; generated by Slic3r 1.3.0 on 2021-04-30 at 18:38:16

; external perimeters extrusion width = 1.10mm (29.14mm^3/s)
; perimeters extrusion width = 1.40mm (30.51mm^3/s)
; infill extrusion width = 1.25mm (26.91mm^3/s)
; solid infill extrusion width = 1.40mm (15.25mm^3/s)
; top infill extrusion width = 0.60mm (16.96mm^3/s)
; support material extrusion width = 1.10mm (34.96mm^3/s)

M107
M190 S70 ; set bed temperature and wait for it to be reached
G28 ; home all axes
G1 Z5 F5000 ; lift nozzle

; Filament gcode

G21 ; set units to millimeters
G90 ; use absolute coordinates
M82 ; use absolute distances for extrusion
G92 E0
G1 E-10.00000 F2400.00000
G92 E0
G1 Z3.000 F4800.000
G1 X118.360 Y293.797 F4800.000
G1 Z0.600 F4800.000
G1 E10.00000 F2400.00000
G1 F1800
G1 X126.255 Y293.802 E10.92796
G1 X127.389 Y293.836 E11.06143
G1 X128.792 Y293.952 E11.22691
G1 X129.580 Y294.085 E11.32078
G1 X130.296 Y294.282 E11.40812
G1 X131.011 Y294.557 E11.49816
G1 X131.722 Y294.904 E11.59113
G1 X132.425 Y295.320 E11.68717
G1 X132.791 Y295.569 E11.73921
G1 X133.147 Y295.850 E11.79251
G1 X133.574 Y296.261 E11.86221
G1 X134.010 Y296.780 E11.94186
G1 X134.259 Y297.156 E11.99494
G1 X134.479 Y297.555 E12.04844
G1 X134.788 Y298.314 E12.14469
G1 X134.953 Y298.901 E12.21639
G1 X135.095 Y299.592 E12.29934
G1 X135.161 Y300.073 E12.35638
G1 X135.229 Y301.007 E12.46657
G1 X135.238 Y301.540 E12.52920
G1 X135.203 Y302.329 E12.62197
G1 X135.095 Y303.100 E12.71356
G1 X134.908 Y303.837 E12.80293
G1 X134.639 Y304.544 E12.89183
G1 X134.274 Y305.204 E12.98043
G1 X133.944 Y305.642 E13.04493
G1 X133.515 Y306.097 E13.11848
G1 X132.927 Y306.562 E13.20657
G1 X132.554 Y306.794 E13.25825
G1 X131.771 Y307.174 E13.36054
G1 X130.951 Y307.470 E13.46301
G1 X130.097 Y307.684 E13.56650
G1 X129.234 Y307.814 E13.66915
G1 X128.769 Y307.857 E13.72403
G1 X127.793 Y307.920 E13.83902
G1 X126.662 Y307.962 E13.97203
G1 X124.699 Y307.985 E14.20274
G1 X118.360 Y307.985 E14.94788
G1 X118.360 Y293.947 E16.59801
G1 X118.832 Y294.269 F4800.000
G1 F1800
G1 X126.247 Y294.273 E17.46972
G1 X127.363 Y294.307 E17.60092
G1 X128.734 Y294.420 E17.76261
G1 X129.478 Y294.546 E17.85133
G1 X130.149 Y294.730 E17.93313
G1 X130.823 Y294.989 E18.01800
G1 X131.498 Y295.319 E18.10633
G1 X132.172 Y295.718 E18.19842
G1 X132.512 Y295.949 E18.24672
G1 X132.836 Y296.206 E18.29536
G1 X133.229 Y296.584 E18.35943
G1 X133.632 Y297.063 E18.43300
G1 X133.856 Y297.401 E18.48067
G1 X134.053 Y297.758 E18.52864
G1 X134.341 Y298.467 E18.61854
G1 X134.495 Y299.012 E18.68515
G1 X134.630 Y299.671 E18.76426
G1 X134.692 Y300.122 E18.81771
G1 X134.758 Y301.029 E18.92460
G1 X134.767 Y301.534 E18.98399
G1 X134.734 Y302.285 E19.07241
G1 X134.631 Y303.009 E19.15836
G1 X134.458 Y303.695 E19.24150
G1 X134.210 Y304.345 E19.32327
G1 X133.878 Y304.947 E19.40406
G1 X133.583 Y305.337 E19.46161
G1 X133.196 Y305.749 E19.52806
G1 X132.656 Y306.176 E19.60898
G1 X132.326 Y306.381 E19.65463
G1 X131.587 Y306.739 E19.75109
G1 X130.813 Y307.019 E19.84788
G1 X130.005 Y307.222 E19.94588
G1 X129.177 Y307.346 E20.04426
G1 X128.732 Y307.387 E20.09680
G1 X127.769 Y307.449 E20.21026
G1 X126.650 Y307.491 E20.34181
G1 X124.697 Y307.513 E20.57150
G1 X118.832 Y307.513 E21.26092
G1 X118.832 Y294.419 E22.80022
G1 X119.303 Y294.740 F4800.000
G1 F1800
G1 X126.240 Y294.745 E23.61570
G1 X127.336 Y294.777 E23.74462
G1 X128.675 Y294.888 E23.90251
G1 X129.376 Y295.006 E23.98609
G1 X130.002 Y295.179 E24.06235
G1 X130.635 Y295.422 E24.14205
G1 X131.274 Y295.734 E24.22574
G1 X131.919 Y296.116 E24.31388
G1 X132.233 Y296.329 E24.35843
G1 X132.526 Y296.562 E24.40242
G1 X132.885 Y296.906 E24.46087
G1 X133.254 Y297.346 E24.52834
G1 X133.453 Y297.645 E24.57062
G1 X133.627 Y297.961 E24.61305
G1 X133.895 Y298.620 E24.69660
G1 X134.037 Y299.123 E24.75811
G1 X134.165 Y299.751 E24.83340
G1 X134.223 Y300.171 E24.88325
G1 X134.287 Y301.050 E24.98683
G1 X134.295 Y301.527 E25.04299
G1 X134.264 Y302.242 E25.12705
G1 X134.168 Y302.918 E25.20736
G1 X134.008 Y303.553 E25.28428
G1 X133.782 Y304.146 E25.35892
G1 X133.482 Y304.690 E25.43190
G1 X133.222 Y305.033 E25.48251
G1 X132.877 Y305.401 E25.54185
G1 X132.384 Y305.790 E25.61560
G1 X132.098 Y305.968 E25.65522
G1 X131.404 Y306.304 E25.74585
G1 X130.675 Y306.568 E25.83696
G1 X129.912 Y306.759 E25.92946
G1 X129.120 Y306.878 E26.02358
G1 X128.695 Y306.917 E26.07377
G1 X127.745 Y306.979 E26.18570
G1 X126.639 Y307.019 E26.31580
G1 X124.694 Y307.042 E26.54447
G1 X119.303 Y307.042 E27.17817
G1 X119.303 Y294.890 E28.60665
G1 X119.166 Y293.750 F4800.000
G1 F3840
G1 X126.240 Y294.745 E24.48676
G1 F3840
G1 X127.336 Y294.777 E23.83560
G1 F3840
G1 X128.675 Y294.888 E23.03807
G1 F3840
G1 X129.376 Y295.006 E22.61593
G1 F3840
G1 X130.002 Y295.179 E22.23072
G1 F3840
G1 X130.635 Y295.422 E21.82817
G1 F3840
G1 X131.274 Y295.734 E21.40547
G1 F3840
G1 X131.919 Y296.116 E20.96027
G1 F3840
G1 X132.233 Y296.329 E20.73523
G1 F3840
G1 X132.526 Y296.562 E20.51303
G1 F3840
G1 X132.885 Y296.906 E20.21781
G1 F3840
G1 X133.254 Y297.346 E19.87699
G1 F3840
G1 X133.453 Y297.645 E19.66348
G1 F3840
G1 X133.627 Y297.961 E19.44913
G1 F3840
G1 X133.844 Y298.496 E19.10665
G1 E18.60665 F2400.00000
G92 E0
G1 Z3.600 F4800.000
G1 X117.889 Y292.316 F4800.000
G1 Z0.600 F4800.000
G1 E10.00000 F2400.00000
G1 F1800
G1 X117.889 Y274.105 E12.14078
G1 X123.925 Y274.105 E12.85024
G1 X125.617 Y274.125 E13.04922
G1 X127.145 Y274.189 E13.22896
G1 X128.492 Y274.295 E13.38780
G1 X129.136 Y274.369 E13.46403
G1 X130.258 Y274.554 E13.59767
G1 X130.841 Y274.692 E13.66807
G1 X131.393 Y274.854 E13.73576
G1 X131.945 Y275.048 E13.80448
G1 X132.656 Y275.354 E13.89551
G1 X133.447 Y275.768 E14.00051
G1 X133.963 Y276.091 E14.07197
G1 X134.425 Y276.439 E14.14001
G1 X134.965 Y276.902 E14.22360
G1 X135.548 Y277.479 E14.32007
G1 X135.997 Y278.020 E14.40267
G1 X136.442 Y278.659 E14.49424
G1 X136.699 Y279.111 E14.55535
G1 X136.918 Y279.572 E14.61532
G1 X137.110 Y280.073 E14.67841
G1 X137.308 Y280.765 E14.76305
G1 X137.476 Y281.625 E14.86601
G1 X137.576 Y282.728 E14.99623
G1 X137.590 Y283.353 E15.06965
G1 X137.544 Y284.560 E15.21169
G1 X137.406 Y285.680 E15.34431
G1 X137.293 Y286.244 E15.41192
G1 X137.156 Y286.769 E15.47576
G1 X136.990 Y287.276 E15.53847
G1 X136.779 Y287.799 E15.60476
G1 X136.435 Y288.430 E15.68927
G1 X136.216 Y288.770 E15.73673
G1 X135.840 Y289.243 E15.80787
G1 X135.301 Y289.782 E15.89745
G1 X134.998 Y290.051 E15.94497
G1 X134.514 Y290.418 E16.01638
G1 X133.995 Y290.759 E16.08938
G1 X133.417 Y291.089 E16.16769
G1 X132.631 Y291.448 E16.26919
G1 X131.815 Y291.737 E16.37101
G1 X130.971 Y291.956 E16.47356
G1 X130.102 Y292.106 E16.57717
G1 X128.694 Y292.234 E16.74341
G1 X126.965 Y292.301 E16.94673
G1 X118.039 Y292.316 E17.99600
G1 X118.360 Y291.844 F4800.000
G1 F1800
G1 X118.360 Y274.576 E20.02589
G1 X123.922 Y274.576 E20.67962
G1 X125.605 Y274.597 E20.87746
G1 X127.117 Y274.659 E21.05536
G1 X128.446 Y274.764 E21.21217
G1 X129.071 Y274.836 E21.28606
G1 X130.165 Y275.016 E21.41640
G1 X130.720 Y275.148 E21.48342
G1 X131.249 Y275.303 E21.54823
G1 X131.773 Y275.487 E21.61357
G1 X132.453 Y275.780 E21.70060
G1 X133.213 Y276.177 E21.80137
G1 X133.695 Y276.479 E21.86829
G1 X134.129 Y276.807 E21.93220
G1 X134.645 Y277.249 E22.01205
G1 X135.200 Y277.798 E22.10384
G1 X135.622 Y278.306 E22.18142
G1 X136.043 Y278.911 E22.26810
G1 X136.281 Y279.329 E22.32462
G1 X136.485 Y279.758 E22.38042
G1 X136.663 Y280.222 E22.43893
G1 X136.849 Y280.875 E22.51876
G1 X137.009 Y281.692 E22.61655
G1 X137.106 Y282.755 E22.74200
G1 X137.118 Y283.349 E22.81187
G1 X137.074 Y284.522 E22.94991
G1 X136.940 Y285.604 E23.07806
G1 X136.833 Y286.138 E23.14203
G1 X136.703 Y286.636 E23.20261
G1 X136.547 Y287.115 E23.26177
G1 X136.352 Y287.598 E23.32298
G1 X136.030 Y288.189 E23.40220
G1 X135.832 Y288.495 E23.44490
G1 X135.487 Y288.929 E23.51017
G1 X134.978 Y289.439 E23.59491
G1 X134.699 Y289.686 E23.63867
G1 X134.242 Y290.033 E23.70607
G1 X133.749 Y290.356 E23.77544
G1 X133.201 Y290.669 E23.84956
G1 X132.454 Y291.011 E23.94612
G1 X131.677 Y291.286 E24.04307
G1 X130.871 Y291.495 E24.14090
G1 X130.040 Y291.638 E24.24001
G1 X128.663 Y291.764 E24.40261
G1 X126.956 Y291.830 E24.60345
G1 X118.510 Y291.844 E25.59620
G1 X118.832 Y291.372 F4800.000
G1 F1800
G1 X118.832 Y275.047 E27.51522
G1 X123.919 Y275.047 E28.11321
G1 X125.592 Y275.068 E28.30991
G1 X127.088 Y275.129 E28.48597
G1 X128.401 Y275.233 E28.64074
G1 X129.006 Y275.303 E28.71229
G1 X130.072 Y275.478 E28.83934
G1 X130.599 Y275.604 E28.90299
G1 X131.104 Y275.752 E28.96492
G1 X131.602 Y275.926 E29.02687
G1 X132.250 Y276.206 E29.10991
G1 X132.978 Y276.586 E29.20645
G1 X133.428 Y276.868 E29.26883
G1 X133.834 Y277.174 E29.32861
G1 X134.326 Y277.595 E29.40472
G1 X134.852 Y278.117 E29.49183
G1 X135.247 Y278.592 E29.56437
G1 X135.645 Y279.162 E29.64618
G1 X135.863 Y279.546 E29.69809
G1 X136.051 Y279.943 E29.74973
G1 X136.215 Y280.371 E29.80365
G1 X136.390 Y280.985 E29.87868
G1 X136.542 Y281.759 E29.97129
G1 X136.635 Y282.781 E30.09197
G1 X136.647 Y283.345 E30.15829
G1 X136.604 Y284.484 E30.29233
G1 X136.475 Y285.529 E30.41602
G1 X136.374 Y286.032 E30.47635
G1 X136.251 Y286.504 E30.53366
G1 X136.104 Y286.953 E30.58927
G1 X135.926 Y287.396 E30.64541
G1 X135.624 Y287.948 E30.71933
G1 X135.449 Y288.219 E30.75728
G1 X135.135 Y288.615 E30.81668
G1 X134.654 Y289.096 E30.89659
G1 X134.400 Y289.322 E30.93658
G1 X133.970 Y289.648 E30.99996
G1 X133.503 Y289.954 E31.06570
G1 X132.986 Y290.249 E31.13563
G1 X132.277 Y290.574 E31.22726
G1 X131.539 Y290.835 E31.31935
G1 X130.772 Y291.034 E31.41246
G1 X129.979 Y291.170 E31.50706
G1 X128.632 Y291.294 E31.66601
G1 X126.946 Y291.359 E31.86437
G1 X118.982 Y291.372 E32.80062
G1 X119.303 Y290.900 F4800.000
G1 F1800
G1 X119.303 Y275.518 E34.60875
G1 X123.916 Y275.518 E35.15101
G1 X125.579 Y275.539 E35.34656
G1 X127.060 Y275.600 E35.52078
G1 X128.356 Y275.702 E35.67353
G1 X128.940 Y275.769 E35.74274
G1 X129.979 Y275.940 E35.86648
G1 X130.478 Y276.059 E35.92677
G1 X130.960 Y276.200 E35.98581
G1 X131.430 Y276.365 E36.04437
G1 X132.048 Y276.632 E36.12343
G1 X132.744 Y276.995 E36.21573
G1 X133.160 Y277.257 E36.27357
G1 X133.539 Y277.542 E36.32923
G1 X134.006 Y277.942 E36.40160
G1 X134.504 Y278.436 E36.48402
G1 X134.871 Y278.877 E36.55154
G1 X135.246 Y279.414 E36.62847
G1 X135.445 Y279.764 E36.67578
G1 X135.618 Y280.129 E36.72324
G1 X135.768 Y280.521 E36.77259
G1 X135.932 Y281.095 E36.84281
G1 X136.075 Y281.825 E36.93025
G1 X136.164 Y282.807 E37.04616
G1 X136.175 Y283.341 E37.10893
G1 X136.134 Y284.447 E37.23897
G1 X136.009 Y285.453 E37.35820
G1 X135.914 Y285.926 E37.41487
G1 X135.799 Y286.371 E37.46893
G1 X135.661 Y286.792 E37.52099
G1 X135.499 Y287.195 E37.57204
G1 X135.219 Y287.707 E37.64068
G1 X135.066 Y287.944 E37.67388
G1 X134.783 Y288.301 E37.72740
G1 X134.101 Y288.957 E37.83865
G1 X133.698 Y289.263 E37.89802
G1 X133.256 Y289.552 E37.96014
G1 X132.771 Y289.830 E38.02587
G1 X132.100 Y290.136 E38.11256
G1 X131.401 Y290.384 E38.19980
G1 X130.673 Y290.573 E38.28818
G1 X129.918 Y290.703 E38.37827
G1 X128.602 Y290.823 E38.53359
G1 X126.937 Y290.887 E38.72946
G1 X119.453 Y290.900 E39.60920
G1 X118.303 Y290.903 F4800.000
G1 F3840
G1 X119.303 Y275.518 E30.47603
G1 F3840
G1 X119.921 Y275.518 E30.10920
G1 E29.60920 F2400.00000
G92 E0
G1 Z3.600 F4800.000
G1 X117.418 Y273.467 F4800.000
G1 Z0.600 F4800.000
G1 E10.00000 F2400.00000
G1 F1800
G1 X117.418 Y309.095 E14.18813
G1 X116.472 Y309.095 E14.29935
G1 X116.472 Y273.467 E18.48755
G1 X117.268 Y273.467 E18.58114
G1 F3840
G1 X117.335 Y289.467 E9.08114
G1 E8.58114 F2400.00000
G92 E0
G1 Z3.600 F4800.000
G1 X130.385 Y273.806 F4800.000
G1 Z0.600 F4800.000
G1 E10.00000 F2400.00000
G1 F1800
G1 X131.265 Y273.981 E10.10543
G1 X131.817 Y274.126 E10.17253
G1 X132.353 Y274.295 E10.23863
G1 X132.883 Y274.492 E10.30506
G1 X133.406 Y274.715 E10.37190
G1 X133.922 Y274.966 E10.43940
G1 X134.433 Y275.244 E10.50780
G1 X134.939 Y275.551 E10.57730
G1 X135.439 Y275.887 E10.64814
G1 X135.916 Y276.239 E10.71787
G1 X136.274 Y276.540 E10.77280
G1 X136.619 Y276.865 E10.82846
G1 X136.945 Y277.209 E10.88429
G1 X137.255 Y277.575 E10.94061
G1 X137.547 Y277.963 E10.99773
G1 X137.823 Y278.375 E11.05596
G1 X138.083 Y278.810 E11.11555
G1 X138.322 Y279.263 E11.17580
G1 X138.533 Y279.725 E11.23543
G1 X138.714 Y280.199 E11.29518
G1 X138.869 Y280.697 E11.35644
G1 X138.998 Y281.219 E11.41958
G1 X139.099 Y281.765 E11.48496
G1 X139.173 Y282.338 E11.55288
G1 X139.217 Y282.939 E11.62362
G1 X139.232 Y283.556 E11.69624
G1 X139.206 Y284.355 E11.79021
G1 X139.130 Y285.096 E11.87781
G1 X139.007 Y285.790 E11.96058
G1 X138.837 Y286.437 E12.03924
G1 X138.624 Y287.042 E12.11465
G1 X138.366 Y287.608 E12.18779
G1 X138.064 Y288.141 E12.25972
G1 X137.716 Y288.644 E12.33170
G1 X137.324 Y289.115 E12.40370
G1 X136.894 Y289.547 E12.47534
G1 X136.425 Y289.943 E12.54749
G1 X135.912 Y290.304 E12.62121
G1 X135.604 Y290.484 E12.66315
G1 X135.454 Y290.276 E12.69327
G1 X136.192 Y289.558 E12.81437
G1 X136.599 Y289.045 E12.89138
G1 X136.840 Y288.671 E12.94359
G1 X137.206 Y288.001 E13.03339
G1 X137.433 Y287.438 E13.10477
G1 X137.608 Y286.902 E13.17103
G1 X137.752 Y286.349 E13.23812
G1 X137.871 Y285.755 E13.30938
G1 X138.015 Y284.598 E13.44647
G1 X138.061 Y283.356 E13.59250
G1 X138.047 Y282.702 E13.66947
G1 X137.943 Y281.558 E13.80446
G1 X137.766 Y280.655 E13.91260
G1 X137.558 Y279.924 E14.00204
G1 X137.352 Y279.386 E14.06971
G1 X137.118 Y278.893 E14.13385
G1 X136.841 Y278.407 E14.19957
G1 X136.372 Y277.734 E14.29602
G1 X135.896 Y277.161 E14.38365
G1 X135.284 Y276.555 E14.48480
G1 X134.720 Y276.072 E14.57213
G1 X134.230 Y275.702 E14.64429
G1 X133.682 Y275.359 E14.72030
G1 X132.859 Y274.929 E14.82953
G1 X132.116 Y274.609 E14.92454
G1 X131.538 Y274.405 E14.99665
G1 X130.961 Y274.237 E15.06723
G1 X130.351 Y274.091 E15.14099
G1 X129.987 Y274.031 E15.18431
G1 X130.030 Y273.755 E15.21721
G1 X130.237 Y273.785 E15.24175
G1 F3840
G1 X131.265 Y273.981 E14.62030
G1 F3840
G1 X131.817 Y274.126 E14.28138
G1 F3840
G1 X132.353 Y274.295 E13.94750
G1 F3840
G1 X132.883 Y274.492 E13.61197
G1 F3840
G1 X133.406 Y274.715 E13.27434
G1 F3840
G1 X133.922 Y274.966 E12.93339
G1 F3840
G1 X134.433 Y275.244 E12.58793
G1 F3840
G1 X134.939 Y275.551 E12.23686
G1 F3840
G1 X135.439 Y275.887 E11.87906
G1 F3840
G1 X135.916 Y276.239 E11.52683
G1 F3840
G1 X136.274 Y276.540 E11.24939
G1 F3840
G1 X136.619 Y276.865 E10.96826
G1 F3840
G1 X136.945 Y277.209 E10.68625
G1 F3840
G1 X137.255 Y277.575 E10.40176
G1 F3840
G1 X137.547 Y277.963 E10.11325
G1 F3840
G1 X137.823 Y278.375 E9.81917
G1 F3840
G1 X138.083 Y278.810 E9.51816
G1 F3840
G1 X138.322 Y279.263 E9.21382
G1 F3840
G1 X138.533 Y279.725 E8.91266
G1 F3840
G1 X138.714 Y280.199 E8.61083
G1 F3840
G1 X138.869 Y280.697 E8.30142
G1 F3840
G1 X138.998 Y281.219 E7.98250
G1 F3840
G1 X139.099 Y281.765 E7.65229
G1 F3840
G1 X139.173 Y282.338 E7.30923
G1 F3840
G1 X139.217 Y282.939 E6.95189
G1 F3840
G1 X139.232 Y283.556 E6.58508
G1 F3840
G1 X139.206 Y284.355 E6.11047
G1 F3840
G1 X139.143 Y284.973 E5.74175
G1 E5.24175 F2400.00000
G92 E0
G1 Z3.600 F4800.000
G1 X129.356 Y273.795 F4800.000
G1 X131.198 Y274.170 F4800.000
G1 X132.799 Y274.708 F4800.000
G1 X134.644 Y275.700 F4800.000
G1 X136.248 Y277.040 F4800.000
G1 X137.101 Y278.108 F4800.000
G1 X137.920 Y279.582 F4800.000
G1 X138.587 Y282.436 F4800.000
G1 X138.457 Y285.604 F4800.000
G1 X137.899 Y287.433 F4800.000
G1 X137.439 Y288.364 F4800.000
G1 X136.284 Y289.767 F4800.000
G1 X134.938 Y290.744 F4800.000
G1 X131.745 Y292.242 F4800.000
G1 Z0.600 F4800.000
G1 E10.00000 F2400.00000
G1 F1800
