; generated by Slic3r 1.3.0 on 2021-04-30 at 20:09:50

; external perimeters extrusion width = 1.10mm (29.14mm^3/s)
; perimeters extrusion width = 1.40mm (30.51mm^3/s)
; infill extrusion width = 1.25mm (26.91mm^3/s)
; solid infill extrusion width = 1.40mm (15.25mm^3/s)
; top infill extrusion width = 0.60mm (16.96mm^3/s)
; support material extrusion width = 1.10mm (34.96mm^3/s)

M107
M190 S70 ; set bed temperature and wait for it to be reached
G28 ; home all axes
G1 Z5 F5000 ; lift nozzle

; Filament gcode

G21 ; set units to millimeters
G90 ; use absolute coordinates
M82 ; use absolute distances for extrusion
G92 E0
G1 E-10.00000 F2400.00000
G92 E0
G1 Z3.000 F4800.000
G1 X255.415 Y182.477 F4800.000
G1 Z0.600 F4800.000
G1 E10.00000 F2400.00000
G1 F1800
G1 X259.486 Y182.477 E10.47853
G1 X259.486 Y194.096 E11.84437
G1 X260.096 Y194.547 E11.93356
G1 X260.550 Y194.834 E11.99670
G1 X261.010 Y195.085 E12.05827
G1 X261.420 Y195.268 E12.11104
G1 X261.821 Y195.400 E12.16073
G1 X262.216 Y195.479 E12.20808
G1 X262.617 Y195.507 E12.25529
G1 X263.145 Y195.473 E12.31746
G1 X263.556 Y195.388 E12.36688
G1 X263.749 Y195.312 E12.39125
G1 X263.917 Y195.209 E12.41435
G1 X264.122 Y195.015 E12.44758
G1 X264.274 Y194.794 E12.47910
G1 X264.373 Y194.576 E12.50728
G1 X264.487 Y194.184 E12.55526
G1 X264.580 Y193.635 E12.62071
G1 X264.652 Y192.656 E12.73605
G1 X264.668 Y192.011 E12.81187
G1 X264.669 Y182.477 E13.93261
G1 X268.740 Y182.477 E14.41113
G1 X268.740 Y193.000 E15.64806
G1 X268.722 Y193.668 E15.72668
G1 X268.663 Y194.340 E15.80598
G1 X268.557 Y195.001 E15.88469
G1 X268.399 Y195.647 E15.96281
G1 X268.183 Y196.266 E16.03992
G1 X267.921 Y196.822 E16.11208
G1 X267.627 Y197.305 E16.17865
G1 X267.307 Y197.722 E16.24040
G1 X266.912 Y198.135 E16.30754
G1 X266.476 Y198.494 E16.37390
G1 X266.000 Y198.798 E16.44029
G1 X265.489 Y199.044 E16.50705
G1 X264.953 Y199.229 E16.57368
G1 X264.401 Y199.355 E16.64027
G1 X263.838 Y199.427 E16.70691
G1 X263.263 Y199.450 E16.77455
G1 X262.584 Y199.413 E16.85456
G1 X261.904 Y199.299 E16.93556
G1 X261.069 Y199.039 E17.03837
G1 X260.607 Y198.838 E17.09764
G1 X260.058 Y198.545 E17.17076
G1 X259.486 Y198.171 E17.25110
G1 X259.486 Y199.028 E17.35180
G1 X255.415 Y199.028 E17.83033
G1 X255.415 Y182.627 E19.75823
G1 X255.886 Y182.948 F4800.000
G1 F1800
G1 X259.015 Y182.948 E20.12598
G1 X259.015 Y194.321 E21.46283
G1 X259.831 Y194.937 E21.58310
G1 X260.311 Y195.241 E21.64984
G1 X260.801 Y195.508 E21.71540
G1 X261.250 Y195.708 E21.77321
G1 X261.701 Y195.856 E21.82903
G1 X262.153 Y195.947 E21.88326
G1 X262.609 Y195.979 E21.93699
G1 X263.220 Y195.939 E22.00898
G1 X263.692 Y195.841 E22.06559
G1 X263.961 Y195.735 E22.09959
G1 X264.204 Y195.585 E22.13318
G1 X264.466 Y195.339 E22.17545
G1 X264.690 Y195.018 E22.22139
G1 X264.816 Y194.739 E22.25737
G1 X264.947 Y194.289 E22.31254
G1 X265.047 Y193.696 E22.38322
G1 X265.079 Y193.356 E22.42332
G1 X265.123 Y192.677 E22.50330
G1 X265.139 Y192.017 E22.58093
G1 X265.141 Y182.948 E23.64695
G1 X268.269 Y182.948 E24.01469
G1 X268.269 Y192.993 E25.19546
G1 X268.251 Y193.641 E25.27165
G1 X268.195 Y194.282 E25.34732
G1 X268.095 Y194.908 E25.42180
G1 X267.946 Y195.513 E25.49501
G1 X267.746 Y196.088 E25.56660
G1 X267.506 Y196.598 E25.63289
G1 X267.237 Y197.039 E25.69352
G1 X266.949 Y197.415 E25.74925
G1 X266.591 Y197.788 E25.81008
G1 X266.198 Y198.112 E25.86985
G1 X265.771 Y198.385 E25.92956
G1 X265.309 Y198.607 E25.98977
G1 X264.823 Y198.775 E26.05020
G1 X264.318 Y198.891 E26.11109
G1 X263.799 Y198.957 E26.17261
G1 X263.267 Y198.978 E26.23523
G1 X262.636 Y198.944 E26.30951
G1 X262.014 Y198.839 E26.38366
G1 X261.233 Y198.597 E26.47971
G1 X260.812 Y198.414 E26.53371
G1 X260.299 Y198.139 E26.60218
G1 X259.562 Y197.658 E26.70558
G1 X259.015 Y197.246 E26.78614
G1 X259.015 Y198.557 E26.94022
G1 X255.886 Y198.557 E27.30796
G1 X255.886 Y183.098 E29.12508
G1 X255.820 Y181.951 F4800.000
G1 F3840
G1 X259.015 Y182.948 E27.26548
G1 F3840
G1 X259.015 Y194.321 E20.51304
G1 F3840
G1 X259.286 Y194.541 E20.30516
G1 F3840
G1 X259.831 Y194.937 E19.90536
G1 F3840
G1 X260.230 Y195.190 E19.62508
G1 E19.12508 F2400.00000
G92 E0
G1 Z3.600 F4800.000
G1 X253.879 Y182.006 F4800.000
G1 Z0.600 F4800.000
G1 E10.00000 F2400.00000
G1 F1800
G1 X253.879 Y193.533 E11.35500
G1 X253.846 Y194.348 E11.45089
G1 X253.748 Y195.101 E11.54021
G1 X253.591 Y195.775 E11.62153
G1 X253.380 Y196.378 E11.69655
G1 X253.086 Y196.980 E11.77537
G1 X252.710 Y197.544 E11.85503
G1 X252.260 Y198.052 E11.93489
G1 X251.752 Y198.486 E12.01342
G1 X251.199 Y198.857 E12.09164
G1 X250.618 Y199.162 E12.16875
G1 X250.010 Y199.403 E12.24571
G1 X249.382 Y199.580 E12.32234
G1 X248.762 Y199.700 E12.39653
G1 X248.074 Y199.786 E12.47807
G1 X247.057 Y199.847 E12.59788
G1 X245.909 Y199.845 E12.73286
G1 X245.074 Y199.790 E12.83124
G1 X243.927 Y199.638 E12.96719
G1 X242.571 Y199.374 E13.12956
G1 X241.027 Y199.002 E13.31631
G1 X241.027 Y199.247 E13.34512
G1 X239.468 Y199.478 E13.53037
G1 X238.729 Y199.499 E13.61720
G1 X238.107 Y199.459 E13.69056
G1 X237.467 Y199.336 E13.76712
G1 X236.838 Y199.140 E13.84462
G1 X236.058 Y198.789 E13.94508
G1 X235.597 Y198.530 E14.00725
G1 X235.597 Y199.499 E14.12113
G1 X230.584 Y199.499 E14.71046
G1 X230.584 Y194.347 E15.31603
G1 X230.314 Y194.335 E15.34779
G1 X230.193 Y195.667 E15.50495
G1 X229.982 Y196.865 E15.64797
G1 X229.656 Y198.068 E15.79454
G1 X229.284 Y199.072 E15.92041
G1 X228.832 Y200.027 E16.04459
G1 X228.289 Y200.931 E16.16846
G1 X227.645 Y201.780 E16.29376
G1 X226.934 Y202.497 E16.41245
G1 X226.162 Y203.118 E16.52897
G1 X225.325 Y203.652 E16.64567
G1 X224.426 Y204.099 E16.76370
G1 X223.435 Y204.464 E16.88789
G1 X222.397 Y204.720 E17.01356
G1 X221.333 Y204.867 E17.13980
G1 X220.255 Y204.913 E17.26664
G1 X219.193 Y204.868 E17.39162
G1 X218.148 Y204.727 E17.51550
G1 X217.125 Y204.483 E17.63918
G1 X216.132 Y204.128 E17.76313
G1 X215.226 Y203.685 E17.88167
G1 X214.375 Y203.142 E18.00035
G1 X213.592 Y202.505 E18.11896
G1 X212.875 Y201.774 E18.23935
G1 X212.233 Y200.917 E18.36523
G1 X211.691 Y200.015 E18.48887
G1 X211.237 Y199.063 E18.61284
G1 X210.863 Y198.059 E18.73889
G1 X210.595 Y197.104 E18.85551
G1 X210.377 Y195.990 E18.98887
G1 X210.231 Y194.708 E19.14056
G1 X210.178 Y193.255 E19.31147
G1 X210.204 Y192.248 E19.42990
G1 X210.323 Y190.895 E19.58959
G1 X210.524 Y189.704 E19.73151
G1 X210.849 Y188.462 E19.88242
G1 X211.216 Y187.451 E20.00882
G1 X211.668 Y186.488 E20.13396
G1 X212.216 Y185.578 E20.25884
G1 X212.864 Y184.734 E20.38382
G1 X213.579 Y184.003 E20.50404
G1 X214.359 Y183.366 E20.62249
G1 X215.208 Y182.820 E20.74114
G1 X216.122 Y182.370 E20.86081
G1 X217.112 Y182.015 E20.98449
G1 X218.140 Y181.769 E21.10875
G1 X219.189 Y181.628 E21.23317
G1 X220.259 Y181.583 E21.35905
G1 X221.459 Y181.642 E21.50033
G1 X222.537 Y181.804 E21.62840
G1 X223.487 Y182.045 E21.74361
G1 X224.322 Y182.343 E21.84788
G1 X225.245 Y182.785 E21.96809
G1 X226.114 Y183.338 E22.08926
G1 X226.914 Y183.989 E22.21044
G1 X227.642 Y184.731 E22.33261
G1 X228.290 Y185.565 E22.45684
G1 X228.840 Y186.468 E22.58113
G1 X229.294 Y187.427 E22.70588
G1 X229.674 Y188.473 E22.83661
G1 X229.945 Y189.474 E22.95861
G1 X230.158 Y190.599 E23.09317
G1 X230.297 Y191.856 E23.24176
G1 X230.306 Y192.109 E23.27162
G1 X230.584 Y192.104 E23.30427
G1 X230.584 Y182.006 E24.49136
G1 X235.597 Y182.006 E25.08068
G1 X235.597 Y193.336 E26.41260
G1 X236.055 Y193.682 E26.47998
G1 X236.766 Y194.078 E26.57569
G1 X237.153 Y194.229 E26.62448
G1 X237.534 Y194.335 E26.67106
G1 X237.790 Y194.378 E26.70152
G1 X238.314 Y194.420 E26.76334
G1 X238.969 Y194.406 E26.84032
G1 X239.158 Y194.386 E26.86264
G1 X239.521 Y194.307 E26.90635
G1 X240.649 Y194.307 E27.03890
G1 X240.649 Y194.113 E27.06176
G1 X242.273 Y194.113 E27.25268
G1 X243.157 Y194.461 E27.36439
G1 X244.113 Y194.766 E27.48241
G1 X244.664 Y194.902 E27.54911
G1 X245.442 Y195.045 E27.64203
G1 X246.065 Y195.118 E27.71581
G1 X246.465 Y195.133 E27.76282
G1 X247.105 Y195.112 E27.83806
G1 X247.708 Y195.050 E27.90941
G1 X248.067 Y194.972 E27.95257
G1 X248.305 Y194.886 E27.98232
G1 X248.418 Y194.824 E27.99745
G1 X248.590 Y194.678 E28.02398
G1 X248.720 Y194.480 E28.05176
G1 X248.805 Y194.270 E28.07840
G1 X248.114 Y194.220 E28.15988
G1 X246.234 Y194.019 E28.38215
G1 X245.376 Y193.884 E28.48423
G1 X244.522 Y193.691 E28.58715
G1 X243.694 Y193.438 E28.68890
G1 X242.903 Y193.118 E28.78917
G1 X242.312 Y192.822 E28.86694
G1 X241.513 Y192.295 E28.97940
G1 X240.999 Y191.838 E29.06030
G1 X240.584 Y191.360 E29.13467
G1 X240.257 Y190.878 E29.20312
G1 X239.890 Y190.138 E29.30024
G1 X239.624 Y189.307 E29.40280
G1 X239.477 Y188.455 E29.50448
G1 X239.432 Y187.601 E29.60492
G1 X239.451 Y187.091 E29.66499
G1 X239.570 Y186.253 E29.76444
G1 X239.719 Y185.687 E29.83325
G1 X239.887 Y185.215 E29.89215
G1 X240.121 Y184.696 E29.95912
G1 X240.401 Y184.198 E30.02628
G1 X240.731 Y183.726 E30.09396
G1 X241.117 Y183.283 E30.16305
G1 X241.590 Y182.858 E30.23775
G1 X242.206 Y182.432 E30.32581
G1 X242.525 Y182.247 E30.36910
G1 X242.996 Y182.026 E30.43029
G1 X243.534 Y181.832 E30.49755
G1 X244.106 Y181.689 E30.56687
G1 X244.869 Y181.599 E30.65713
G1 X245.708 Y181.592 E30.75581
G1 X246.352 Y181.635 E30.83162
G1 X246.741 Y181.687 E30.87780
G1 X247.335 Y181.817 E30.94926
G1 X248.120 Y182.102 E31.04738
G1 X248.866 Y182.461 E31.14473
G1 X248.866 Y182.006 E31.19822
G1 X253.729 Y182.006 E31.76991
G1 F3840
G1 X253.879 Y193.533 E24.92523
G1 F3840
G1 X253.846 Y194.348 E24.44089
G1 F3840
G1 X253.748 Y195.101 E23.98975
G1 F3840
G1 X253.591 Y195.775 E23.57900
G1 F3840
G1 X253.380 Y196.378 E23.20005
G1 F3840
G1 X253.086 Y196.980 E22.80195
G1 F3840
G1 X252.710 Y197.544 E22.39957
G1 F3840
G1 X252.565 Y197.708 E22.26991
G1 E21.76991 F2400.00000
G92 E0
G1 Z3.600 F4800.000
G1 X253.646 Y182.248 F4800.000
G1 X253.646 Y179.124 F4800.000
G1 X248.469 Y179.157 F4800.000
G1 X246.830 Y178.961 F4800.000
G1 X244.382 Y178.940 F4800.000
G1 X242.306 Y179.168 F4800.000
G1 X238.872 Y180.114 F4800.000
G1 X235.355 Y179.124 F4800.000
G1 X230.826 Y179.124 F4800.000
G1 X230.826 Y182.248 F4800.000
G1 X228.339 Y182.248 F4800.000
G1 X229.373 Y185.009 F4800.000
G1 X230.255 Y189.354 F4800.000
G1 X229.711 Y189.527 F4800.000
G1 X229.243 Y188.682 F4800.000
G1 Z0.600 F4800.000
G1 E10.00000 F2400.00000
G1 F1800
G1 X229.486 Y189.580 E10.10932
G1 X229.692 Y190.669 E10.23960
G1 X229.827 Y191.890 E10.38399
G1 X229.875 Y193.245 E10.54338
G1 X229.848 Y194.252 E10.66176
G1 X229.725 Y195.604 E10.82142
G1 X229.522 Y196.762 E10.95962
G1 X229.207 Y197.925 E11.10118
G1 X228.849 Y198.889 E11.22213
G1 X228.416 Y199.804 E11.34115
G1 X227.899 Y200.666 E11.45929
G1 X227.288 Y201.470 E11.57793
G1 X226.618 Y202.146 E11.68986
G1 X225.887 Y202.735 E11.80021
G1 X225.093 Y203.241 E11.91092
G1 X224.239 Y203.666 E12.02299
G1 X223.297 Y204.013 E12.14107
G1 X222.308 Y204.256 E12.26077
G1 X221.290 Y204.397 E12.38153
G1 X220.255 Y204.442 E12.50338
G1 X219.234 Y204.398 E12.62344
G1 X218.235 Y204.264 E12.74200
G1 X217.259 Y204.030 E12.85987
G1 X216.315 Y203.693 E12.97772
G1 X215.457 Y203.273 E13.09005
G1 X214.651 Y202.759 E13.20242
G1 X213.910 Y202.157 E13.31470
G1 X213.233 Y201.467 E13.42829
G1 X212.624 Y200.654 E13.54766
G1 X212.107 Y199.792 E13.66582
G1 X211.672 Y198.879 E13.78469
G1 X211.311 Y197.912 E13.90599
G1 X211.054 Y196.994 E14.01807
G1 X210.843 Y195.918 E14.14699
G1 X210.701 Y194.673 E14.29434
G1 X210.650 Y193.253 E14.46139
G1 X210.675 Y192.275 E14.57639
G1 X210.791 Y190.955 E14.73215
G1 X210.986 Y189.803 E14.86940
G1 X211.300 Y188.602 E15.01533
G1 X211.651 Y187.632 E15.13664
G1 X212.085 Y186.710 E15.25640
G1 X212.606 Y185.843 E15.37531
G1 X213.220 Y185.044 E15.49383
G1 X213.897 Y184.352 E15.60764
G1 X214.637 Y183.748 E15.71986
G1 X215.441 Y183.231 E15.83220
G1 X216.306 Y182.805 E15.94559
G1 X217.247 Y182.467 E16.06309
G1 X218.226 Y182.233 E16.18149
G1 X219.231 Y182.098 E16.30061
G1 X220.257 Y182.055 E16.42138
G1 X221.413 Y182.112 E16.55737
G1 X222.444 Y182.267 E16.67991
G1 X223.349 Y182.497 E16.78978
G1 X224.141 Y182.779 E16.88855
G1 X225.016 Y183.198 E17.00254
G1 X225.838 Y183.721 E17.11715
G1 X226.596 Y184.338 E17.23199
G1 X227.286 Y185.041 E17.34789
G1 X227.902 Y185.833 E17.46575
G1 X228.424 Y186.692 E17.58400
G1 X228.859 Y187.609 E17.70325
G1 X229.197 Y188.540 E17.81962
G1 X228.788 Y188.806 F4800.000
G1 F1800
G1 X229.026 Y189.686 E17.92679
G1 X229.225 Y190.739 E18.05279
G1 X229.356 Y191.924 E18.19299
G1 X229.404 Y193.247 E18.34859
G1 X229.378 Y194.224 E18.46347
G1 X229.258 Y195.542 E18.61904
G1 X229.061 Y196.660 E18.75243
G1 X228.757 Y197.781 E18.88898
G1 X228.415 Y198.706 E19.00500
G1 X228.000 Y199.582 E19.11885
G1 X227.508 Y200.401 E19.23127
G1 X226.932 Y201.160 E19.34325
G1 X226.302 Y201.796 E19.44842
G1 X225.612 Y202.352 E19.55261
G1 X224.861 Y202.830 E19.65731
G1 X224.052 Y203.232 E19.76344
G1 X223.158 Y203.562 E19.87541
G1 X222.219 Y203.793 E19.98913
G1 X221.248 Y203.927 E20.10440
G1 X220.254 Y203.970 E20.22128
G1 X219.276 Y203.928 E20.33641
G1 X218.321 Y203.800 E20.44964
G1 X217.394 Y203.578 E20.56171
G1 X216.499 Y203.258 E20.67346
G1 X215.688 Y202.861 E20.77958
G1 X214.927 Y202.376 E20.88563
G1 X214.228 Y201.808 E20.99160
G1 X213.592 Y201.159 E21.09838
G1 X213.016 Y200.391 E21.21124
G1 X212.523 Y199.569 E21.32391
G1 X212.106 Y198.695 E21.43769
G1 X211.760 Y197.766 E21.55424
G1 X211.512 Y196.885 E21.66179
G1 X211.309 Y195.846 E21.78626
G1 X211.172 Y194.637 E21.92927
G1 X211.121 Y193.250 E22.09246
G1 X211.146 Y192.301 E22.20402
G1 X211.259 Y191.015 E22.35586
G1 X211.447 Y189.903 E22.48844
G1 X211.750 Y188.743 E22.62938
G1 X212.087 Y187.813 E22.74562
G1 X212.501 Y186.932 E22.85999
G1 X212.996 Y186.109 E22.97294
G1 X213.577 Y185.353 E23.08499
G1 X214.216 Y184.700 E23.19239
G1 X214.914 Y184.130 E23.29838
G1 X215.673 Y183.642 E23.40442
G1 X216.490 Y183.239 E23.51152
G1 X217.382 Y182.919 E23.62283
G1 X218.313 Y182.697 E23.73537
G1 X219.272 Y182.568 E23.84920
G1 X220.255 Y182.527 E23.96485
G1 X221.366 Y182.581 E24.09556
G1 X222.350 Y182.729 E24.21257
G1 X223.212 Y182.948 E24.31710
G1 X223.960 Y183.214 E24.41037
G1 X224.786 Y183.610 E24.51814
G1 X225.562 Y184.104 E24.62618
G1 X226.278 Y184.687 E24.73470
G1 X226.931 Y185.352 E24.84432
G1 X227.513 Y186.101 E24.95581
G1 X228.009 Y186.916 E25.06801
G1 X228.424 Y187.791 E25.18177
G1 X228.740 Y188.663 E25.29089
G1 X229.678 Y189.002 F4800.000
G1 F3840
G1 X229.026 Y189.686 E24.66070
G1 F3840
G1 X229.225 Y190.739 E24.02429
G1 F3840
G1 X229.356 Y191.924 E23.31615
G1 F3840
G1 X229.404 Y193.247 E22.53023
G1 F3840
G1 X229.378 Y194.224 E21.94994
G1 F3840
G1 X229.258 Y195.542 E21.16414
G1 F3840
G1 X229.061 Y196.660 E20.49044
G1 F3840
G1 X228.757 Y197.781 E19.80071
G1 F3840
G1 X228.415 Y198.706 E19.21468
G1 F3840
G1 X228.000 Y199.582 E18.63961
G1 F3840
G1 X227.508 Y200.401 E18.07182
G1 F3840
G1 X226.932 Y201.160 E17.50618
G1 F3840
G1 X226.302 Y201.796 E16.97496
G1 F3840
G1 X225.612 Y202.352 E16.44873
G1 F3840
G1 X224.861 Y202.830 E15.91987
G1 F3840
G1 X224.666 Y202.927 E15.79089
G1 E15.29089 F2400.00000
G92 E0
G1 Z3.600 F4800.000
G1 X231.055 Y182.477 F4800.000
G1 Z0.600 F4800.000
G1 E10.00000 F2400.00000
G1 F1800
G1 X235.126 Y182.477 E10.47853
G1 X235.126 Y193.549 E11.78003
G1 X235.361 Y193.757 E11.81693
G1 X235.797 Y194.077 E11.88045
G1 X236.389 Y194.419 E11.96083
G1 X237.004 Y194.676 E12.03923
G1 X237.432 Y194.795 E12.09147
G1 X237.861 Y194.867 E12.14255
G1 X238.306 Y194.892 E12.19500
G1 X238.998 Y194.877 E12.27639
G1 X239.232 Y194.852 E12.30405
G1 X239.572 Y194.779 E12.34486
G1 X240.555 Y194.779 E12.46050
G1 X240.555 Y198.841 E12.93802
G1 X239.422 Y199.009 E13.07273
