%
(1001)
(T1  D=3 CR=0 - ZMIN=-8 - flat end mill)
G90 G94
G17
G21
G28 G91 Z6
G90

(2D Pocket1)
M9
T1 M6
S1000 M3
G54
M8
G0 X5 Y22.75
Z8
Z2
G1 Z1.5 F40
Z-0.5 F20
G3 Y22.25 J-0.25 F40
Y22.75 J0.25
G1 Z-1 F20
G3 Y22.25 J-0.25 F40
Y22.75 J0.25
G1 Z-1.5 F20
G3 Y22.25 J-0.25 F40
Y22.75 J0.25
G1 Z-2 F20
G3 Y22.25 J-0.25 F40
Y22.75 J0.25
G1 Z-2.5 F20
G3 Y22.25 J-0.25 F40
Y22.75 J0.25
G1 Z-3 F20
G3 Y22.25 J-0.25 F40
Y22.75 J0.25
G1 Z-3.5 F20
G3 Y22.25 J-0.25 F40
Y22.75 J0.25
G1 Z-4 F20
G3 Y22.25 J-0.25 F40
Y22.75 J0.25
G1 Z-4.5 F20
G3 Y22.25 J-0.25 F40
Y22.75 J0.25
G1 Z-5 F20
G3 Y22.25 J-0.25 F40
Y22.75 J0.25
G1 Z-5.5 F20
G3 Y22.25 J-0.25 F40
Y22.75 J0.25
G1 Z-6 F20
G3 Y22.25 J-0.25 F40
Y22.75 J0.25
G1 Z-6.5 F20
G3 Y22.25 J-0.25 F40
Y22.75 J0.25
G1 Z-7 F20
G3 Y22.25 J-0.25 F40
Y22.75 J0.25
G1 Z-7.5 F20
G3 Y22.25 J-0.25 F40
Y22.75 J0.25
G1 Z-8 F20
G3 Y22.25 J-0.25 F40
Y22.75 J0.25
G1 X4.943 Y22.743 Z-7.989
X4.889 Y22.724 Z-7.977
X4.848 Y22.698 Z-7.945
X4.812 Y22.665 Z-7.912
X4.793 Y22.64 Z-7.863
X4.776 Y22.611 Z-7.815
X4.767 Y22.591 Z-7.7
G0 Z3
X55.25 Y22.5
Z2
G1 Z1.5 F20
Z-0.5
G3 X54.75 I-0.25 F40
X55.25 I0.25
G1 Z-1 F20
G3 X54.75 I-0.25 F40
X55.25 I0.25
G1 Z-1.5 F20
G3 X54.75 I-0.25 F40
X55.25 I0.25
G1 Z-2 F20
G3 X54.75 I-0.25 F40
X55.25 I0.25
G1 Z-2.5 F20
G3 X54.75 I-0.25 F40
X55.25 I0.25
G1 Z-3 F20
G3 X54.75 I-0.25 F40
X55.25 I0.25
G1 Z-3.5 F20
G3 X54.75 I-0.25 F40
X55.25 I0.25
G1 Z-4 F20
G3 X54.75 I-0.25 F40
X55.25 I0.25
G1 Z-4.5 F20
G3 X54.75 I-0.25 F40
X55.25 I0.25
G1 Z-5 F20
G3 X54.75 I-0.25 F40
X55.25 I0.25
G1 Z-5.5 F20
G3 X54.75 I-0.25 F40
X55.25 I0.25
G1 Z-6 F20
G3 X54.75 I-0.25 F40
X55.25 I0.25
G1 Z-6.5 F20
G3 X54.75 I-0.25 F40
X55.25 I0.25
G1 Z-7 F20
G3 X54.75 I-0.25 F40
X55.25 I0.25
G1 Z-7.5 F20
G3 X54.75 I-0.25 F40
X55.25 I0.25
G1 Z-8 F20
G3 X54.75 I-0.25 F40
X55.25 I0.25
G1 X55.243 Y22.557 Z-7.989
X55.224 Y22.611 Z-7.977
X55.198 Y22.652 Z-7.945
X55.165 Y22.688 Z-7.912
X55.14 Y22.707 Z-7.863
X55.111 Y22.724 Z-7.815
X55.091 Y22.733 Z-7.7
G0 Z8

(2D Contour1)
X38.1 Y19.7
Z8
Z2
G1 Z1.5 F20
Z-0.2
G18 G2 X38.4 Z-0.5 I0.3
G1 X38.7 F40
G17 G3 X39 Y20 J0.3
X21 I-9
X39 I9
X38.7 Y20.3 I-0.3
G1 X38.4
G18 G3 X38.1 Z-0.2 K0.3
G0 Z3
Y19.7
Z2
G1 Z1 F20
Z-0.7
G2 X38.4 Z-1 I0.3
G1 X38.7 F40
G17 G3 X39 Y20 J0.3
X21 I-9
X39 I9
X38.7 Y20.3 I-0.3
G1 X38.4
G18 G3 X38.1 Z-0.7 K0.3
G0 Z3
Y19.7
Z2
G1 Z0.5 F20
Z-1.2
G2 X38.4 Z-1.5 I0.3
G1 X38.7 F40
G17 G3 X39 Y20 J0.3
X21 I-9
X39 I9
X38.7 Y20.3 I-0.3
G1 X38.4
G18 G3 X38.1 Z-1.2 K0.3
G0 Z3
Y19.7
Z2
G1 Z0 F20
Z-1.7
G2 X38.4 Z-2 I0.3
G1 X38.7 F40
G17 G3 X39 Y20 J0.3
X21 I-9
X39 I9
X38.7 Y20.3 I-0.3
G1 X38.4
G18 G3 X38.1 Z-1.7 K0.3
G0 Z3
Y19.7
Z2
G1 Z-0.5 F20
Z-2.2
G2 X38.4 Z-2.5 I0.3
G1 X38.7 F40
G17 G3 X39 Y20 J0.3
X21 I-9
X39 I9
X38.7 Y20.3 I-0.3
G1 X38.4
G18 G3 X38.1 Z-2.2 K0.3
G0 Z3
Y19.7
Z2
G1 Z-1 F20
Z-2.7
G2 X38.4 Z-3 I0.3
G1 X38.7 F40
G17 G3 X39 Y20 J0.3
X21 I-9
X39 I9
X38.7 Y20.3 I-0.3
G1 X38.4
G18 G3 X38.1 Z-2.7 K0.3
G0 Z3
Y19.7
Z2
G1 Z-1.5 F20
Z-3.2
G2 X38.4 Z-3.5 I0.3
G1 X38.7 F40
G17 G3 X39 Y20 J0.3
X21 I-9
X39 I9
X38.7 Y20.3 I-0.3
G1 X38.4
G18 G3 X38.1 Z-3.2 K0.3
G0 Z3
Y19.7
Z2
G1 Z-2 F20
Z-3.7
G2 X38.4 Z-4 I0.3
G1 X38.7 F40
G17 G3 X39 Y20 J0.3
X21 I-9
X39 I9
X38.7 Y20.3 I-0.3
G1 X38.4
G18 G3 X38.1 Z-3.7 K0.3
G0 Z3
Y19.7
Z2
G1 Z-2.5 F20
Z-4.2
G2 X38.4 Z-4.5 I0.3
G1 X38.7 F40
G17 G3 X39 Y20 J0.3
X21 I-9
X39 I9
X38.7 Y20.3 I-0.3
G1 X38.4
G18 G3 X38.1 Z-4.2 K0.3
G0 Z3
Y19.7
Z2
G1 Z-3 F20
Z-4.7
G2 X38.4 Z-5 I0.3
G1 X38.7 F40
G17 G3 X39 Y20 J0.3
X21 I-9
X39 I9
X38.7 Y20.3 I-0.3
G1 X38.4
G18 G3 X38.1 Z-4.7 K0.3
G0 Z3
Y19.7
Z2
G1 Z-3.5 F20
Z-5.2
G2 X38.4 Z-5.5 I0.3
G1 X38.7 F40
G17 G3 X39 Y20 J0.3
X21 I-9
X39 I9
X38.7 Y20.3 I-0.3
G1 X38.4
G18 G3 X38.1 Z-5.2 K0.3
G0 Z3
Y19.7
Z2
G1 Z-4 F20
Z-5.7
G2 X38.4 Z-6 I0.3
G1 X38.7 F40
G17 G3 X39 Y20 J0.3
X21 I-9
X39 I9
X38.7 Y20.3 I-0.3
G1 X38.4
G18 G3 X38.1 Z-5.7 K0.3
G0 Z3
Y19.7
Z2
G1 Z-4.5 F20
Z-6.2
G2 X38.4 Z-6.5 I0.3
G1 X38.7 F40
G17 G3 X39 Y20 J0.3
X21 I-9
X39 I9
X38.7 Y20.3 I-0.3
G1 X38.4
G18 G3 X38.1 Z-6.2 K0.3
G0 Z3
Y19.7
Z2
G1 Z-5 F20
Z-6.7
G2 X38.4 Z-7 I0.3
G1 X38.7 F40
G17 G3 X39 Y20 J0.3
X21 I-9
X39 I9
X38.7 Y20.3 I-0.3
G1 X38.4
G18 G3 X38.1 Z-6.7 K0.3
G0 Z3
Y19.7
Z2
G1 Z-5.5 F20
Z-7.2
G2 X38.4 Z-7.5 I0.3
G1 X38.7 F40
G17 G3 X39 Y20 J0.3
X21 I-9
X39 I9
X38.7 Y20.3 I-0.3
G1 X38.4
G18 G3 X38.1 Z-7.2 K0.3
G0 Z3
Y19.7
Z2
G1 Z-6 F20
Z-7.7
G2 X38.4 Z-8 I0.3
G1 X38.7 F40
G17 G3 X39 Y20 J0.3
X21 I-9
X39 I9
X38.7 Y20.3 I-0.3
G1 X38.4
G18 G3 X38.1 Z-7.7 K0.3
G0 Z8
G17

(2D Contour2)
G0 X-0.3 Y34.4
Z8
Z2
G1 Z1.5 F20
Z-0.2
G19 G2 Y34.1 Z-0.5 J-0.3
G1 Y33.8 F40
G17 G3 X0 Y33.5 I0.3
G1 X60 F60
G2 X61.5 Y32 J-1.5
G1 Y0
G2 X60 Y-1.5 I-1.5
G1 X0
G2 X-1.5 Y0 J1.5
G1 Y32
G2 X0 Y33.5 I1.5
G3 X0.3 Y33.8 J0.3 F40
G1 Y34.1
G19 G3 Y34.4 Z-0.2 K0.3
G0 Z3
X-0.3
Z2
G1 Z1 F20
Z-0.7
G2 Y34.1 Z-1 J-0.3
G1 Y33.8 F40
G17 G3 X0 Y33.5 I0.3
G1 X60 F60
G2 X61.5 Y32 J-1.5
G1 Y0
G2 X60 Y-1.5 I-1.5
G1 X0
G2 X-1.5 Y0 J1.5
G1 Y32
G2 X0 Y33.5 I1.5
G3 X0.3 Y33.8 J0.3 F40
G1 Y34.1
G19 G3 Y34.4 Z-0.7 K0.3
G0 Z3
X-0.3
Z2
G1 Z0.5 F20
Z-1.2
G2 Y34.1 Z-1.5 J-0.3
G1 Y33.8 F40
G17 G3 X0 Y33.5 I0.3
G1 X60 F60
G2 X61.5 Y32 J-1.5
G1 Y0
G2 X60 Y-1.5 I-1.5
G1 X0
G2 X-1.5 Y0 J1.5
G1 Y32
G2 X0 Y33.5 I1.5
G3 X0.3 Y33.8 J0.3 F40
G1 Y34.1
G19 G3 Y34.4 Z-1.2 K0.3
G0 Z3
X-0.3
Z2
G1 Z0 F20
Z-1.7
G2 Y34.1 Z-2 J-0.3
G1 Y33.8 F40
G17 G3 X0 Y33.5 I0.3
G1 X60 F60
G2 X61.5 Y32 J-1.5
G1 Y0
G2 X60 Y-1.5 I-1.5
G1 X0
G2 X-1.5 Y0 J1.5
G1 Y32
G2 X0 Y33.5 I1.5
G3 X0.3 Y33.8 J0.3 F40
G1 Y34.1
G19 G3 Y34.4 Z-1.7 K0.3
G0 Z3
X-0.3
Z2
G1 Z-0.5 F20
Z-2.2
G2 Y34.1 Z-2.5 J-0.3
G1 Y33.8 F40
G17 G3 X0 Y33.5 I0.3
G1 X60 F60
G2 X61.5 Y32 J-1.5
G1 Y0
G2 X60 Y-1.5 I-1.5
G1 X0
G2 X-1.5 Y0 J1.5
G1 Y32
G2 X0 Y33.5 I1.5
G3 X0.3 Y33.8 J0.3 F40
G1 Y34.1
G19 G3 Y34.4 Z-2.2 K0.3
G0 Z3
X-0.3
Z2
G1 Z-1 F20
Z-2.7
G2 Y34.1 Z-3 J-0.3
G1 Y33.8 F40
G17 G3 X0 Y33.5 I0.3
G1 X60 F60
G2 X61.5 Y32 J-1.5
G1 Y0
G2 X60 Y-1.5 I-1.5
G1 X0
G2 X-1.5 Y0 J1.5
G1 Y32
G2 X0 Y33.5 I1.5
G3 X0.3 Y33.8 J0.3 F40
G1 Y34.1
G19 G3 Y34.4 Z-2.7 K0.3
G0 Z3
X-0.3
Z2
G1 Z-1.5 F20
Z-3.2
G2 Y34.1 Z-3.5 J-0.3
G1 Y33.8 F40
G17 G3 X0 Y33.5 I0.3
G1 X60 F60
G2 X61.5 Y32 J-1.5
G1 Y0
G2 X60 Y-1.5 I-1.5
G1 X0
G2 X-1.5 Y0 J1.5
G1 Y32
G2 X0 Y33.5 I1.5
G3 X0.3 Y33.8 J0.3 F40
G1 Y34.1
G19 G3 Y34.4 Z-3.2 K0.3
G0 Z3
X-0.3
Z2
G1 Z-2 F20
Z-3.7
G2 Y34.1 Z-4 J-0.3
G1 Y33.8 F40
G17 G3 X0 Y33.5 I0.3
G1 X60 F60
G2 X61.5 Y32 J-1.5
G1 Y0
G2 X60 Y-1.5 I-1.5
G1 X0
G2 X-1.5 Y0 J1.5
G1 Y32
G2 X0 Y33.5 I1.5
G3 X0.3 Y33.8 J0.3 F40
G1 Y34.1
G19 G3 Y34.4 Z-3.7 K0.3
G0 Z3
X-0.3
Z2
G1 Z-2.5 F20
Z-4.2
G2 Y34.1 Z-4.5 J-0.3
G1 Y33.8 F40
G17 G3 X0 Y33.5 I0.3
G1 X60 F60
G2 X61.5 Y32 J-1.5
G1 Y0
G2 X60 Y-1.5 I-1.5
G1 X0
G2 X-1.5 Y0 J1.5
G1 Y32
G2 X0 Y33.5 I1.5
G3 X0.3 Y33.8 J0.3 F40
G1 Y34.1
G19 G3 Y34.4 Z-4.2 K0.3
G0 Z3
X-0.3
Z2
G1 Z-3 F20
Z-4.7
G2 Y34.1 Z-5 J-0.3
G1 Y33.8 F40
G17 G3 X0 Y33.5 I0.3
G1 X60 F60
G2 X61.5 Y32 J-1.5
G1 Y0
G2 X60 Y-1.5 I-1.5
G1 X0
G2 X-1.5 Y0 J1.5
G1 Y32
G2 X0 Y33.5 I1.5
G3 X0.3 Y33.8 J0.3 F40
G1 Y34.1
G19 G3 Y34.4 Z-4.7 K0.3
G0 Z3
X-0.3
Z2
G1 Z-3.5 F20
Z-5.2
G2 Y34.1 Z-5.5 J-0.3
G1 Y33.8 F40
G17 G3 X0 Y33.5 I0.3
G1 X60 F60
G2 X61.5 Y32 J-1.5
G1 Y0
G2 X60 Y-1.5 I-1.5
G1 X0
G2 X-1.5 Y0 J1.5
G1 Y32
G2 X0 Y33.5 I1.5
G3 X0.3 Y33.8 J0.3 F40
G1 Y34.1
G19 G3 Y34.4 Z-5.2 K0.3
G0 Z3
X-0.3
Z2
G1 Z-4 F20
Z-5.7
G2 Y34.1 Z-6 J-0.3
G1 Y33.8 F40
G17 G3 X0 Y33.5 I0.3
G1 X60 F60
G2 X61.5 Y32 J-1.5
G1 Y0
G2 X60 Y-1.5 I-1.5
G1 X0
G2 X-1.5 Y0 J1.5
G1 Y32
G2 X0 Y33.5 I1.5
G3 X0.3 Y33.8 J0.3 F40
G1 Y34.1
G19 G3 Y34.4 Z-5.7 K0.3
G0 Z3
X-0.3
Z2
G1 Z-4.5 F20
Z-6.2
G2 Y34.1 Z-6.5 J-0.3
G1 Y33.8 F40
G17 G3 X0 Y33.5 I0.3
G1 X60 F60
G2 X61.5 Y32 J-1.5
G1 Y0
G2 X60 Y-1.5 I-1.5
G1 X0
G2 X-1.5 Y0 J1.5
G1 Y32
G2 X0 Y33.5 I1.5
G3 X0.3 Y33.8 J0.3 F40
G1 Y34.1
G19 G3 Y34.4 Z-6.2 K0.3
G0 Z3
X-0.3
Z2
G1 Z-5 F20
Z-6.7
G2 Y34.1 Z-7 J-0.3
G1 Y33.8 F40
G17 G3 X0 Y33.5 I0.3
G1 X60 F60
G2 X61.5 Y32 J-1.5
G1 Y0
G2 X60 Y-1.5 I-1.5
G1 X0
G2 X-1.5 Y0 J1.5
G1 Y32
G2 X0 Y33.5 I1.5
G3 X0.3 Y33.8 J0.3 F40
G1 Y34.1
G19 G3 Y34.4 Z-6.7 K0.3
G0 Z3
X-0.3
Z2
G1 Z-5.5 F20
Z-7.2
G2 Y34.1 Z-7.5 J-0.3
G1 Y33.8 F40
G17 G3 X0 Y33.5 I0.3
G1 X60 F60
G2 X61.5 Y32 J-1.5
G1 Y0
G2 X60 Y-1.5 I-1.5
G1 X0
G2 X-1.5 Y0 J1.5
G1 Y32
G2 X0 Y33.5 I1.5
G3 X0.3 Y33.8 J0.3 F40
G1 Y34.1
G19 G3 Y34.4 Z-7.2 K0.3
G0 Z3
X-0.3
Z2
G1 Z-6 F20
Z-7.7
G2 Y34.1 Z-8 J-0.3
G1 Y33.8 F40
G17 G3 X0 Y33.5 I0.3
G1 X60 F60
G2 X61.5 Y32 J-1.5
G1 Y0
G2 X60 Y-1.5 I-1.5
G1 X0
G2 X-1.5 Y0 J1.5
G1 Y32
G2 X0 Y33.5 I1.5
G3 X0.3 Y33.8 J0.3 F40
G1 Y34.1
G19 G3 Y34.4 Z-7.7 K0.3
G0 Z8
G17
M9
G28 G91 Z0
G90
G28 G91 X0 Y0
G90
M30
%
