%
(1001)
(T1  D=3 CR=0.75 - ZMIN=-9 - bullnose end mill)
G90 G94
G17
G21
G28 G91 Z6
G90

(2D Contour1)
M9
T1 M6
S1000 M3
G54
M8
G0 X-2.4 Y14.7
Z5
Z2
G1 Z-0.7 F33
G18 G2 X-2.1 Z-1 I0.3
G1 X-1.8 F30
G17 G3 X-1.5 Y15 J0.3
G1 Y30 F60
G2 X0 Y31.5 I1.5
G1 X35
G2 X36.5 Y30 J-1.5
G1 Y0
G2 X35 Y-1.5 I-1.5
G1 X0
G2 X-1.5 Y0 J1.5
G1 Y15
G3 X-1.8 Y15.3 I-0.3 F100
G1 X-2.1
G18 G3 X-2.4 Z-0.7 K0.3
G1 Y14.7 F60
Z-1.7 F33
G2 X-2.1 Z-2 I0.3
G1 X-1.8 F30
G17 G3 X-1.5 Y15 J0.3
G1 Y30 F60
G2 X0 Y31.5 I1.5
G1 X35
G2 X36.5 Y30 J-1.5
G1 Y0
G2 X35 Y-1.5 I-1.5
G1 X0
G2 X-1.5 Y0 J1.5
G1 Y15
G3 X-1.8 Y15.3 I-0.3 F100
G1 X-2.1
G18 G3 X-2.4 Z-1.7 K0.3
G1 Y14.7 F60
Z-2.7 F33
G2 X-2.1 Z-3 I0.3
G1 X-1.8 F30
G17 G3 X-1.5 Y15 J0.3
G1 Y30 F60
G2 X0 Y31.5 I1.5
G1 X35
G2 X36.5 Y30 J-1.5
G1 Y0
G2 X35 Y-1.5 I-1.5
G1 X0
G2 X-1.5 Y0 J1.5
G1 Y15
G3 X-1.8 Y15.3 I-0.3 F100
G1 X-2.1
G18 G3 X-2.4 Z-2.7 K0.3
G1 Y14.7 F60
Z-3.7 F33
G2 X-2.1 Z-4 I0.3
G1 X-1.8 F30
G17 G3 X-1.5 Y15 J0.3
G1 Y30 F60
G2 X0 Y31.5 I1.5
G1 X35
G2 X36.5 Y30 J-1.5
G1 Y0
G2 X35 Y-1.5 I-1.5
G1 X0
G2 X-1.5 Y0 J1.5
G1 Y15
G3 X-1.8 Y15.3 I-0.3 F100
G1 X-2.1
G18 G3 X-2.4 Z-3.7 K0.3
G1 Y14.7 F60
Z-4.7 F33
G2 X-2.1 Z-5 I0.3
G1 X-1.8 F30
G17 G3 X-1.5 Y15 J0.3
G1 Y30 F60
G2 X0 Y31.5 I1.5
G1 X35
G2 X36.5 Y30 J-1.5
G1 Y0
G2 X35 Y-1.5 I-1.5
G1 X0
G2 X-1.5 Y0 J1.5
G1 Y15
G3 X-1.8 Y15.3 I-0.3 F100
G1 X-2.1
G18 G3 X-2.4 Z-4.7 K0.3
G1 Y14.7 F60
Z-5.7 F33
G2 X-2.1 Z-6 I0.3
G1 X-1.8 F30
G17 G3 X-1.5 Y15 J0.3
G1 Y30 F60
G2 X0 Y31.5 I1.5
G1 X35
G2 X36.5 Y30 J-1.5
G1 Y0
G2 X35 Y-1.5 I-1.5
G1 X0
G2 X-1.5 Y0 J1.5
G1 Y15
G3 X-1.8 Y15.3 I-0.3 F100
G1 X-2.1
G18 G3 X-2.4 Z-5.7 K0.3
G1 Y14.7 F60
Z-6.7 F33
G2 X-2.1 Z-7 I0.3
G1 X-1.8 F30
G17 G3 X-1.5 Y15 J0.3
G1 Y30 F60
G2 X0 Y31.5 I1.5
G1 X35
G2 X36.5 Y30 J-1.5
G1 Y0
G2 X35 Y-1.5 I-1.5
G1 X0
G2 X-1.5 Y0 J1.5
G1 Y15
G3 X-1.8 Y15.3 I-0.3 F100
G1 X-2.1
G18 G3 X-2.4 Z-6.7 K0.3
G1 Y14.7 F60
Z-7.7 F33
G2 X-2.1 Z-8 I0.3
G1 X-1.8 F30
G17 G3 X-1.5 Y15 J0.3
G1 Y30 F60
G2 X0 Y31.5 I1.5
G1 X35
G2 X36.5 Y30 J-1.5
G1 Y0
G2 X35 Y-1.5 I-1.5
G1 X0
G2 X-1.5 Y0 J1.5
G1 Y15
G3 X-1.8 Y15.3 I-0.3 F100
G1 X-2.1
G18 G3 X-2.4 Z-7.7 K0.3
G1 Y14.7 F60
Z-8.7 F33
G2 X-2.1 Z-9 I0.3
G1 X-1.8 F30
G17 G3 X-1.5 Y15 J0.3
G1 Y30 F60
G2 X0 Y31.5 I1.5
G1 X35
G2 X36.5 Y30 J-1.5
G1 Y0
G2 X35 Y-1.5 I-1.5
G1 X0
G2 X-1.5 Y0 J1.5
G1 Y15
G3 X-1.8 Y15.3 I-0.3 F100
G1 X-2.1
G18 G3 X-2.4 Z-8.7 K0.3
G0 Z5
G17
M9
G28 G91 Z0
G90
G28 G91 X0 Y0
G90
M30
%
