%
(1001)
(T1  D=3 CR=0 - ZMIN=-9 - flat end mill)
G90 G94
G17
G21
G28 G91 Z6
G90

(2D Pocket1)
M9
T1 M6
S1000 M3
G54
M8
G0 X47.273 Y20.248
Z5
Z2
G1 Z-0.7 F20
X47.291 Y20.261 Z-0.815
X47.339 Y20.305 Z-0.912
X47.367 Y20.345 Z-0.945
X47.389 Y20.388 Z-0.977
X47.405 Y20.443 Z-0.989
X47.41 Y20.5 Z-1
G3 X46.311 I-0.55 F30
X47.41 I0.55
G1 X47.404 Y20.531
X47.384 Y20.555
X47.356 Y20.57
X47.325 Y20.571
X47.296 Y20.558
X47.275 Y20.534
X47.171 Y20.343
X47.162 Y20.312
X47.167 Y20.281
X47.185 Y20.255
X47.212 Y20.24
X47.243 Y20.237
X47.273 Y20.248
Z-1.7 F20
X47.291 Y20.261 Z-1.815
X47.339 Y20.305 Z-1.912
X47.367 Y20.345 Z-1.945
X47.389 Y20.388 Z-1.977
X47.405 Y20.443 Z-1.989
X47.41 Y20.5 Z-2
G3 X46.311 I-0.55 F30
X47.41 I0.55
G1 X47.404 Y20.531
X47.384 Y20.555
X47.356 Y20.57
X47.325 Y20.571
X47.296 Y20.558
X47.275 Y20.534
X47.171 Y20.343
X47.162 Y20.312
X47.167 Y20.281
X47.185 Y20.255
X47.212 Y20.24
X47.243 Y20.237
X47.273 Y20.248
Z-2.7 F20
X47.291 Y20.261 Z-2.815
X47.339 Y20.305 Z-2.912
X47.367 Y20.345 Z-2.945
X47.389 Y20.388 Z-2.977
X47.405 Y20.443 Z-2.989
X47.41 Y20.5 Z-3
G3 X46.311 I-0.55 F30
X47.41 I0.55
G1 X47.404 Y20.531
X47.384 Y20.555
X47.356 Y20.57
X47.325 Y20.571
X47.296 Y20.558
X47.275 Y20.534
X47.171 Y20.343
X47.162 Y20.312
X47.167 Y20.281
X47.185 Y20.255
X47.212 Y20.24
X47.243 Y20.237
X47.273 Y20.248
Z-3.7 F20
X47.291 Y20.261 Z-3.815
X47.339 Y20.305 Z-3.912
X47.367 Y20.345 Z-3.945
X47.389 Y20.388 Z-3.977
X47.405 Y20.443 Z-3.989
X47.41 Y20.5 Z-4
G3 X46.311 I-0.55 F30
X47.41 I0.55
G1 X47.404 Y20.531
X47.384 Y20.555
X47.356 Y20.57
X47.325 Y20.571
X47.296 Y20.558
X47.275 Y20.534
X47.171 Y20.343
X47.162 Y20.312
X47.167 Y20.281
X47.185 Y20.255
X47.212 Y20.24
X47.243 Y20.237
X47.273 Y20.248
Z-4.7 F20
X47.291 Y20.261 Z-4.815
X47.339 Y20.305 Z-4.912
X47.367 Y20.345 Z-4.945
X47.389 Y20.388 Z-4.977
X47.405 Y20.443 Z-4.989
X47.41 Y20.5 Z-5
G3 X46.311 I-0.55 F30
X47.41 I0.55
G1 X47.404 Y20.531
X47.384 Y20.555
X47.356 Y20.57
X47.325 Y20.571
X47.296 Y20.558
X47.275 Y20.534
X47.171 Y20.343
X47.162 Y20.312
X47.167 Y20.281
X47.185 Y20.255
X47.212 Y20.24
X47.243 Y20.237
X47.273 Y20.248
Z-5.7 F20
X47.291 Y20.261 Z-5.815
X47.339 Y20.305 Z-5.912
X47.367 Y20.345 Z-5.945
X47.389 Y20.388 Z-5.977
X47.405 Y20.443 Z-5.989
X47.41 Y20.5 Z-6
G3 X46.311 I-0.55 F30
X47.41 I0.55
G1 X47.404 Y20.531
X47.384 Y20.555
X47.356 Y20.57
X47.325 Y20.571
X47.296 Y20.558
X47.275 Y20.534
X47.171 Y20.343
X47.162 Y20.312
X47.167 Y20.281
X47.185 Y20.255
X47.212 Y20.24
X47.243 Y20.237
X47.273 Y20.248
Z-6.7 F20
X47.291 Y20.261 Z-6.815
X47.339 Y20.305 Z-6.912
X47.367 Y20.345 Z-6.945
X47.389 Y20.388 Z-6.977
X47.405 Y20.443 Z-6.989
X47.41 Y20.5 Z-7
G3 X46.311 I-0.55 F30
X47.41 I0.55
G1 X47.404 Y20.531
X47.384 Y20.555
X47.356 Y20.57
X47.325 Y20.571
X47.296 Y20.558
X47.275 Y20.534
X47.171 Y20.343
X47.162 Y20.312
X47.167 Y20.281
X47.185 Y20.255
X47.212 Y20.24
X47.243 Y20.237
X47.273 Y20.248
Z-7.7 F20
X47.291 Y20.261 Z-7.815
X47.339 Y20.305 Z-7.912
X47.367 Y20.345 Z-7.945
X47.389 Y20.388 Z-7.977
X47.405 Y20.443 Z-7.989
X47.41 Y20.5 Z-8
G3 X46.311 I-0.55 F30
X47.41 I0.55
G1 X47.404 Y20.531
X47.384 Y20.555
X47.356 Y20.57
X47.325 Y20.571
X47.296 Y20.558
X47.275 Y20.534
X47.171 Y20.343
X47.162 Y20.312
X47.167 Y20.281
X47.185 Y20.255
X47.212 Y20.24
X47.243 Y20.237
X47.273 Y20.248
Z-8.7 F20
X47.291 Y20.261 Z-8.815
X47.339 Y20.305 Z-8.912
X47.367 Y20.345 Z-8.945
X47.389 Y20.388 Z-8.977
X47.405 Y20.443 Z-8.989
X47.41 Y20.5 Z-9
G3 X46.311 I-0.55 F30
X47.41 I0.55
G1 X47.405 Y20.557 Z-8.989 F50
X47.389 Y20.612 Z-8.977
X47.367 Y20.655 Z-8.945
X47.339 Y20.695 Z-8.912
X47.291 Y20.739 Z-8.815
X47.273 Y20.752 Z-8.7
G0 Z2
X48.011 Y12.2
G1 Z-0.7 F20
G19 G3 Y12.5 Z-1 J0.3
G17 G3 X45.71 I-1.15 F30
X50.861 I2.575
X42.861 I-4
X50.861 I4
X50.604 Y12.692 I-0.2
G1 X48.267 Y12.008
G2 X48.011 Y12.2 I-0.056 J0.192
G1 Z-1.7 F20
G19 G3 Y12.5 Z-2 J0.3
G17 G3 X45.71 I-1.15 F30
X50.861 I2.575
X42.861 I-4
X50.861 I4
X50.604 Y12.692 I-0.2
G1 X48.267 Y12.008
G2 X48.011 Y12.2 I-0.056 J0.192
G1 Z-2.7 F20
G19 G3 Y12.5 Z-3 J0.3
G17 G3 X45.71 I-1.15 F30
X50.861 I2.575
X42.861 I-4
X50.861 I4
X50.604 Y12.692 I-0.2
G1 X48.267 Y12.008
G2 X48.011 Y12.2 I-0.056 J0.192
G1 Z-3.7 F20
G19 G3 Y12.5 Z-4 J0.3
G17 G3 X45.71 I-1.15 F30
X50.861 I2.575
X42.861 I-4
X50.861 I4
X50.604 Y12.692 I-0.2
G1 X48.267 Y12.008
G2 X48.011 Y12.2 I-0.056 J0.192
G1 Z-4.7 F20
G19 G3 Y12.5 Z-5 J0.3
G17 G3 X45.71 I-1.15 F30
X50.861 I2.575
X42.861 I-4
X50.861 I4
X50.604 Y12.692 I-0.2
G1 X48.267 Y12.008
G2 X48.011 Y12.2 I-0.056 J0.192
G1 Z-5.7 F20
G19 G3 Y12.5 Z-6 J0.3
G17 G3 X45.71 I-1.15 F30
X50.861 I2.575
X42.861 I-4
X50.861 I4
X50.604 Y12.692 I-0.2
G1 X48.267 Y12.008
G2 X48.011 Y12.2 I-0.056 J0.192
G1 Z-6.7 F20
G19 G3 Y12.5 Z-7 J0.3
G17 G3 X45.71 I-1.15 F30
X50.861 I2.575
X42.861 I-4
X50.861 I4
X50.604 Y12.692 I-0.2
G1 X48.267 Y12.008
G2 X48.011 Y12.2 I-0.056 J0.192
G1 Z-7.7 F20
G19 G3 Y12.5 Z-8 J0.3
G17 G3 X45.71 I-1.15 F30
X50.861 I2.575
X42.861 I-4
X50.861 I4
X50.604 Y12.692 I-0.2
G1 X48.267 Y12.008
G2 X48.011 Y12.2 I-0.056 J0.192
G1 Z-8.7 F20
G19 G3 Y12.5 Z-9 J0.3
G17 G3 X45.71 I-1.15 F30
X50.861 I2.575
X42.861 I-4
X50.861 I4
G1 X50.855 Y12.557 Z-8.989 F50
X50.839 Y12.612 Z-8.977
X50.817 Y12.655 Z-8.945
X50.789 Y12.695 Z-8.912
X50.741 Y12.739 Z-8.815
X50.723 Y12.752 Z-8.7
G0 Z2
X55.113 Y12.912
G1 Z-0.7 F20
X55.1 Y12.931 Z-0.815
X55.055 Y12.978 Z-0.912
X55.016 Y13.007 Z-0.945
X54.973 Y13.028 Z-0.977
X54.918 Y13.045 Z-0.989
X54.861 Y13.05 Z-1
G3 Y11.95 J-0.55 F30
Y13.05 J0.55
G1 X54.83 Y13.043
X54.805 Y13.024
X54.791 Y12.996
X54.79 Y12.964
X54.802 Y12.936
X54.826 Y12.915
X55.018 Y12.81
X55.048 Y12.801
X55.079 Y12.806
X55.105 Y12.824
X55.121 Y12.851
X55.124 Y12.883
X55.113 Y12.912
Z-1.7 F20
X55.1 Y12.931 Z-1.815
X55.055 Y12.978 Z-1.912
X55.016 Y13.007 Z-1.945
X54.973 Y13.028 Z-1.977
X54.918 Y13.045 Z-1.989
X54.861 Y13.05 Z-2
G3 Y11.95 J-0.55 F30
Y13.05 J0.55
G1 X54.83 Y13.043
X54.805 Y13.024
X54.791 Y12.996
X54.79 Y12.964
X54.802 Y12.936
X54.826 Y12.915
X55.018 Y12.81
X55.048 Y12.801
X55.079 Y12.806
X55.105 Y12.824
X55.121 Y12.851
X55.124 Y12.883
X55.113 Y12.912
Z-2.7 F20
X55.1 Y12.931 Z-2.815
X55.055 Y12.978 Z-2.912
X55.016 Y13.007 Z-2.945
X54.973 Y13.028 Z-2.977
X54.918 Y13.045 Z-2.989
X54.861 Y13.05 Z-3
G3 Y11.95 J-0.55 F30
Y13.05 J0.55
G1 X54.83 Y13.043
X54.805 Y13.024
X54.791 Y12.996
X54.79 Y12.964
X54.802 Y12.936
X54.826 Y12.915
X55.018 Y12.81
X55.048 Y12.801
X55.079 Y12.806
X55.105 Y12.824
X55.121 Y12.851
X55.124 Y12.883
X55.113 Y12.912
Z-3.7 F20
X55.1 Y12.931 Z-3.815
X55.055 Y12.978 Z-3.912
X55.016 Y13.007 Z-3.945
X54.973 Y13.028 Z-3.977
X54.918 Y13.045 Z-3.989
X54.861 Y13.05 Z-4
G3 Y11.95 J-0.55 F30
Y13.05 J0.55
G1 X54.83 Y13.043
X54.805 Y13.024
X54.791 Y12.996
X54.79 Y12.964
X54.802 Y12.936
X54.826 Y12.915
X55.018 Y12.81
X55.048 Y12.801
X55.079 Y12.806
X55.105 Y12.824
X55.121 Y12.851
X55.124 Y12.883
X55.113 Y12.912
Z-4.7 F20
X55.1 Y12.931 Z-4.815
X55.055 Y12.978 Z-4.912
X55.016 Y13.007 Z-4.945
X54.973 Y13.028 Z-4.977
X54.918 Y13.045 Z-4.989
X54.861 Y13.05 Z-5
G3 Y11.95 J-0.55 F30
Y13.05 J0.55
G1 X54.83 Y13.043
X54.805 Y13.024
X54.791 Y12.996
X54.79 Y12.964
X54.802 Y12.936
X54.826 Y12.915
X55.018 Y12.81
X55.048 Y12.801
X55.079 Y12.806
X55.105 Y12.824
X55.121 Y12.851
X55.124 Y12.883
X55.113 Y12.912
Z-5.7 F20
X55.1 Y12.931 Z-5.815
X55.055 Y12.978 Z-5.912
X55.016 Y13.007 Z-5.945
X54.973 Y13.028 Z-5.977
X54.918 Y13.045 Z-5.989
X54.861 Y13.05 Z-6
G3 Y11.95 J-0.55 F30
Y13.05 J0.55
G1 X54.83 Y13.043
X54.805 Y13.024
X54.791 Y12.996
X54.79 Y12.964
X54.802 Y12.936
X54.826 Y12.915
X55.018 Y12.81
X55.048 Y12.801
X55.079 Y12.806
X55.105 Y12.824
X55.121 Y12.851
X55.124 Y12.883
X55.113 Y12.912
Z-6.7 F20
X55.1 Y12.931 Z-6.815
X55.055 Y12.978 Z-6.912
X55.016 Y13.007 Z-6.945
X54.973 Y13.028 Z-6.977
X54.918 Y13.045 Z-6.989
X54.861 Y13.05 Z-7
G3 Y11.95 J-0.55 F30
Y13.05 J0.55
G1 X54.83 Y13.043
X54.805 Y13.024
X54.791 Y12.996
X54.79 Y12.964
X54.802 Y12.936
X54.826 Y12.915
X55.018 Y12.81
X55.048 Y12.801
X55.079 Y12.806
X55.105 Y12.824
X55.121 Y12.851
X55.124 Y12.883
X55.113 Y12.912
Z-7.7 F20
X55.1 Y12.931 Z-7.815
X55.055 Y12.978 Z-7.912
X55.016 Y13.007 Z-7.945
X54.973 Y13.028 Z-7.977
X54.918 Y13.045 Z-7.989
X54.861 Y13.05 Z-8
G3 Y11.95 J-0.55 F30
Y13.05 J0.55
G1 X54.83 Y13.043
X54.805 Y13.024
X54.791 Y12.996
X54.79 Y12.964
X54.802 Y12.936
X54.826 Y12.915
X55.018 Y12.81
X55.048 Y12.801
X55.079 Y12.806
X55.105 Y12.824
X55.121 Y12.851
X55.124 Y12.883
X55.113 Y12.912
Z-8.7 F20
X55.1 Y12.931 Z-8.815
X55.055 Y12.978 Z-8.912
X55.016 Y13.007 Z-8.945
X54.973 Y13.028 Z-8.977
X54.918 Y13.045 Z-8.989
X54.861 Y13.05 Z-9
G3 Y11.95 J-0.55 F30
Y13.05 J0.55
G1 X54.803 Y13.045 Z-8.989 F50
X54.748 Y13.028 Z-8.977
X54.705 Y13.007 Z-8.945
X54.666 Y12.978 Z-8.912
X54.621 Y12.931 Z-8.815
X54.608 Y12.912 Z-8.7
G0 Z2
X46.448 Y4.752
G1 Z-0.7 F20
X46.43 Y4.739 Z-0.815
X46.382 Y4.695 Z-0.912
X46.354 Y4.655 Z-0.945
X46.332 Y4.612 Z-0.977
X46.316 Y4.557 Z-0.989
X46.311 Y4.5 Z-1
G3 X47.41 I0.55 F30
X46.311 I-0.55
G1 X46.317 Y4.469
X46.337 Y4.445
X46.365 Y4.43
X46.396 Y4.429
X46.425 Y4.442
X46.446 Y4.466
X46.55 Y4.657
X46.559 Y4.688
X46.554 Y4.719
X46.536 Y4.745
X46.509 Y4.76
X46.478 Y4.763
X46.448 Y4.752
Z-1.7 F20
X46.43 Y4.739 Z-1.815
X46.382 Y4.695 Z-1.912
X46.354 Y4.655 Z-1.945
X46.332 Y4.612 Z-1.977
X46.316 Y4.557 Z-1.989
X46.311 Y4.5 Z-2
G3 X47.41 I0.55 F30
X46.311 I-0.55
G1 X46.317 Y4.469
X46.337 Y4.445
X46.365 Y4.43
X46.396 Y4.429
X46.425 Y4.442
X46.446 Y4.466
X46.55 Y4.657
X46.559 Y4.688
X46.554 Y4.719
X46.536 Y4.745
X46.509 Y4.76
X46.478 Y4.763
X46.448 Y4.752
Z-2.7 F20
X46.43 Y4.739 Z-2.815
X46.382 Y4.695 Z-2.912
X46.354 Y4.655 Z-2.945
X46.332 Y4.612 Z-2.977
X46.316 Y4.557 Z-2.989
X46.311 Y4.5 Z-3
G3 X47.41 I0.55 F30
X46.311 I-0.55
G1 X46.317 Y4.469
X46.337 Y4.445
X46.365 Y4.43
X46.396 Y4.429
X46.425 Y4.442
X46.446 Y4.466
X46.55 Y4.657
X46.559 Y4.688
X46.554 Y4.719
X46.536 Y4.745
X46.509 Y4.76
X46.478 Y4.763
X46.448 Y4.752
Z-3.7 F20
X46.43 Y4.739 Z-3.815
X46.382 Y4.695 Z-3.912
X46.354 Y4.655 Z-3.945
X46.332 Y4.612 Z-3.977
X46.316 Y4.557 Z-3.989
X46.311 Y4.5 Z-4
G3 X47.41 I0.55 F30
X46.311 I-0.55
G1 X46.317 Y4.469
X46.337 Y4.445
X46.365 Y4.43
X46.396 Y4.429
X46.425 Y4.442
X46.446 Y4.466
X46.55 Y4.657
X46.559 Y4.688
X46.554 Y4.719
X46.536 Y4.745
X46.509 Y4.76
X46.478 Y4.763
X46.448 Y4.752
Z-4.7 F20
X46.43 Y4.739 Z-4.815
X46.382 Y4.695 Z-4.912
X46.354 Y4.655 Z-4.945
X46.332 Y4.612 Z-4.977
X46.316 Y4.557 Z-4.989
X46.311 Y4.5 Z-5
G3 X47.41 I0.55 F30
X46.311 I-0.55
G1 X46.317 Y4.469
X46.337 Y4.445
X46.365 Y4.43
X46.396 Y4.429
X46.425 Y4.442
X46.446 Y4.466
X46.55 Y4.657
X46.559 Y4.688
X46.554 Y4.719
X46.536 Y4.745
X46.509 Y4.76
X46.478 Y4.763
X46.448 Y4.752
Z-5.7 F20
X46.43 Y4.739 Z-5.815
X46.382 Y4.695 Z-5.912
X46.354 Y4.655 Z-5.945
X46.332 Y4.612 Z-5.977
X46.316 Y4.557 Z-5.989
X46.311 Y4.5 Z-6
G3 X47.41 I0.55 F30
X46.311 I-0.55
G1 X46.317 Y4.469
X46.337 Y4.445
X46.365 Y4.43
X46.396 Y4.429
X46.425 Y4.442
X46.446 Y4.466
X46.55 Y4.657
X46.559 Y4.688
X46.554 Y4.719
X46.536 Y4.745
X46.509 Y4.76
X46.478 Y4.763
X46.448 Y4.752
Z-6.7 F20
X46.43 Y4.739 Z-6.815
X46.382 Y4.695 Z-6.912
X46.354 Y4.655 Z-6.945
X46.332 Y4.612 Z-6.977
X46.316 Y4.557 Z-6.989
X46.311 Y4.5 Z-7
G3 X47.41 I0.55 F30
X46.311 I-0.55
G1 X46.317 Y4.469
X46.337 Y4.445
X46.365 Y4.43
X46.396 Y4.429
X46.425 Y4.442
X46.446 Y4.466
X46.55 Y4.657
X46.559 Y4.688
X46.554 Y4.719
X46.536 Y4.745
X46.509 Y4.76
X46.478 Y4.763
X46.448 Y4.752
Z-7.7 F20
X46.43 Y4.739 Z-7.815
X46.382 Y4.695 Z-7.912
X46.354 Y4.655 Z-7.945
X46.332 Y4.612 Z-7.977
X46.316 Y4.557 Z-7.989
X46.311 Y4.5 Z-8
G3 X47.41 I0.55 F30
X46.311 I-0.55
G1 X46.317 Y4.469
X46.337 Y4.445
X46.365 Y4.43
X46.396 Y4.429
X46.425 Y4.442
X46.446 Y4.466
X46.55 Y4.657
X46.559 Y4.688
X46.554 Y4.719
X46.536 Y4.745
X46.509 Y4.76
X46.478 Y4.763
X46.448 Y4.752
Z-8.7 F20
X46.43 Y4.739 Z-8.815
X46.382 Y4.695 Z-8.912
X46.354 Y4.655 Z-8.945
X46.332 Y4.612 Z-8.977
X46.316 Y4.557 Z-8.989
X46.311 Y4.5 Z-9
G3 X47.41 I0.55 F30
X46.311 I-0.55
G1 X46.316 Y4.443 Z-8.989 F50
X46.332 Y4.388 Z-8.977
X46.354 Y4.345 Z-8.945
X46.382 Y4.305 Z-8.912
X46.43 Y4.261 Z-8.815
X46.448 Y4.248 Z-8.7
G0 Z2
X39.113 Y12.912
G1 Z-0.7 F20
X39.1 Y12.931 Z-0.815
X39.055 Y12.978 Z-0.912
X39.016 Y13.007 Z-0.945
X38.973 Y13.028 Z-0.977
X38.918 Y13.045 Z-0.989
X38.861 Y13.05 Z-1
G3 Y11.95 J-0.55 F30
Y13.05 J0.55
G1 X38.83 Y13.043
X38.805 Y13.024
X38.791 Y12.996
X38.79 Y12.964
X38.802 Y12.936
X38.826 Y12.915
X39.018 Y12.81
X39.048 Y12.801
X39.079 Y12.806
X39.105 Y12.824
X39.121 Y12.851
X39.124 Y12.883
X39.113 Y12.912
Z-1.7 F20
X39.1 Y12.931 Z-1.815
X39.055 Y12.978 Z-1.912
X39.016 Y13.007 Z-1.945
X38.973 Y13.028 Z-1.977
X38.918 Y13.045 Z-1.989
X38.861 Y13.05 Z-2
G3 Y11.95 J-0.55 F30
Y13.05 J0.55
G1 X38.83 Y13.043
X38.805 Y13.024
X38.791 Y12.996
X38.79 Y12.964
X38.802 Y12.936
X38.826 Y12.915
X39.018 Y12.81
X39.048 Y12.801
X39.079 Y12.806
X39.105 Y12.824
X39.121 Y12.851
X39.124 Y12.883
X39.113 Y12.912
Z-2.7 F20
X39.1 Y12.931 Z-2.815
X39.055 Y12.978 Z-2.912
X39.016 Y13.007 Z-2.945
X38.973 Y13.028 Z-2.977
X38.918 Y13.045 Z-2.989
X38.861 Y13.05 Z-3
G3 Y11.95 J-0.55 F30
Y13.05 J0.55
G1 X38.83 Y13.043
X38.805 Y13.024
X38.791 Y12.996
X38.79 Y12.964
X38.802 Y12.936
X38.826 Y12.915
X39.018 Y12.81
X39.048 Y12.801
X39.079 Y12.806
X39.105 Y12.824
X39.121 Y12.851
X39.124 Y12.883
X39.113 Y12.912
Z-3.7 F20
X39.1 Y12.931 Z-3.815
X39.055 Y12.978 Z-3.912
X39.016 Y13.007 Z-3.945
X38.973 Y13.028 Z-3.977
X38.918 Y13.045 Z-3.989
X38.861 Y13.05 Z-4
G3 Y11.95 J-0.55 F30
Y13.05 J0.55
G1 X38.83 Y13.043
X38.805 Y13.024
X38.791 Y12.996
X38.79 Y12.964
X38.802 Y12.936
X38.826 Y12.915
X39.018 Y12.81
X39.048 Y12.801
X39.079 Y12.806
X39.105 Y12.824
X39.121 Y12.851
X39.124 Y12.883
X39.113 Y12.912
Z-4.7 F20
X39.1 Y12.931 Z-4.815
X39.055 Y12.978 Z-4.912
X39.016 Y13.007 Z-4.945
X38.973 Y13.028 Z-4.977
X38.918 Y13.045 Z-4.989
X38.861 Y13.05 Z-5
G3 Y11.95 J-0.55 F30
Y13.05 J0.55
G1 X38.83 Y13.043
X38.805 Y13.024
X38.791 Y12.996
X38.79 Y12.964
X38.802 Y12.936
X38.826 Y12.915
X39.018 Y12.81
X39.048 Y12.801
X39.079 Y12.806
X39.105 Y12.824
X39.121 Y12.851
X39.124 Y12.883
X39.113 Y12.912
Z-5.7 F20
X39.1 Y12.931 Z-5.815
X39.055 Y12.978 Z-5.912
X39.016 Y13.007 Z-5.945
X38.973 Y13.028 Z-5.977
X38.918 Y13.045 Z-5.989
X38.861 Y13.05 Z-6
G3 Y11.95 J-0.55 F30
Y13.05 J0.55
G1 X38.83 Y13.043
X38.805 Y13.024
X38.791 Y12.996
X38.79 Y12.964
X38.802 Y12.936
X38.826 Y12.915
X39.018 Y12.81
X39.048 Y12.801
X39.079 Y12.806
X39.105 Y12.824
X39.121 Y12.851
X39.124 Y12.883
X39.113 Y12.912
Z-6.7 F20
X39.1 Y12.931 Z-6.815
X39.055 Y12.978 Z-6.912
X39.016 Y13.007 Z-6.945
X38.973 Y13.028 Z-6.977
X38.918 Y13.045 Z-6.989
X38.861 Y13.05 Z-7
G3 Y11.95 J-0.55 F30
Y13.05 J0.55
G1 X38.83 Y13.043
X38.805 Y13.024
X38.791 Y12.996
X38.79 Y12.964
X38.802 Y12.936
X38.826 Y12.915
X39.018 Y12.81
X39.048 Y12.801
X39.079 Y12.806
X39.105 Y12.824
X39.121 Y12.851
X39.124 Y12.883
X39.113 Y12.912
Z-7.7 F20
X39.1 Y12.931 Z-7.815
X39.055 Y12.978 Z-7.912
X39.016 Y13.007 Z-7.945
X38.973 Y13.028 Z-7.977
X38.918 Y13.045 Z-7.989
X38.861 Y13.05 Z-8
G3 Y11.95 J-0.55 F30
Y13.05 J0.55
G1 X38.83 Y13.043
X38.805 Y13.024
X38.791 Y12.996
X38.79 Y12.964
X38.802 Y12.936
X38.826 Y12.915
X39.018 Y12.81
X39.048 Y12.801
X39.079 Y12.806
X39.105 Y12.824
X39.121 Y12.851
X39.124 Y12.883
X39.113 Y12.912
Z-8.7 F20
X39.1 Y12.931 Z-8.815
X39.055 Y12.978 Z-8.912
X39.016 Y13.007 Z-8.945
X38.973 Y13.028 Z-8.977
X38.918 Y13.045 Z-8.989
X38.861 Y13.05 Z-9
G3 Y11.95 J-0.55 F30
Y13.05 J0.55
G1 X38.803 Y13.045 Z-8.989 F50
X38.748 Y13.028 Z-8.977
X38.705 Y13.007 Z-8.945
X38.666 Y12.978 Z-8.912
X38.621 Y12.931 Z-8.815
X38.608 Y12.912 Z-8.7
G0 Z2
X25.5 Y5.25
G1 Z-1 F20
X20.5 F30
G3 Y4.75 J-0.25
G1 X25.5
G3 Y5.25 J0.25
G1 Z-2 F20
X20.5 F30
G3 Y4.75 J-0.25
G1 X25.5
G3 Y5.25 J0.25
G1 Z-3 F20
X20.5 F30
G3 Y4.75 J-0.25
G1 X25.5
G3 Y5.25 J0.25
G1 Z-4 F20
X20.5 F30
G3 Y4.75 J-0.25
G1 X25.5
G3 Y5.25 J0.25
G1 Z-5 F20
X20.5 F30
G3 Y4.75 J-0.25
G1 X25.5
G3 Y5.25 J0.25
G1 Z-6 F20
X20.5 F30
G3 Y4.75 J-0.25
G1 X25.5
G3 Y5.25 J0.25
G1 Z-7 F20
X20.5 F30
G3 Y4.75 J-0.25
G1 X25.5
G3 Y5.25 J0.25
G1 Z-8 F20
X20.5 F30
G3 Y4.75 J-0.25
G1 X25.5
G3 Y5.25 J0.25
G1 Z-9 F20
X20.5 F30
G3 Y4.75 J-0.25
G1 X25.5
G3 Y5.25 J0.25
G18 G3 X25.2 Z-8.7 K0.3 F50
G0 Z2
X25.5 Y39.75
G1 Z-1 F20
G17 G3 Y40.25 J0.25 F30
G1 X20.5
G3 Y39.75 J-0.25
G1 X25.5
Z-2 F20
G3 Y40.25 J0.25 F30
G1 X20.5
G3 Y39.75 J-0.25
G1 X25.5
Z-3 F20
G3 Y40.25 J0.25 F30
G1 X20.5
G3 Y39.75 J-0.25
G1 X25.5
Z-4 F20
G3 Y40.25 J0.25 F30
G1 X20.5
G3 Y39.75 J-0.25
G1 X25.5
Z-5 F20
G3 Y40.25 J0.25 F30
G1 X20.5
G3 Y39.75 J-0.25
G1 X25.5
Z-6 F20
G3 Y40.25 J0.25 F30
G1 X20.5
G3 Y39.75 J-0.25
G1 X25.5
Z-7 F20
G3 Y40.25 J0.25 F30
G1 X20.5
G3 Y39.75 J-0.25
G1 X25.5
Z-8 F20
G3 Y40.25 J0.25 F30
G1 X20.5
G3 Y39.75 J-0.25
G1 X25.5
Z-9 F20
G3 Y40.25 J0.25 F30
G1 X20.5
G3 Y39.75 J-0.25
G1 X25.5
X25.557 Y39.757 Z-8.989 F50
X25.611 Y39.776 Z-8.977
X25.652 Y39.802 Z-8.945
X25.688 Y39.835 Z-8.912
X25.707 Y39.86 Z-8.863
X25.724 Y39.889 Z-8.815
X25.733 Y39.909 Z-8.7
G0 Z5

(2D Contour1)
X50.45 Y35.2
Z5
Z2
G1 Z-0.7 F20
G18 G2 X50.75 Z-1 I0.3
G1 X51.05
G17 G3 X51.35 Y35.5 J0.3
X38.65 I-6.35 F50
X51.35 I6.35
X51.05 Y35.8 I-0.3
G1 X50.75
G18 G3 X50.45 Z-0.7 K0.3
G0 Z2
Y35.2
Z1
G1 Z-1.7 F20
G2 X50.75 Z-2 I0.3
G1 X51.05
G17 G3 X51.35 Y35.5 J0.3
X38.65 I-6.35 F50
X51.35 I6.35
X51.05 Y35.8 I-0.3
G1 X50.75
G18 G3 X50.45 Z-1.7 K0.3
G0 Z2
Y35.2
Z1
G1 Z0 F20
Z-2.7
G2 X50.75 Z-3 I0.3
G1 X51.05
G17 G3 X51.35 Y35.5 J0.3
X38.65 I-6.35 F50
X51.35 I6.35
X51.05 Y35.8 I-0.3
G1 X50.75
G18 G3 X50.45 Z-2.7 K0.3
G0 Z2
Y35.2
Z1
G1 Z-1 F20
Z-3.7
G2 X50.75 Z-4 I0.3
G1 X51.05
G17 G3 X51.35 Y35.5 J0.3
X38.65 I-6.35 F50
X51.35 I6.35
X51.05 Y35.8 I-0.3
G1 X50.75
G18 G3 X50.45 Z-3.7 K0.3
G0 Z2
Y35.2
Z1
G1 Z-2 F20
Z-4.7
G2 X50.75 Z-5 I0.3
G1 X51.05
G17 G3 X51.35 Y35.5 J0.3
X38.65 I-6.35 F50
X51.35 I6.35
X51.05 Y35.8 I-0.3
G1 X50.75
G18 G3 X50.45 Z-4.7 K0.3
G0 Z2
Y35.2
Z1
G1 Z-3 F20
Z-5.7
G2 X50.75 Z-6 I0.3
G1 X51.05
G17 G3 X51.35 Y35.5 J0.3
X38.65 I-6.35 F50
X51.35 I6.35
X51.05 Y35.8 I-0.3
G1 X50.75
G18 G3 X50.45 Z-5.7 K0.3
G0 Z2
Y35.2
Z1
G1 Z-4 F20
Z-6.7
G2 X50.75 Z-7 I0.3
G1 X51.05
G17 G3 X51.35 Y35.5 J0.3
X38.65 I-6.35 F50
X51.35 I6.35
X51.05 Y35.8 I-0.3
G1 X50.75
G18 G3 X50.45 Z-6.7 K0.3
G0 Z2
Y35.2
Z1
G1 Z-5 F20
Z-7.7
G2 X50.75 Z-8 I0.3
G1 X51.05
G17 G3 X51.35 Y35.5 J0.3
X38.65 I-6.35 F50
X51.35 I6.35
X51.05 Y35.8 I-0.3
G1 X50.75
G18 G3 X50.45 Z-7.7 K0.3
G0 Z2
Y35.2
Z1
G1 Z-6 F20
Z-8.7
G2 X50.75 Z-9 I0.3
G1 X51.05
G17 G3 X51.35 Y35.5 J0.3
X38.65 I-6.35 F50
X51.35 I6.35
X51.05 Y35.8 I-0.3
G1 X50.75
G18 G3 X50.45 Z-8.7 K0.3
G0 Z2
X-0.3 Y47.4
G1 Z-0.7 F20
G19 G2 Y47.1 Z-1 J-0.3
G1 Y46.8
G17 G3 X0 Y46.5 I0.3
G1 X65 F50
G2 X66.5 Y45 J-1.5
G1 Y0
G2 X65 Y-1.5 I-1.5
G1 X0
G2 X-1.5 Y0 J1.5
G1 Y45
G2 X0 Y46.5 I1.5
G3 X0.3 Y46.8 J0.3
G1 Y47.1
G19 G3 Y47.4 Z-0.7 K0.3
G0 Z2
X-0.3
Z1
G1 Z-1.7 F20
G2 Y47.1 Z-2 J-0.3
G1 Y46.8
G17 G3 X0 Y46.5 I0.3
G1 X65 F50
G2 X66.5 Y45 J-1.5
G1 Y0
G2 X65 Y-1.5 I-1.5
G1 X0
G2 X-1.5 Y0 J1.5
G1 Y45
G2 X0 Y46.5 I1.5
G3 X0.3 Y46.8 J0.3
G1 Y47.1
G19 G3 Y47.4 Z-1.7 K0.3
G0 Z2
X-0.3
Z1
G1 Z0 F20
Z-2.7
G2 Y47.1 Z-3 J-0.3
G1 Y46.8
G17 G3 X0 Y46.5 I0.3
G1 X65 F50
G2 X66.5 Y45 J-1.5
G1 Y0
G2 X65 Y-1.5 I-1.5
G1 X0
G2 X-1.5 Y0 J1.5
G1 Y45
G2 X0 Y46.5 I1.5
G3 X0.3 Y46.8 J0.3
G1 Y47.1
G19 G3 Y47.4 Z-2.7 K0.3
G0 Z2
X-0.3
Z1
G1 Z-1 F20
Z-3.7
G2 Y47.1 Z-4 J-0.3
G1 Y46.8
G17 G3 X0 Y46.5 I0.3
G1 X65 F50
G2 X66.5 Y45 J-1.5
G1 Y0
G2 X65 Y-1.5 I-1.5
G1 X0
G2 X-1.5 Y0 J1.5
G1 Y45
G2 X0 Y46.5 I1.5
G3 X0.3 Y46.8 J0.3
G1 Y47.1
G19 G3 Y47.4 Z-3.7 K0.3
G0 Z2
X-0.3
Z1
G1 Z-2 F20
Z-4.7
G2 Y47.1 Z-5 J-0.3
G1 Y46.8
G17 G3 X0 Y46.5 I0.3
G1 X65 F50
G2 X66.5 Y45 J-1.5
G1 Y0
G2 X65 Y-1.5 I-1.5
G1 X0
G2 X-1.5 Y0 J1.5
G1 Y45
G2 X0 Y46.5 I1.5
G3 X0.3 Y46.8 J0.3
G1 Y47.1
G19 G3 Y47.4 Z-4.7 K0.3
G0 Z2
X-0.3
Z1
G1 Z-3 F20
Z-5.7
G2 Y47.1 Z-6 J-0.3
G1 Y46.8
G17 G3 X0 Y46.5 I0.3
G1 X65 F50
G2 X66.5 Y45 J-1.5
G1 Y0
G2 X65 Y-1.5 I-1.5
G1 X0
G2 X-1.5 Y0 J1.5
G1 Y45
G2 X0 Y46.5 I1.5
G3 X0.3 Y46.8 J0.3
G1 Y47.1
G19 G3 Y47.4 Z-5.7 K0.3
G0 Z2
X-0.3
Z1
G1 Z-4 F20
Z-6.7
G2 Y47.1 Z-7 J-0.3
G1 Y46.8
G17 G3 X0 Y46.5 I0.3
G1 X65 F50
G2 X66.5 Y45 J-1.5
G1 Y0
G2 X65 Y-1.5 I-1.5
G1 X0
G2 X-1.5 Y0 J1.5
G1 Y45
G2 X0 Y46.5 I1.5
G3 X0.3 Y46.8 J0.3
G1 Y47.1
G19 G3 Y47.4 Z-6.7 K0.3
G0 Z2
X-0.3
Z1
G1 Z-5 F20
Z-7.7
G2 Y47.1 Z-8 J-0.3
G1 Y46.8
G17 G3 X0 Y46.5 I0.3
G1 X65 F50
G2 X66.5 Y45 J-1.5
G1 Y0
G2 X65 Y-1.5 I-1.5
G1 X0
G2 X-1.5 Y0 J1.5
G1 Y45
G2 X0 Y46.5 I1.5
G3 X0.3 Y46.8 J0.3
G1 Y47.1
G19 G3 Y47.4 Z-7.7 K0.3
G0 Z2
X-0.3
Z1
G1 Z-6 F20
Z-8.7
G2 Y47.1 Z-9 J-0.3
G1 Y46.8
G17 G3 X0 Y46.5 I0.3
G1 X65 F50
G2 X66.5 Y45 J-1.5
G1 Y0
G2 X65 Y-1.5 I-1.5
G1 X0
G2 X-1.5 Y0 J1.5
G1 Y45
G2 X0 Y46.5 I1.5
G3 X0.3 Y46.8 J0.3
G1 Y47.1
G19 G3 Y47.4 Z-8.7 K0.3
G0 Z5
G17
M9
G28 G91 Z0
G90
G28 G91 X0 Y0
G90
M30
%
