%
(1001)
(T1  D=3 CR=0 - ZMIN=-10 - flat end mill)
G90 G94
G17
G21
G28 G91 Z6
G90

(2D Pocket1)
M9
T1 M6
S1000 M3
G54
M8
G0 X7 Y39.75
Z5
Z2.8
G1 Z2.5 F20
Z-1
G3 Y40.25 J0.25 F30
Y39.75 J-0.25
G1 Z-2 F20
G3 Y40.25 J0.25 F30
Y39.75 J-0.25
G1 Z-3 F20
G3 Y40.25 J0.25 F30
Y39.75 J-0.25
G1 Z-4 F20
G3 Y40.25 J0.25 F30
Y39.75 J-0.25
G1 Z-5 F20
G3 Y40.25 J0.25 F30
Y39.75 J-0.25
G1 Z-6 F20
G3 Y40.25 J0.25 F30
Y39.75 J-0.25
G1 Z-7 F20
G3 Y40.25 J0.25 F30
Y39.75 J-0.25
G1 Z-8 F20
G3 Y40.25 J0.25 F30
Y39.75 J-0.25
G1 Z-9 F20
G3 Y40.25 J0.25 F30
Y39.75 J-0.25
G1 Z-10 F20
G3 Y40.25 J0.25 F30
Y39.75 J-0.25
G1 X7.047 Y39.754 Z-9.996 F50
X7.091 Y39.767 Z-9.985
X7.13 Y39.786 Z-9.967
X7.162 Y39.81 Z-9.943
X7.188 Y39.835 Z-9.912
X7.206 Y39.859 Z-9.876
X7.219 Y39.88 Z-9.836
X7.227 Y39.896 Z-9.793
X7.232 Y39.906 Z-9.747
X7.233 Y39.909 Z-9.7
G0 Z2.8
X7 Y5.25
G1 Z2.5 F20
Z-1
G3 Y4.75 J-0.25 F30
Y5.25 J0.25
G1 Z-2 F20
G3 Y4.75 J-0.25 F30
Y5.25 J0.25
G1 Z-3 F20
G3 Y4.75 J-0.25 F30
Y5.25 J0.25
G1 Z-4 F20
G3 Y4.75 J-0.25 F30
Y5.25 J0.25
G1 Z-5 F20
G3 Y4.75 J-0.25 F30
Y5.25 J0.25
G1 Z-6 F20
G3 Y4.75 J-0.25 F30
Y5.25 J0.25
G1 Z-7 F20
G3 Y4.75 J-0.25 F30
Y5.25 J0.25
G1 Z-8 F20
G3 Y4.75 J-0.25 F30
Y5.25 J0.25
G1 Z-9 F20
G3 Y4.75 J-0.25 F30
Y5.25 J0.25
G1 Z-10 F20
G3 Y4.75 J-0.25 F30
Y5.25 J0.25
G1 X6.953 Y5.246 Z-9.996 F50
X6.909 Y5.233 Z-9.985
X6.87 Y5.214 Z-9.967
X6.838 Y5.19 Z-9.943
X6.812 Y5.165 Z-9.912
X6.794 Y5.141 Z-9.876
X6.781 Y5.12 Z-9.836
X6.773 Y5.104 Z-9.793
X6.768 Y5.094 Z-9.747
X6.767 Y5.091 Z-9.7
G0 Z5

(2D Contour1)
X-2.4 Y-0.3
Z5
Z2
G1 Z-0.7 F20
G18 G2 X-2.1 Z-1 I0.3
G1 X-1.8
G17 G3 X-1.5 Y0 J0.3
G1 Y45 F50
G2 X0 Y46.5 I1.5
G1 X30
G2 X31.5 Y45 J-1.5
G1 Y32.5
G2 X30 Y31 I-1.5
G1 X10.272
Y14
X30
G2 X31.5 Y12.5 J-1.5
G1 Y0
G2 X30 Y-1.5 I-1.5
G1 X0
G2 X-1.5 Y0 J1.5
G3 X-1.8 Y0.3 I-0.3 F60
G1 X-2.1
G18 G3 X-2.4 Z-0.7 K0.3
G0 Z2
Y-0.3
Z1
G1 Z-1.7 F20
G2 X-2.1 Z-2 I0.3
G1 X-1.8
G17 G3 X-1.5 Y0 J0.3
G1 Y45 F50
G2 X0 Y46.5 I1.5
G1 X30
G2 X31.5 Y45 J-1.5
G1 Y32.5
G2 X30 Y31 I-1.5
G1 X10.272
Y14
X30
G2 X31.5 Y12.5 J-1.5
G1 Y0
G2 X30 Y-1.5 I-1.5
G1 X0
G2 X-1.5 Y0 J1.5
G3 X-1.8 Y0.3 I-0.3 F60
G1 X-2.1
G18 G3 X-2.4 Z-1.7 K0.3
G0 Z2
Y-0.3
Z1
G1 Z0 F20
Z-2.7
G2 X-2.1 Z-3 I0.3
G1 X-1.8
G17 G3 X-1.5 Y0 J0.3
G1 Y45 F50
G2 X0 Y46.5 I1.5
G1 X30
G2 X31.5 Y45 J-1.5
G1 Y32.5
G2 X30 Y31 I-1.5
G1 X10.272
Y14
X30
G2 X31.5 Y12.5 J-1.5
G1 Y0
G2 X30 Y-1.5 I-1.5
G1 X0
G2 X-1.5 Y0 J1.5
G3 X-1.8 Y0.3 I-0.3 F60
G1 X-2.1
G18 G3 X-2.4 Z-2.7 K0.3
G0 Z2
Y-0.3
Z1
G1 Z-1 F20
Z-3.7
G2 X-2.1 Z-4 I0.3
G1 X-1.8
G17 G3 X-1.5 Y0 J0.3
G1 Y45 F50
G2 X0 Y46.5 I1.5
G1 X30
G2 X31.5 Y45 J-1.5
G1 Y32.5
G2 X30 Y31 I-1.5
G1 X10.272
Y14
X30
G2 X31.5 Y12.5 J-1.5
G1 Y0
G2 X30 Y-1.5 I-1.5
G1 X0
G2 X-1.5 Y0 J1.5
G3 X-1.8 Y0.3 I-0.3 F60
G1 X-2.1
G18 G3 X-2.4 Z-3.7 K0.3
G0 Z2
Y-0.3
Z1
G1 Z-2 F20
Z-4.7
G2 X-2.1 Z-5 I0.3
G1 X-1.8
G17 G3 X-1.5 Y0 J0.3
G1 Y45 F50
G2 X0 Y46.5 I1.5
G1 X30
G2 X31.5 Y45 J-1.5
G1 Y32.5
G2 X30 Y31 I-1.5
G1 X10.272
Y14
X30
G2 X31.5 Y12.5 J-1.5
G1 Y0
G2 X30 Y-1.5 I-1.5
G1 X0
G2 X-1.5 Y0 J1.5
G3 X-1.8 Y0.3 I-0.3 F60
G1 X-2.1
G18 G3 X-2.4 Z-4.7 K0.3
G0 Z2
Y-0.3
Z1
G1 Z-3 F20
Z-5.7
G2 X-2.1 Z-6 I0.3
G1 X-1.8
G17 G3 X-1.5 Y0 J0.3
G1 Y45 F50
G2 X0 Y46.5 I1.5
G1 X30
G2 X31.5 Y45 J-1.5
G1 Y32.5
G2 X30 Y31 I-1.5
G1 X10.272
Y14
X30
G2 X31.5 Y12.5 J-1.5
G1 Y0
G2 X30 Y-1.5 I-1.5
G1 X0
G2 X-1.5 Y0 J1.5
G3 X-1.8 Y0.3 I-0.3 F60
G1 X-2.1
G18 G3 X-2.4 Z-5.7 K0.3
G0 Z2
Y-0.3
Z1
G1 Z-4 F20
Z-6.7
G2 X-2.1 Z-7 I0.3
G1 X-1.8
G17 G3 X-1.5 Y0 J0.3
G1 Y45 F50
G2 X0 Y46.5 I1.5
G1 X30
G2 X31.5 Y45 J-1.5
G1 Y32.5
G2 X30 Y31 I-1.5
G1 X10.272
Y14
X30
G2 X31.5 Y12.5 J-1.5
G1 Y0
G2 X30 Y-1.5 I-1.5
G1 X0
G2 X-1.5 Y0 J1.5
G3 X-1.8 Y0.3 I-0.3 F60
G1 X-2.1
G18 G3 X-2.4 Z-6.7 K0.3
G0 Z2
Y-0.3
Z1
G1 Z-5 F20
Z-7.7
G2 X-2.1 Z-8 I0.3
G1 X-1.8
G17 G3 X-1.5 Y0 J0.3
G1 Y45 F50
G2 X0 Y46.5 I1.5
G1 X30
G2 X31.5 Y45 J-1.5
G1 Y32.5
G2 X30 Y31 I-1.5
G1 X10.272
Y14
X30
G2 X31.5 Y12.5 J-1.5
G1 Y0
G2 X30 Y-1.5 I-1.5
G1 X0
G2 X-1.5 Y0 J1.5
G3 X-1.8 Y0.3 I-0.3 F60
G1 X-2.1
G18 G3 X-2.4 Z-7.7 K0.3
G0 Z2
Y-0.3
Z1
G1 Z-6 F20
Z-8.7
G2 X-2.1 Z-9 I0.3
G1 X-1.8
G17 G3 X-1.5 Y0 J0.3
G1 Y45 F50
G2 X0 Y46.5 I1.5
G1 X30
G2 X31.5 Y45 J-1.5
G1 Y32.5
G2 X30 Y31 I-1.5
G1 X10.272
Y14
X30
G2 X31.5 Y12.5 J-1.5
G1 Y0
G2 X30 Y-1.5 I-1.5
G1 X0
G2 X-1.5 Y0 J1.5
G3 X-1.8 Y0.3 I-0.3 F60
G1 X-2.1
G18 G3 X-2.4 Z-8.7 K0.3
G0 Z2
Y-0.3
Z1
G1 Z-7 F20
Z-9.7
G2 X-2.1 Z-10 I0.3
G1 X-1.8
G17 G3 X-1.5 Y0 J0.3
G1 Y45 F50
G2 X0 Y46.5 I1.5
G1 X30
G2 X31.5 Y45 J-1.5
G1 Y32.5
G2 X30 Y31 I-1.5
G1 X10.272
Y14
X30
G2 X31.5 Y12.5 J-1.5
G1 Y0
G2 X30 Y-1.5 I-1.5
G1 X0
G2 X-1.5 Y0 J1.5
G3 X-1.8 Y0.3 I-0.3 F60
G1 X-2.1
G18 G3 X-2.4 Z-9.7 K0.3
G0 Z5
G17
M9
G28 G91 Z0
G90
G28 G91 X0 Y0
G90
M30
%
