%
(1001)
(T1  D=3 CR=0.75 - ZMIN=-9 - bullnose end mill)
G90 G94
G17
G21
G28 G91 Z6
G90

(2D Pocket1)
M9
T1 M6
S1000 M3
G54
M8
G0 X44.609 Y30
Z5
Z2.8
G1 Z2.5 F30
Z-1 F33
G3 X44.109 I-0.25 F50
X44.609 I0.25
G1 Z-2 F33
G3 X44.109 I-0.25 F50
X44.609 I0.25
G1 Z-3 F33
G3 X44.109 I-0.25 F50
X44.609 I0.25
G1 Z-4 F33
G3 X44.109 I-0.25 F50
X44.609 I0.25
G1 Z-5 F33
G3 X44.109 I-0.25 F50
X44.609 I0.25
G1 Z-6 F33
G3 X44.109 I-0.25 F50
X44.609 I0.25
G1 Z-7 F33
G3 X44.109 I-0.25 F50
X44.609 I0.25
G1 Z-8 F33
G3 X44.109 I-0.25 F50
X44.609 I0.25
G1 Z-9 F33
G3 X44.109 I-0.25 F50
X44.609 I0.25
G1 X44.602 Y30.057 Z-8.989 F100
X44.583 Y30.111 Z-8.977
X44.557 Y30.152 Z-8.945
X44.524 Y30.188 Z-8.912
X44.498 Y30.207 Z-8.863
X44.47 Y30.224 Z-8.815
X44.449 Y30.233 Z-8.7
G0 Z2.8
X35.819 Y17.3
G1 Z2.5 F33
Z-0.7
G19 G2 Y17 Z-1 J-0.3
G17 G3 X36.544 I0.362 F50
X34.394 I-1.075
X37.969 I1.787
X32.969 I-2.5
X37.969 I2.5
G1 X37.963 Y17.044
X37.943 Y17.084
X37.913 Y17.117
X37.875 Y17.139
X37.832 Y17.149
X36.005 Y17.308
G3 X35.979 Y17.009 I-0.013 J-0.149
X36.14 Y17.183 I0.013 J0.149
G1 X36.117 Y17.324
G3 X35.819 Y17.3 I-0.148 J-0.024
G1 Z-1.7 F33
G19 G2 Y17 Z-2 J-0.3
G17 G3 X36.544 I0.362 F50
X34.394 I-1.075
X37.969 I1.787
X32.969 I-2.5
X37.969 I2.5
G1 X37.963 Y17.044
X37.943 Y17.084
X37.913 Y17.117
X37.875 Y17.139
X37.832 Y17.149
X36.005 Y17.308
G3 X35.979 Y17.009 I-0.013 J-0.149
X36.14 Y17.183 I0.013 J0.149
G1 X36.117 Y17.324
G3 X35.819 Y17.3 I-0.148 J-0.024
G1 Z-2.7 F33
G19 G2 Y17 Z-3 J-0.3
G17 G3 X36.544 I0.362 F50
X34.394 I-1.075
X37.969 I1.787
X32.969 I-2.5
X37.969 I2.5
G1 X37.963 Y17.044
X37.943 Y17.084
X37.913 Y17.117
X37.875 Y17.139
X37.832 Y17.149
X36.005 Y17.308
G3 X35.979 Y17.009 I-0.013 J-0.149
X36.14 Y17.183 I0.013 J0.149
G1 X36.117 Y17.324
G3 X35.819 Y17.3 I-0.148 J-0.024
G1 Z-3.7 F33
G19 G2 Y17 Z-4 J-0.3
G17 G3 X36.544 I0.362 F50
X34.394 I-1.075
X37.969 I1.787
X32.969 I-2.5
X37.969 I2.5
G1 X37.963 Y17.044
X37.943 Y17.084
X37.913 Y17.117
X37.875 Y17.139
X37.832 Y17.149
X36.005 Y17.308
G3 X35.979 Y17.009 I-0.013 J-0.149
X36.14 Y17.183 I0.013 J0.149
G1 X36.117 Y17.324
G3 X35.819 Y17.3 I-0.148 J-0.024
G1 Z-4.7 F33
G19 G2 Y17 Z-5 J-0.3
G17 G3 X36.544 I0.362 F50
X34.394 I-1.075
X37.969 I1.787
X32.969 I-2.5
X37.969 I2.5
G1 X37.963 Y17.044
X37.943 Y17.084
X37.913 Y17.117
X37.875 Y17.139
X37.832 Y17.149
X36.005 Y17.308
G3 X35.979 Y17.009 I-0.013 J-0.149
X36.14 Y17.183 I0.013 J0.149
G1 X36.117 Y17.324
G3 X35.819 Y17.3 I-0.148 J-0.024
G1 Z-5.7 F33
G19 G2 Y17 Z-6 J-0.3
G17 G3 X36.544 I0.362 F50
X34.394 I-1.075
X37.969 I1.787
X32.969 I-2.5
X37.969 I2.5
G1 X37.963 Y17.044
X37.943 Y17.084
X37.913 Y17.117
X37.875 Y17.139
X37.832 Y17.149
X36.005 Y17.308
G3 X35.979 Y17.009 I-0.013 J-0.149
X36.14 Y17.183 I0.013 J0.149
G1 X36.117 Y17.324
G3 X35.819 Y17.3 I-0.148 J-0.024
G1 Z-6.7 F33
G19 G2 Y17 Z-7 J-0.3
G17 G3 X36.544 I0.362 F50
X34.394 I-1.075
X37.969 I1.787
X32.969 I-2.5
X37.969 I2.5
G1 X37.963 Y17.044
X37.943 Y17.084
X37.913 Y17.117
X37.875 Y17.139
X37.832 Y17.149
X36.005 Y17.308
G3 X35.979 Y17.009 I-0.013 J-0.149
X36.14 Y17.183 I0.013 J0.149
G1 X36.117 Y17.324
G3 X35.819 Y17.3 I-0.148 J-0.024
G1 Z-7.7 F33
G19 G2 Y17 Z-8 J-0.3
G17 G3 X36.544 I0.362 F50
X34.394 I-1.075
X37.969 I1.787
X32.969 I-2.5
X37.969 I2.5
G1 X37.963 Y17.044
X37.943 Y17.084
X37.913 Y17.117
X37.875 Y17.139
X37.832 Y17.149
X36.005 Y17.308
G3 X35.979 Y17.009 I-0.013 J-0.149
X36.14 Y17.183 I0.013 J0.149
G1 X36.117 Y17.324
G3 X35.819 Y17.3 I-0.148 J-0.024
G1 Z-8.7 F33
G19 G2 Y17 Z-9 J-0.3
G17 G3 X36.544 I0.362 F50
X34.394 I-1.075
X37.969 I1.787
X32.969 I-2.5
X37.969 I2.5
G1 X37.964 Y17.057 Z-8.989 F100
X37.947 Y17.112 Z-8.977
X37.926 Y17.155 Z-8.945
X37.897 Y17.195 Z-8.912
X37.85 Y17.239 Z-8.815
X37.831 Y17.252 Z-8.7
G0 Z2.8
X22.859 Y30.25
G1 Z2.5 F33
Z-1
G3 Y29.75 J-0.25 F50
Y30.25 J0.25
G1 Z-2 F33
G3 Y29.75 J-0.25 F50
Y30.25 J0.25
G1 Z-3 F33
G3 Y29.75 J-0.25 F50
Y30.25 J0.25
G1 Z-4 F33
G3 Y29.75 J-0.25 F50
Y30.25 J0.25
G1 Z-5 F33
G3 Y29.75 J-0.25 F50
Y30.25 J0.25
G1 Z-6 F33
G3 Y29.75 J-0.25 F50
Y30.25 J0.25
G1 Z-7 F33
G3 Y29.75 J-0.25 F50
Y30.25 J0.25
G1 Z-8 F33
G3 Y29.75 J-0.25 F50
Y30.25 J0.25
G1 Z-9 F33
G3 Y29.75 J-0.25 F50
Y30.25 J0.25
G1 X22.802 Y30.243 Z-8.989 F100
X22.748 Y30.224 Z-8.977
X22.707 Y30.198 Z-8.945
X22.671 Y30.165 Z-8.912
X22.651 Y30.14 Z-8.863
X22.635 Y30.111 Z-8.815
X22.626 Y30.091 Z-8.7
G0 Z2.8
X3.748 Y29.388
G1 Z2.5 F33
Z-0.7
X3.761 Y29.369 Z-0.815
X3.805 Y29.322 Z-0.912
X3.845 Y29.293 Z-0.945
X3.888 Y29.272 Z-0.977
X3.943 Y29.255 Z-0.989
X4 Y29.25 Z-1
G3 Y30.75 J0.75 F50
Y29.25 J-0.75
G1 X4.031 Y29.257
X4.055 Y29.276
X4.07 Y29.304
X4.071 Y29.336
X4.058 Y29.364
X4.034 Y29.385
X3.843 Y29.49
X3.812 Y29.499
X3.781 Y29.494
X3.755 Y29.476
X3.74 Y29.449
X3.737 Y29.417
X3.748 Y29.388
Z-1.7 F33
X3.761 Y29.369 Z-1.815
X3.805 Y29.322 Z-1.912
X3.845 Y29.293 Z-1.945
X3.888 Y29.272 Z-1.977
X3.943 Y29.255 Z-1.989
X4 Y29.25 Z-2
G3 Y30.75 J0.75 F50
Y29.25 J-0.75
G1 X4.031 Y29.257
X4.055 Y29.276
X4.07 Y29.304
X4.071 Y29.336
X4.058 Y29.364
X4.034 Y29.385
X3.843 Y29.49
X3.812 Y29.499
X3.781 Y29.494
X3.755 Y29.476
X3.74 Y29.449
X3.737 Y29.417
X3.748 Y29.388
Z-2.7 F33
X3.761 Y29.369 Z-2.815
X3.805 Y29.322 Z-2.912
X3.845 Y29.293 Z-2.945
X3.888 Y29.272 Z-2.977
X3.943 Y29.255 Z-2.989
X4 Y29.25 Z-3
G3 Y30.75 J0.75 F50
Y29.25 J-0.75
G1 X4.031 Y29.257
X4.055 Y29.276
X4.07 Y29.304
X4.071 Y29.336
X4.058 Y29.364
X4.034 Y29.385
X3.843 Y29.49
X3.812 Y29.499
X3.781 Y29.494
X3.755 Y29.476
X3.74 Y29.449
X3.737 Y29.417
X3.748 Y29.388
Z-3.7 F33
X3.761 Y29.369 Z-3.815
X3.805 Y29.322 Z-3.912
X3.845 Y29.293 Z-3.945
X3.888 Y29.272 Z-3.977
X3.943 Y29.255 Z-3.989
X4 Y29.25 Z-4
G3 Y30.75 J0.75 F50
Y29.25 J-0.75
G1 X4.031 Y29.257
X4.055 Y29.276
X4.07 Y29.304
X4.071 Y29.336
X4.058 Y29.364
X4.034 Y29.385
X3.843 Y29.49
X3.812 Y29.499
X3.781 Y29.494
X3.755 Y29.476
X3.74 Y29.449
X3.737 Y29.417
X3.748 Y29.388
Z-4.7 F33
X3.761 Y29.369 Z-4.815
X3.805 Y29.322 Z-4.912
X3.845 Y29.293 Z-4.945
X3.888 Y29.272 Z-4.977
X3.943 Y29.255 Z-4.989
X4 Y29.25 Z-5
G3 Y30.75 J0.75 F50
Y29.25 J-0.75
G1 X4.031 Y29.257
X4.055 Y29.276
X4.07 Y29.304
X4.071 Y29.336
X4.058 Y29.364
X4.034 Y29.385
X3.843 Y29.49
X3.812 Y29.499
X3.781 Y29.494
X3.755 Y29.476
X3.74 Y29.449
X3.737 Y29.417
X3.748 Y29.388
Z-5.7 F33
X3.761 Y29.369 Z-5.815
X3.805 Y29.322 Z-5.912
X3.845 Y29.293 Z-5.945
X3.888 Y29.272 Z-5.977
X3.943 Y29.255 Z-5.989
X4 Y29.25 Z-6
G3 Y30.75 J0.75 F50
Y29.25 J-0.75
G1 X4.031 Y29.257
X4.055 Y29.276
X4.07 Y29.304
X4.071 Y29.336
X4.058 Y29.364
X4.034 Y29.385
X3.843 Y29.49
X3.812 Y29.499
X3.781 Y29.494
X3.755 Y29.476
X3.74 Y29.449
X3.737 Y29.417
X3.748 Y29.388
Z-6.7 F33
X3.761 Y29.369 Z-6.815
X3.805 Y29.322 Z-6.912
X3.845 Y29.293 Z-6.945
X3.888 Y29.272 Z-6.977
X3.943 Y29.255 Z-6.989
X4 Y29.25 Z-7
G3 Y30.75 J0.75 F50
Y29.25 J-0.75
G1 X4.031 Y29.257
X4.055 Y29.276
X4.07 Y29.304
X4.071 Y29.336
X4.058 Y29.364
X4.034 Y29.385
X3.843 Y29.49
X3.812 Y29.499
X3.781 Y29.494
X3.755 Y29.476
X3.74 Y29.449
X3.737 Y29.417
X3.748 Y29.388
Z-7.7 F33
X3.761 Y29.369 Z-7.815
X3.805 Y29.322 Z-7.912
X3.845 Y29.293 Z-7.945
X3.888 Y29.272 Z-7.977
X3.943 Y29.255 Z-7.989
X4 Y29.25 Z-8
G3 Y30.75 J0.75 F50
Y29.25 J-0.75
G1 X4.031 Y29.257
X4.055 Y29.276
X4.07 Y29.304
X4.071 Y29.336
X4.058 Y29.364
X4.034 Y29.385
X3.843 Y29.49
X3.812 Y29.499
X3.781 Y29.494
X3.755 Y29.476
X3.74 Y29.449
X3.737 Y29.417
X3.748 Y29.388
Z-8.7 F33
X3.761 Y29.369 Z-8.815
X3.805 Y29.322 Z-8.912
X3.845 Y29.293 Z-8.945
X3.888 Y29.272 Z-8.977
X3.943 Y29.255 Z-8.989
X4 Y29.25 Z-9
G3 Y30.75 J0.75 F50
Y29.25 J-0.75
G1 X4.057 Y29.255 Z-8.989 F100
X4.112 Y29.272 Z-8.977
X4.155 Y29.293 Z-8.945
X4.195 Y29.322 Z-8.912
X4.239 Y29.369 Z-8.815
X4.252 Y29.388 Z-8.7
G0 Z2.8
X3.748 Y9.388
G1 Z2.5 F33
Z-0.7
X3.761 Y9.369 Z-0.815
X3.805 Y9.322 Z-0.912
X3.845 Y9.293 Z-0.945
X3.888 Y9.272 Z-0.977
X3.943 Y9.255 Z-0.989
X4 Y9.25 Z-1
G3 Y10.75 J0.75 F50
Y9.25 J-0.75
G1 X4.031 Y9.257
X4.055 Y9.276
X4.07 Y9.304
X4.071 Y9.336
X4.058 Y9.364
X4.034 Y9.385
X3.843 Y9.49
X3.812 Y9.499
X3.781 Y9.494
X3.755 Y9.476
X3.74 Y9.449
X3.737 Y9.417
X3.748 Y9.388
Z-1.7 F33
X3.761 Y9.369 Z-1.815
X3.805 Y9.322 Z-1.912
X3.845 Y9.293 Z-1.945
X3.888 Y9.272 Z-1.977
X3.943 Y9.255 Z-1.989
X4 Y9.25 Z-2
G3 Y10.75 J0.75 F50
Y9.25 J-0.75
G1 X4.031 Y9.257
X4.055 Y9.276
X4.07 Y9.304
X4.071 Y9.336
X4.058 Y9.364
X4.034 Y9.385
X3.843 Y9.49
X3.812 Y9.499
X3.781 Y9.494
X3.755 Y9.476
X3.74 Y9.449
X3.737 Y9.417
X3.748 Y9.388
Z-2.7 F33
X3.761 Y9.369 Z-2.815
X3.805 Y9.322 Z-2.912
X3.845 Y9.293 Z-2.945
X3.888 Y9.272 Z-2.977
X3.943 Y9.255 Z-2.989
X4 Y9.25 Z-3
G3 Y10.75 J0.75 F50
Y9.25 J-0.75
G1 X4.031 Y9.257
X4.055 Y9.276
X4.07 Y9.304
X4.071 Y9.336
X4.058 Y9.364
X4.034 Y9.385
X3.843 Y9.49
X3.812 Y9.499
X3.781 Y9.494
X3.755 Y9.476
X3.74 Y9.449
X3.737 Y9.417
X3.748 Y9.388
Z-3.7 F33
X3.761 Y9.369 Z-3.815
X3.805 Y9.322 Z-3.912
X3.845 Y9.293 Z-3.945
X3.888 Y9.272 Z-3.977
X3.943 Y9.255 Z-3.989
X4 Y9.25 Z-4
G3 Y10.75 J0.75 F50
Y9.25 J-0.75
G1 X4.031 Y9.257
X4.055 Y9.276
X4.07 Y9.304
X4.071 Y9.336
X4.058 Y9.364
X4.034 Y9.385
X3.843 Y9.49
X3.812 Y9.499
X3.781 Y9.494
X3.755 Y9.476
X3.74 Y9.449
X3.737 Y9.417
X3.748 Y9.388
Z-4.7 F33
X3.761 Y9.369 Z-4.815
X3.805 Y9.322 Z-4.912
X3.845 Y9.293 Z-4.945
X3.888 Y9.272 Z-4.977
X3.943 Y9.255 Z-4.989
X4 Y9.25 Z-5
G3 Y10.75 J0.75 F50
Y9.25 J-0.75
G1 X4.031 Y9.257
X4.055 Y9.276
X4.07 Y9.304
X4.071 Y9.336
X4.058 Y9.364
X4.034 Y9.385
X3.843 Y9.49
X3.812 Y9.499
X3.781 Y9.494
X3.755 Y9.476
X3.74 Y9.449
X3.737 Y9.417
X3.748 Y9.388
Z-5.7 F33
X3.761 Y9.369 Z-5.815
X3.805 Y9.322 Z-5.912
X3.845 Y9.293 Z-5.945
X3.888 Y9.272 Z-5.977
X3.943 Y9.255 Z-5.989
X4 Y9.25 Z-6
G3 Y10.75 J0.75 F50
Y9.25 J-0.75
G1 X4.031 Y9.257
X4.055 Y9.276
X4.07 Y9.304
X4.071 Y9.336
X4.058 Y9.364
X4.034 Y9.385
X3.843 Y9.49
X3.812 Y9.499
X3.781 Y9.494
X3.755 Y9.476
X3.74 Y9.449
X3.737 Y9.417
X3.748 Y9.388
Z-6.7 F33
X3.761 Y9.369 Z-6.815
X3.805 Y9.322 Z-6.912
X3.845 Y9.293 Z-6.945
X3.888 Y9.272 Z-6.977
X3.943 Y9.255 Z-6.989
X4 Y9.25 Z-7
G3 Y10.75 J0.75 F50
Y9.25 J-0.75
G1 X4.031 Y9.257
X4.055 Y9.276
X4.07 Y9.304
X4.071 Y9.336
X4.058 Y9.364
X4.034 Y9.385
X3.843 Y9.49
X3.812 Y9.499
X3.781 Y9.494
X3.755 Y9.476
X3.74 Y9.449
X3.737 Y9.417
X3.748 Y9.388
Z-7.7 F33
X3.761 Y9.369 Z-7.815
X3.805 Y9.322 Z-7.912
X3.845 Y9.293 Z-7.945
X3.888 Y9.272 Z-7.977
X3.943 Y9.255 Z-7.989
X4 Y9.25 Z-8
G3 Y10.75 J0.75 F50
Y9.25 J-0.75
G1 X4.031 Y9.257
X4.055 Y9.276
X4.07 Y9.304
X4.071 Y9.336
X4.058 Y9.364
X4.034 Y9.385
X3.843 Y9.49
X3.812 Y9.499
X3.781 Y9.494
X3.755 Y9.476
X3.74 Y9.449
X3.737 Y9.417
X3.748 Y9.388
Z-8.7 F33
X3.761 Y9.369 Z-8.815
X3.805 Y9.322 Z-8.912
X3.845 Y9.293 Z-8.945
X3.888 Y9.272 Z-8.977
X3.943 Y9.255 Z-8.989
X4 Y9.25 Z-9
G3 Y10.75 J0.75 F50
Y9.25 J-0.75
G1 X4.057 Y9.255 Z-8.989 F100
X4.112 Y9.272 Z-8.977
X4.155 Y9.293 Z-8.945
X4.195 Y9.322 Z-8.912
X4.239 Y9.369 Z-8.815
X4.252 Y9.388 Z-8.7
G0 Z2.8
X3.748 Y49.388
G1 Z2.5 F33
Z-0.7
X3.761 Y49.369 Z-0.815
X3.805 Y49.322 Z-0.912
X3.845 Y49.293 Z-0.945
X3.888 Y49.272 Z-0.977
X3.943 Y49.255 Z-0.989
X4 Y49.25 Z-1
G3 Y50.75 J0.75 F50
Y49.25 J-0.75
G1 X4.031 Y49.257
X4.055 Y49.276
X4.07 Y49.304
X4.071 Y49.336
X4.058 Y49.364
X4.034 Y49.385
X3.843 Y49.49
X3.812 Y49.499
X3.781 Y49.494
X3.755 Y49.476
X3.74 Y49.449
X3.737 Y49.417
X3.748 Y49.388
Z-1.7 F33
X3.761 Y49.369 Z-1.815
X3.805 Y49.322 Z-1.912
X3.845 Y49.293 Z-1.945
X3.888 Y49.272 Z-1.977
X3.943 Y49.255 Z-1.989
X4 Y49.25 Z-2
G3 Y50.75 J0.75 F50
Y49.25 J-0.75
G1 X4.031 Y49.257
X4.055 Y49.276
X4.07 Y49.304
X4.071 Y49.336
X4.058 Y49.364
X4.034 Y49.385
X3.843 Y49.49
X3.812 Y49.499
X3.781 Y49.494
X3.755 Y49.476
X3.74 Y49.449
X3.737 Y49.417
X3.748 Y49.388
Z-2.7 F33
X3.761 Y49.369 Z-2.815
X3.805 Y49.322 Z-2.912
X3.845 Y49.293 Z-2.945
X3.888 Y49.272 Z-2.977
X3.943 Y49.255 Z-2.989
X4 Y49.25 Z-3
G3 Y50.75 J0.75 F50
Y49.25 J-0.75
G1 X4.031 Y49.257
X4.055 Y49.276
X4.07 Y49.304
X4.071 Y49.336
X4.058 Y49.364
X4.034 Y49.385
X3.843 Y49.49
X3.812 Y49.499
X3.781 Y49.494
X3.755 Y49.476
X3.74 Y49.449
X3.737 Y49.417
X3.748 Y49.388
Z-3.7 F33
X3.761 Y49.369 Z-3.815
X3.805 Y49.322 Z-3.912
X3.845 Y49.293 Z-3.945
X3.888 Y49.272 Z-3.977
X3.943 Y49.255 Z-3.989
X4 Y49.25 Z-4
G3 Y50.75 J0.75 F50
Y49.25 J-0.75
G1 X4.031 Y49.257
X4.055 Y49.276
X4.07 Y49.304
X4.071 Y49.336
X4.058 Y49.364
X4.034 Y49.385
X3.843 Y49.49
X3.812 Y49.499
X3.781 Y49.494
X3.755 Y49.476
X3.74 Y49.449
X3.737 Y49.417
X3.748 Y49.388
Z-4.7 F33
X3.761 Y49.369 Z-4.815
X3.805 Y49.322 Z-4.912
X3.845 Y49.293 Z-4.945
X3.888 Y49.272 Z-4.977
X3.943 Y49.255 Z-4.989
X4 Y49.25 Z-5
G3 Y50.75 J0.75 F50
Y49.25 J-0.75
G1 X4.031 Y49.257
X4.055 Y49.276
X4.07 Y49.304
X4.071 Y49.336
X4.058 Y49.364
X4.034 Y49.385
X3.843 Y49.49
X3.812 Y49.499
X3.781 Y49.494
X3.755 Y49.476
X3.74 Y49.449
X3.737 Y49.417
X3.748 Y49.388
Z-5.7 F33
X3.761 Y49.369 Z-5.815
X3.805 Y49.322 Z-5.912
X3.845 Y49.293 Z-5.945
X3.888 Y49.272 Z-5.977
X3.943 Y49.255 Z-5.989
X4 Y49.25 Z-6
G3 Y50.75 J0.75 F50
Y49.25 J-0.75
G1 X4.031 Y49.257
X4.055 Y49.276
X4.07 Y49.304
X4.071 Y49.336
X4.058 Y49.364
X4.034 Y49.385
X3.843 Y49.49
X3.812 Y49.499
X3.781 Y49.494
X3.755 Y49.476
X3.74 Y49.449
X3.737 Y49.417
X3.748 Y49.388
Z-6.7 F33
X3.761 Y49.369 Z-6.815
X3.805 Y49.322 Z-6.912
X3.845 Y49.293 Z-6.945
X3.888 Y49.272 Z-6.977
X3.943 Y49.255 Z-6.989
X4 Y49.25 Z-7
G3 Y50.75 J0.75 F50
Y49.25 J-0.75
G1 X4.031 Y49.257
X4.055 Y49.276
X4.07 Y49.304
X4.071 Y49.336
X4.058 Y49.364
X4.034 Y49.385
X3.843 Y49.49
X3.812 Y49.499
X3.781 Y49.494
X3.755 Y49.476
X3.74 Y49.449
X3.737 Y49.417
X3.748 Y49.388
Z-7.7 F33
X3.761 Y49.369 Z-7.815
X3.805 Y49.322 Z-7.912
X3.845 Y49.293 Z-7.945
X3.888 Y49.272 Z-7.977
X3.943 Y49.255 Z-7.989
X4 Y49.25 Z-8
G3 Y50.75 J0.75 F50
Y49.25 J-0.75
G1 X4.031 Y49.257
X4.055 Y49.276
X4.07 Y49.304
X4.071 Y49.336
X4.058 Y49.364
X4.034 Y49.385
X3.843 Y49.49
X3.812 Y49.499
X3.781 Y49.494
X3.755 Y49.476
X3.74 Y49.449
X3.737 Y49.417
X3.748 Y49.388
Z-8.7 F33
X3.761 Y49.369 Z-8.815
X3.805 Y49.322 Z-8.912
X3.845 Y49.293 Z-8.945
X3.888 Y49.272 Z-8.977
X3.943 Y49.255 Z-8.989
X4 Y49.25 Z-9
G3 Y50.75 J0.75 F50
Y49.25 J-0.75
G1 X4.057 Y49.255 Z-8.989 F100
X4.112 Y49.272 Z-8.977
X4.155 Y49.293 Z-8.945
X4.195 Y49.322 Z-8.912
X4.239 Y49.369 Z-8.815
X4.252 Y49.388 Z-8.7
G0 Z2.8
X22.609 Y50
G1 Z2.5 F33
Z-1
G3 X23.109 I0.25 F50
X22.609 I-0.25
G1 Z-2 F33
G3 X23.109 I0.25 F50
X22.609 I-0.25
G1 Z-3 F33
G3 X23.109 I0.25 F50
X22.609 I-0.25
G1 Z-4 F33
G3 X23.109 I0.25 F50
X22.609 I-0.25
G1 Z-5 F33
G3 X23.109 I0.25 F50
X22.609 I-0.25
G1 Z-6 F33
G3 X23.109 I0.25 F50
X22.609 I-0.25
G1 Z-7 F33
G3 X23.109 I0.25 F50
X22.609 I-0.25
G1 Z-8 F33
G3 X23.109 I0.25 F50
X22.609 I-0.25
G1 Z-9 F33
G3 X23.109 I0.25 F50
X22.609 I-0.25
G1 X22.615 Y49.943 Z-8.989 F100
X22.635 Y49.889 Z-8.977
X22.66 Y49.848 Z-8.945
X22.693 Y49.812 Z-8.912
X22.719 Y49.793 Z-8.863
X22.747 Y49.776 Z-8.815
X22.768 Y49.767 Z-8.7
G0 Z2.8
X44.609 Y50
G1 Z2.5 F33
Z-1
G3 X44.109 I-0.25 F50
X44.609 I0.25
G1 Z-2 F33
G3 X44.109 I-0.25 F50
X44.609 I0.25
G1 Z-3 F33
G3 X44.109 I-0.25 F50
X44.609 I0.25
G1 Z-4 F33
G3 X44.109 I-0.25 F50
X44.609 I0.25
G1 Z-5 F33
G3 X44.109 I-0.25 F50
X44.609 I0.25
G1 Z-6 F33
G3 X44.109 I-0.25 F50
X44.609 I0.25
G1 Z-7 F33
G3 X44.109 I-0.25 F50
X44.609 I0.25
G1 Z-8 F33
G3 X44.109 I-0.25 F50
X44.609 I0.25
G1 Z-9 F33
G3 X44.109 I-0.25 F50
X44.609 I0.25
G1 X44.602 Y50.057 Z-8.989 F100
X44.583 Y50.111 Z-8.977
X44.557 Y50.152 Z-8.945
X44.524 Y50.188 Z-8.912
X44.498 Y50.207 Z-8.863
X44.47 Y50.224 Z-8.815
X44.449 Y50.233 Z-8.7
G0 Z2.8
X68 Y55.25
G1 Z2.5 F33
Z-1
X63 F50
G3 Y54.75 J-0.25
G1 X68
G3 Y55.25 J0.25
G1 X67.978 Y55.244
X67.961 Y55.229
X67.954 Y55.207
X67.959 Y55.185
X67.973 Y55.168
X68.125 Y55.056
X68.25 Y55
Z-2 F33
G3 X68 Y55.25 I-0.25 F50
G1 X63
G3 Y54.75 J-0.25
G1 X68
G3 X68.25 Y55 J0.25
G1 Z-3 F33
G3 X68 Y55.25 I-0.25 F50
G1 X63
G3 Y54.75 J-0.25
G1 X68
G3 X68.25 Y55 J0.25
G1 Z-4 F33
G3 X68 Y55.25 I-0.25 F50
G1 X63
G3 Y54.75 J-0.25
G1 X68
G3 X68.25 Y55 J0.25
G1 Z-5 F33
G3 X68 Y55.25 I-0.25 F50
G1 X63
G3 Y54.75 J-0.25
G1 X68
G3 X68.25 Y55 J0.25
G1 Z-6 F33
G3 X68 Y55.25 I-0.25 F50
G1 X63
G3 Y54.75 J-0.25
G1 X68
G3 X68.25 Y55 J0.25
G1 Z-7 F33
G3 X68 Y55.25 I-0.25 F50
G1 X63
G3 Y54.75 J-0.25
G1 X68
G3 X68.25 Y55 J0.25
G1 Z-8 F33
G3 X68 Y55.25 I-0.25 F50
G1 X63
G3 Y54.75 J-0.25
G1 X68
G3 X68.25 Y55 J0.25
G1 Z-9 F33
G3 X68 Y55.25 I-0.25 F50
G1 X63
G3 Y54.75 J-0.25
G1 X68
G3 X68.25 Y55 J0.25
G1 X68.243 Y55.057 Z-8.989 F100
X68.224 Y55.111 Z-8.977
X68.198 Y55.152 Z-8.945
X68.165 Y55.188 Z-8.912
X68.14 Y55.207 Z-8.863
X68.111 Y55.224 Z-8.815
X68.091 Y55.233 Z-8.7
G0 Z2.8
X68 Y5.25
G1 Z2.5 F33
Z-1
X63 F50
G3 Y4.75 J-0.25
G1 X68
G3 Y5.25 J0.25
G1 Z-2 F33
X63 F50
G3 Y4.75 J-0.25
G1 X68
G3 Y5.25 J0.25
G1 Z-3 F33
X63 F50
G3 Y4.75 J-0.25
G1 X68
G3 Y5.25 J0.25
G1 Z-4 F33
X63 F50
G3 Y4.75 J-0.25
G1 X68
G3 Y5.25 J0.25
G1 Z-5 F33
X63 F50
G3 Y4.75 J-0.25
G1 X68
G3 Y5.25 J0.25
G1 Z-6 F33
X63 F50
G3 Y4.75 J-0.25
G1 X68
G3 Y5.25 J0.25
G1 Z-7 F33
X63 F50
G3 Y4.75 J-0.25
G1 X68
G3 Y5.25 J0.25
G1 Z-8 F33
X63 F50
G3 Y4.75 J-0.25
G1 X68
G3 Y5.25 J0.25
G1 Z-9 F33
X63 F50
G3 Y4.75 J-0.25
G1 X68
G3 Y5.25 J0.25
G18 G3 X67.7 Z-8.7 K0.3 F100
G0 Z5
G17

(2D Contour1)
G0 X38.709 Y39.7
Z5
Z2
G1 Z-0.7 F33
G18 G2 X39.009 Z-1 I0.3
G1 X39.309 F30
G17 G3 X39.609 Y40 J0.3
X27.609 I-6 F60
X39.609 I6
X39.309 Y40.3 I-0.3 F100
G1 X39.009
G18 G3 X38.709 Z-0.7 K0.3
G0 Z2
Y39.7
Z1.516
G1 Z-1.7 F33
G2 X39.009 Z-2 I0.3
G1 X39.309 F30
G17 G3 X39.609 Y40 J0.3
X27.609 I-6 F60
X39.609 I6
X39.309 Y40.3 I-0.3 F100
G1 X39.009
G18 G3 X38.709 Z-1.7 K0.3
G0 Z2
Y39.7
Z1
G1 Z0.516 F33
Z-2.7
G2 X39.009 Z-3 I0.3
G1 X39.309 F30
G17 G3 X39.609 Y40 J0.3
X27.609 I-6 F60
X39.609 I6
X39.309 Y40.3 I-0.3 F100
G1 X39.009
G18 G3 X38.709 Z-2.7 K0.3
G0 Z2
Y39.7
Z1
G1 Z-0.484 F33
Z-3.7
G2 X39.009 Z-4 I0.3
G1 X39.309 F30
G17 G3 X39.609 Y40 J0.3
X27.609 I-6 F60
X39.609 I6
X39.309 Y40.3 I-0.3 F100
G1 X39.009
G18 G3 X38.709 Z-3.7 K0.3
G0 Z2
Y39.7
Z1
G1 Z-1.484 F33
Z-4.7
G2 X39.009 Z-5 I0.3
G1 X39.309 F30
G17 G3 X39.609 Y40 J0.3
X27.609 I-6 F60
X39.609 I6
X39.309 Y40.3 I-0.3 F100
G1 X39.009
G18 G3 X38.709 Z-4.7 K0.3
G0 Z2
Y39.7
Z1
G1 Z-2.484 F33
Z-5.7
G2 X39.009 Z-6 I0.3
G1 X39.309 F30
G17 G3 X39.609 Y40 J0.3
X27.609 I-6 F60
X39.609 I6
X39.309 Y40.3 I-0.3 F100
G1 X39.009
G18 G3 X38.709 Z-5.7 K0.3
G0 Z2
Y39.7
Z1
G1 Z-3.484 F33
Z-6.7
G2 X39.009 Z-7 I0.3
G1 X39.309 F30
G17 G3 X39.609 Y40 J0.3
X27.609 I-6 F60
X39.609 I6
X39.309 Y40.3 I-0.3 F100
G1 X39.009
G18 G3 X38.709 Z-6.7 K0.3
G0 Z2
Y39.7
Z1
G1 Z-4.484 F33
Z-7.7
G2 X39.009 Z-8 I0.3
G1 X39.309 F30
G17 G3 X39.609 Y40 J0.3
X27.609 I-6 F60
X39.609 I6
X39.309 Y40.3 I-0.3 F100
G1 X39.009
G18 G3 X38.709 Z-7.7 K0.3
G0 Z2
Y39.7
Z1
G1 Z-5.484 F33
Z-8.7
G2 X39.009 Z-9 I0.3
G1 X39.309 F30
G17 G3 X39.609 Y40 J0.3
X27.609 I-6 F60
X39.609 I6
X39.309 Y40.3 I-0.3 F100
G1 X39.009
G18 G3 X38.709 Z-8.7 K0.3
G0 Z2
X65.8 Y38.1
G1 Z-0.7 F33
G19 G3 Y38.4 Z-1 J0.3
G1 Y38.7 F30
G17 G3 X65.5 Y39 I-0.3
Y21 J-9 F60
G1 X70.5
G3 X72.643 Y21.259 J9
G2 X74.5 Y19.802 I0.357 J-1.457
G1 Y0
G2 X73 Y-1.5 I-1.5
G1 X48
G2 X46.5 Y0 J1.5
G1 Y3.5
X0
G2 X-1.5 Y5 J1.5
G1 Y55
G2 X0 Y56.5 I1.5
G1 X49
Y60
G2 X50.5 Y61.5 I1.5
G1 X73
G2 X74.5 Y60 J-1.5
G1 Y40.198
G2 X72.643 Y38.741 I-1.5
G3 X70.5 Y39 I-2.143 J-8.741
G1 X65.5
G3 X65.2 Y38.7 J-0.3 F100
G1 Y38.4
G19 G2 Y38.1 Z-0.7 K0.3
G0 Z2
X65.8
Z1.516
G1 Z-1.7 F33
G3 Y38.4 Z-2 J0.3
G1 Y38.7 F30
G17 G3 X65.5 Y39 I-0.3
Y21 J-9 F60
G1 X70.5
G3 X72.643 Y21.259 J9
G2 X74.5 Y19.802 I0.357 J-1.457
G1 Y0
G2 X73 Y-1.5 I-1.5
G1 X48
G2 X46.5 Y0 J1.5
G1 Y3.5
X0
G2 X-1.5 Y5 J1.5
G1 Y55
G2 X0 Y56.5 I1.5
G1 X49
Y60
G2 X50.5 Y61.5 I1.5
G1 X73
G2 X74.5 Y60 J-1.5
G1 Y40.198
G2 X72.643 Y38.741 I-1.5
G3 X70.5 Y39 I-2.143 J-8.741
G1 X65.5
G3 X65.2 Y38.7 J-0.3 F100
G1 Y38.4
G19 G2 Y38.1 Z-1.7 K0.3
G0 Z2
X65.8
Z1
G1 Z0.516 F33
Z-2.7
G3 Y38.4 Z-3 J0.3
G1 Y38.7 F30
G17 G3 X65.5 Y39 I-0.3
Y21 J-9 F60
G1 X70.5
G3 X72.643 Y21.259 J9
G2 X74.5 Y19.802 I0.357 J-1.457
G1 Y0
G2 X73 Y-1.5 I-1.5
G1 X48
G2 X46.5 Y0 J1.5
G1 Y3.5
X0
G2 X-1.5 Y5 J1.5
G1 Y55
G2 X0 Y56.5 I1.5
G1 X49
Y60
G2 X50.5 Y61.5 I1.5
G1 X73
G2 X74.5 Y60 J-1.5
G1 Y40.198
G2 X72.643 Y38.741 I-1.5
G3 X70.5 Y39 I-2.143 J-8.741
G1 X65.5
G3 X65.2 Y38.7 J-0.3 F100
G1 Y38.4
G19 G2 Y38.1 Z-2.7 K0.3
G0 Z2
X65.8
Z1
G1 Z-0.484 F33
Z-3.7
G3 Y38.4 Z-4 J0.3
G1 Y38.7 F30
G17 G3 X65.5 Y39 I-0.3
Y21 J-9 F60
G1 X70.5
G3 X72.643 Y21.259 J9
G2 X74.5 Y19.802 I0.357 J-1.457
G1 Y0
G2 X73 Y-1.5 I-1.5
G1 X48
G2 X46.5 Y0 J1.5
G1 Y3.5
X0
G2 X-1.5 Y5 J1.5
G1 Y55
G2 X0 Y56.5 I1.5
G1 X49
Y60
G2 X50.5 Y61.5 I1.5
G1 X73
G2 X74.5 Y60 J-1.5
G1 Y40.198
G2 X72.643 Y38.741 I-1.5
G3 X70.5 Y39 I-2.143 J-8.741
G1 X65.5
G3 X65.2 Y38.7 J-0.3 F100
G1 Y38.4
G19 G2 Y38.1 Z-3.7 K0.3
G0 Z2
X65.8
Z1
G1 Z-1.484 F33
Z-4.7
G3 Y38.4 Z-5 J0.3
G1 Y38.7 F30
G17 G3 X65.5 Y39 I-0.3
Y21 J-9 F60
G1 X70.5
G3 X72.643 Y21.259 J9
G2 X74.5 Y19.802 I0.357 J-1.457
G1 Y0
G2 X73 Y-1.5 I-1.5
G1 X48
G2 X46.5 Y0 J1.5
G1 Y3.5
X0
G2 X-1.5 Y5 J1.5
G1 Y55
G2 X0 Y56.5 I1.5
G1 X49
Y60
G2 X50.5 Y61.5 I1.5
G1 X73
G2 X74.5 Y60 J-1.5
G1 Y40.198
G2 X72.643 Y38.741 I-1.5
G3 X70.5 Y39 I-2.143 J-8.741
G1 X65.5
G3 X65.2 Y38.7 J-0.3 F100
G1 Y38.4
G19 G2 Y38.1 Z-4.7 K0.3
G0 Z2
X65.8
Z1
G1 Z-2.484 F33
Z-5.7
G3 Y38.4 Z-6 J0.3
G1 Y38.7 F30
G17 G3 X65.5 Y39 I-0.3
Y21 J-9 F60
G1 X70.5
G3 X72.643 Y21.259 J9
G2 X74.5 Y19.802 I0.357 J-1.457
G1 Y0
G2 X73 Y-1.5 I-1.5
G1 X48
G2 X46.5 Y0 J1.5
G1 Y3.5
X0
G2 X-1.5 Y5 J1.5
G1 Y55
G2 X0 Y56.5 I1.5
G1 X49
Y60
G2 X50.5 Y61.5 I1.5
G1 X73
G2 X74.5 Y60 J-1.5
G1 Y40.198
G2 X72.643 Y38.741 I-1.5
G3 X70.5 Y39 I-2.143 J-8.741
G1 X65.5
G3 X65.2 Y38.7 J-0.3 F100
G1 Y38.4
G19 G2 Y38.1 Z-5.7 K0.3
G0 Z2
X65.8
Z1
G1 Z-3.484 F33
Z-6.7
G3 Y38.4 Z-7 J0.3
G1 Y38.7 F30
G17 G3 X65.5 Y39 I-0.3
Y21 J-9 F60
G1 X70.5
G3 X72.643 Y21.259 J9
G2 X74.5 Y19.802 I0.357 J-1.457
G1 Y0
G2 X73 Y-1.5 I-1.5
G1 X48
G2 X46.5 Y0 J1.5
G1 Y3.5
X0
G2 X-1.5 Y5 J1.5
G1 Y55
G2 X0 Y56.5 I1.5
G1 X49
Y60
G2 X50.5 Y61.5 I1.5
G1 X73
G2 X74.5 Y60 J-1.5
G1 Y40.198
G2 X72.643 Y38.741 I-1.5
G3 X70.5 Y39 I-2.143 J-8.741
G1 X65.5
G3 X65.2 Y38.7 J-0.3 F100
G1 Y38.4
G19 G2 Y38.1 Z-6.7 K0.3
G0 Z2
X65.8
Z1
G1 Z-4.484 F33
Z-7.7
G3 Y38.4 Z-8 J0.3
G1 Y38.7 F30
G17 G3 X65.5 Y39 I-0.3
Y21 J-9 F60
G1 X70.5
G3 X72.643 Y21.259 J9
G2 X74.5 Y19.802 I0.357 J-1.457
G1 Y0
G2 X73 Y-1.5 I-1.5
G1 X48
G2 X46.5 Y0 J1.5
G1 Y3.5
X0
G2 X-1.5 Y5 J1.5
G1 Y55
G2 X0 Y56.5 I1.5
G1 X49
Y60
G2 X50.5 Y61.5 I1.5
G1 X73
G2 X74.5 Y60 J-1.5
G1 Y40.198
G2 X72.643 Y38.741 I-1.5
G3 X70.5 Y39 I-2.143 J-8.741
G1 X65.5
G3 X65.2 Y38.7 J-0.3 F100
G1 Y38.4
G19 G2 Y38.1 Z-7.7 K0.3
G0 Z2
X65.8
Z1
G1 Z-5.484 F33
Z-8.7
G3 Y38.4 Z-9 J0.3
G1 Y38.7 F30
G17 G3 X65.5 Y39 I-0.3
Y21 J-9 F60
G1 X70.5
G3 X72.643 Y21.259 J9
G2 X74.5 Y19.802 I0.357 J-1.457
G1 Y0
G2 X73 Y-1.5 I-1.5
G1 X48
G2 X46.5 Y0 J1.5
G1 Y3.5
X0
G2 X-1.5 Y5 J1.5
G1 Y55
G2 X0 Y56.5 I1.5
G1 X49
Y60
G2 X50.5 Y61.5 I1.5
G1 X73
G2 X74.5 Y60 J-1.5
G1 Y40.198
G2 X72.643 Y38.741 I-1.5
G3 X70.5 Y39 I-2.143 J-8.741
G1 X65.5
G3 X65.2 Y38.7 J-0.3 F100
G1 Y38.4
G19 G2 Y38.1 Z-8.7 K0.3
G0 Z5
G17
M9
G28 G91 Z0
G90
G28 G91 X0 Y0
G90
M30
%
