%
(1001)
(T1  D=3 CR=0.75 - ZMIN=-9 - bullnose end mill)
G90 G94
G17
G21
G28 G91 Z6
G90

(2D Pocket1)
M9
T1 M6
S1000 M3
G54
M8
G0 X27.25 Y18
Z5
Z2.8
G1 Z2.5 F30
Z-1 F33
G3 X27.75 I0.25 F50
X27.25 I-0.25
G1 Z-2 F33
G3 X27.75 I0.25 F50
X27.25 I-0.25
G1 Z-3 F33
G3 X27.75 I0.25 F50
X27.25 I-0.25
G1 Z-4 F33
G3 X27.75 I0.25 F50
X27.25 I-0.25
G1 Z-5 F33
G3 X27.75 I0.25 F50
X27.25 I-0.25
G1 Z-6 F33
G3 X27.75 I0.25 F50
X27.25 I-0.25
G1 Z-7 F33
G3 X27.75 I0.25 F50
X27.25 I-0.25
G1 Z-8 F33
G3 X27.75 I0.25 F50
X27.25 I-0.25
G1 Z-9 F33
G3 X27.75 I0.25 F50
X27.25 I-0.25
G1 X27.254 Y17.953 Z-8.996 F100
X27.267 Y17.909 Z-8.985
X27.286 Y17.87 Z-8.967
X27.31 Y17.838 Z-8.943
X27.335 Y17.812 Z-8.912
X27.359 Y17.794 Z-8.876
X27.38 Y17.781 Z-8.836
X27.396 Y17.773 Z-8.793
X27.406 Y17.768 Z-8.747
X27.409 Y17.767 Z-8.7
G0 Z2.8
X32.388 Y4.252
G1 Z2.5 F33
Z-0.7
X32.385 Y4.25 Z-0.747
X32.376 Y4.244 Z-0.793
X32.361 Y4.233 Z-0.836
X32.343 Y4.217 Z-0.876
X32.322 Y4.195 Z-0.912
X32.3 Y4.166 Z-0.943
X32.28 Y4.132 Z-0.967
X32.264 Y4.091 Z-0.985
X32.254 Y4.047 Z-0.996
X32.25 Y4 Z-1
G3 X33.75 I0.75 F50
X32.25 I-0.75
G1 X32.257 Y3.969
X32.276 Y3.945
X32.304 Y3.93
X32.336 Y3.929
X32.364 Y3.942
X32.385 Y3.966
X32.49 Y4.157
X32.499 Y4.188
X32.494 Y4.219
X32.476 Y4.245
X32.449 Y4.26
X32.417 Y4.263
X32.388 Y4.252
Z-1.7 F33
X32.385 Y4.25 Z-1.747
X32.376 Y4.244 Z-1.793
X32.361 Y4.233 Z-1.836
X32.343 Y4.217 Z-1.876
X32.322 Y4.195 Z-1.912
X32.3 Y4.166 Z-1.943
X32.28 Y4.132 Z-1.967
X32.264 Y4.091 Z-1.985
X32.254 Y4.047 Z-1.996
X32.25 Y4 Z-2
G3 X33.75 I0.75 F50
X32.25 I-0.75
G1 X32.257 Y3.969
X32.276 Y3.945
X32.304 Y3.93
X32.336 Y3.929
X32.364 Y3.942
X32.385 Y3.966
X32.49 Y4.157
X32.499 Y4.188
X32.494 Y4.219
X32.476 Y4.245
X32.449 Y4.26
X32.417 Y4.263
X32.388 Y4.252
Z-2.7 F33
X32.385 Y4.25 Z-2.747
X32.376 Y4.244 Z-2.793
X32.361 Y4.233 Z-2.836
X32.343 Y4.217 Z-2.876
X32.322 Y4.195 Z-2.912
X32.3 Y4.166 Z-2.943
X32.28 Y4.132 Z-2.967
X32.264 Y4.091 Z-2.985
X32.254 Y4.047 Z-2.996
X32.25 Y4 Z-3
G3 X33.75 I0.75 F50
X32.25 I-0.75
G1 X32.257 Y3.969
X32.276 Y3.945
X32.304 Y3.93
X32.336 Y3.929
X32.364 Y3.942
X32.385 Y3.966
X32.49 Y4.157
X32.499 Y4.188
X32.494 Y4.219
X32.476 Y4.245
X32.449 Y4.26
X32.417 Y4.263
X32.388 Y4.252
Z-3.7 F33
X32.385 Y4.25 Z-3.747
X32.376 Y4.244 Z-3.793
X32.361 Y4.233 Z-3.836
X32.343 Y4.217 Z-3.876
X32.322 Y4.195 Z-3.912
X32.3 Y4.166 Z-3.943
X32.28 Y4.132 Z-3.967
X32.264 Y4.091 Z-3.985
X32.254 Y4.047 Z-3.996
X32.25 Y4 Z-4
G3 X33.75 I0.75 F50
X32.25 I-0.75
G1 X32.257 Y3.969
X32.276 Y3.945
X32.304 Y3.93
X32.336 Y3.929
X32.364 Y3.942
X32.385 Y3.966
X32.49 Y4.157
X32.499 Y4.188
X32.494 Y4.219
X32.476 Y4.245
X32.449 Y4.26
X32.417 Y4.263
X32.388 Y4.252
Z-4.7 F33
X32.385 Y4.25 Z-4.747
X32.376 Y4.244 Z-4.793
X32.361 Y4.233 Z-4.836
X32.343 Y4.217 Z-4.876
X32.322 Y4.195 Z-4.912
X32.3 Y4.166 Z-4.943
X32.28 Y4.132 Z-4.967
X32.264 Y4.091 Z-4.985
X32.254 Y4.047 Z-4.996
X32.25 Y4 Z-5
G3 X33.75 I0.75 F50
X32.25 I-0.75
G1 X32.257 Y3.969
X32.276 Y3.945
X32.304 Y3.93
X32.336 Y3.929
X32.364 Y3.942
X32.385 Y3.966
X32.49 Y4.157
X32.499 Y4.188
X32.494 Y4.219
X32.476 Y4.245
X32.449 Y4.26
X32.417 Y4.263
X32.388 Y4.252
Z-5.7 F33
X32.385 Y4.25 Z-5.747
X32.376 Y4.244 Z-5.793
X32.361 Y4.233 Z-5.836
X32.343 Y4.217 Z-5.876
X32.322 Y4.195 Z-5.912
X32.3 Y4.166 Z-5.943
X32.28 Y4.132 Z-5.967
X32.264 Y4.091 Z-5.985
X32.254 Y4.047 Z-5.996
X32.25 Y4 Z-6
G3 X33.75 I0.75 F50
X32.25 I-0.75
G1 X32.257 Y3.969
X32.276 Y3.945
X32.304 Y3.93
X32.336 Y3.929
X32.364 Y3.942
X32.385 Y3.966
X32.49 Y4.157
X32.499 Y4.188
X32.494 Y4.219
X32.476 Y4.245
X32.449 Y4.26
X32.417 Y4.263
X32.388 Y4.252
Z-6.7 F33
X32.385 Y4.25 Z-6.747
X32.376 Y4.244 Z-6.793
X32.361 Y4.233 Z-6.836
X32.343 Y4.217 Z-6.876
X32.322 Y4.195 Z-6.912
X32.3 Y4.166 Z-6.943
X32.28 Y4.132 Z-6.967
X32.264 Y4.091 Z-6.985
X32.254 Y4.047 Z-6.996
X32.25 Y4 Z-7
G3 X33.75 I0.75 F50
X32.25 I-0.75
G1 X32.257 Y3.969
X32.276 Y3.945
X32.304 Y3.93
X32.336 Y3.929
X32.364 Y3.942
X32.385 Y3.966
X32.49 Y4.157
X32.499 Y4.188
X32.494 Y4.219
X32.476 Y4.245
X32.449 Y4.26
X32.417 Y4.263
X32.388 Y4.252
Z-7.7 F33
X32.385 Y4.25 Z-7.747
X32.376 Y4.244 Z-7.793
X32.361 Y4.233 Z-7.836
X32.343 Y4.217 Z-7.876
X32.322 Y4.195 Z-7.912
X32.3 Y4.166 Z-7.943
X32.28 Y4.132 Z-7.967
X32.264 Y4.091 Z-7.985
X32.254 Y4.047 Z-7.996
X32.25 Y4 Z-8
G3 X33.75 I0.75 F50
X32.25 I-0.75
G1 X32.257 Y3.969
X32.276 Y3.945
X32.304 Y3.93
X32.336 Y3.929
X32.364 Y3.942
X32.385 Y3.966
X32.49 Y4.157
X32.499 Y4.188
X32.494 Y4.219
X32.476 Y4.245
X32.449 Y4.26
X32.417 Y4.263
X32.388 Y4.252
Z-8.7 F33
X32.385 Y4.25 Z-8.747
X32.376 Y4.244 Z-8.793
X32.361 Y4.233 Z-8.836
X32.343 Y4.217 Z-8.876
X32.322 Y4.195 Z-8.912
X32.3 Y4.166 Z-8.943
X32.28 Y4.132 Z-8.967
X32.264 Y4.091 Z-8.985
X32.254 Y4.047 Z-8.996
X32.25 Y4 Z-9
G3 X33.75 I0.75 F50
X32.25 I-0.75
G1 X32.254 Y3.953 Z-8.996 F100
X32.264 Y3.909 Z-8.985
X32.28 Y3.868 Z-8.967
X32.3 Y3.834 Z-8.943
X32.322 Y3.805 Z-8.912
X32.343 Y3.783 Z-8.876
X32.361 Y3.767 Z-8.836
X32.376 Y3.756 Z-8.793
X32.385 Y3.75 Z-8.747
X32.388 Y3.748 Z-8.7
G0 Z2.8
X9.388 Y4.252
G1 Z2.5 F33
Z-0.7
X9.385 Y4.25 Z-0.747
X9.376 Y4.244 Z-0.793
X9.361 Y4.233 Z-0.836
X9.343 Y4.217 Z-0.876
X9.322 Y4.195 Z-0.912
X9.3 Y4.166 Z-0.943
X9.28 Y4.132 Z-0.967
X9.264 Y4.091 Z-0.985
X9.254 Y4.047 Z-0.996
X9.25 Y4 Z-1
G3 X10.75 I0.75 F50
X9.25 I-0.75
G1 X9.257 Y3.969
X9.276 Y3.945
X9.304 Y3.93
X9.336 Y3.929
X9.364 Y3.942
X9.385 Y3.966
X9.49 Y4.157
X9.499 Y4.188
X9.494 Y4.219
X9.476 Y4.245
X9.449 Y4.26
X9.417 Y4.263
X9.388 Y4.252
Z-1.7 F33
X9.385 Y4.25 Z-1.747
X9.376 Y4.244 Z-1.793
X9.361 Y4.233 Z-1.836
X9.343 Y4.217 Z-1.876
X9.322 Y4.195 Z-1.912
X9.3 Y4.166 Z-1.943
X9.28 Y4.132 Z-1.967
X9.264 Y4.091 Z-1.985
X9.254 Y4.047 Z-1.996
X9.25 Y4 Z-2
G3 X10.75 I0.75 F50
X9.25 I-0.75
G1 X9.257 Y3.969
X9.276 Y3.945
X9.304 Y3.93
X9.336 Y3.929
X9.364 Y3.942
X9.385 Y3.966
X9.49 Y4.157
X9.499 Y4.188
X9.494 Y4.219
X9.476 Y4.245
X9.449 Y4.26
X9.417 Y4.263
X9.388 Y4.252
Z-2.7 F33
X9.385 Y4.25 Z-2.747
X9.376 Y4.244 Z-2.793
X9.361 Y4.233 Z-2.836
X9.343 Y4.217 Z-2.876
X9.322 Y4.195 Z-2.912
X9.3 Y4.166 Z-2.943
X9.28 Y4.132 Z-2.967
X9.264 Y4.091 Z-2.985
X9.254 Y4.047 Z-2.996
X9.25 Y4 Z-3
G3 X10.75 I0.75 F50
X9.25 I-0.75
G1 X9.257 Y3.969
X9.276 Y3.945
X9.304 Y3.93
X9.336 Y3.929
X9.364 Y3.942
X9.385 Y3.966
X9.49 Y4.157
X9.499 Y4.188
X9.494 Y4.219
X9.476 Y4.245
X9.449 Y4.26
X9.417 Y4.263
X9.388 Y4.252
Z-3.7 F33
X9.385 Y4.25 Z-3.747
X9.376 Y4.244 Z-3.793
X9.361 Y4.233 Z-3.836
X9.343 Y4.217 Z-3.876
X9.322 Y4.195 Z-3.912
X9.3 Y4.166 Z-3.943
X9.28 Y4.132 Z-3.967
X9.264 Y4.091 Z-3.985
X9.254 Y4.047 Z-3.996
X9.25 Y4 Z-4
G3 X10.75 I0.75 F50
X9.25 I-0.75
G1 X9.257 Y3.969
X9.276 Y3.945
X9.304 Y3.93
X9.336 Y3.929
X9.364 Y3.942
X9.385 Y3.966
X9.49 Y4.157
X9.499 Y4.188
X9.494 Y4.219
X9.476 Y4.245
X9.449 Y4.26
X9.417 Y4.263
X9.388 Y4.252
Z-4.7 F33
X9.385 Y4.25 Z-4.747
X9.376 Y4.244 Z-4.793
X9.361 Y4.233 Z-4.836
X9.343 Y4.217 Z-4.876
X9.322 Y4.195 Z-4.912
X9.3 Y4.166 Z-4.943
X9.28 Y4.132 Z-4.967
X9.264 Y4.091 Z-4.985
X9.254 Y4.047 Z-4.996
X9.25 Y4 Z-5
G3 X10.75 I0.75 F50
X9.25 I-0.75
G1 X9.257 Y3.969
X9.276 Y3.945
X9.304 Y3.93
X9.336 Y3.929
X9.364 Y3.942
X9.385 Y3.966
X9.49 Y4.157
X9.499 Y4.188
X9.494 Y4.219
X9.476 Y4.245
X9.449 Y4.26
X9.417 Y4.263
X9.388 Y4.252
Z-5.7 F33
X9.385 Y4.25 Z-5.747
X9.376 Y4.244 Z-5.793
X9.361 Y4.233 Z-5.836
X9.343 Y4.217 Z-5.876
X9.322 Y4.195 Z-5.912
X9.3 Y4.166 Z-5.943
X9.28 Y4.132 Z-5.967
X9.264 Y4.091 Z-5.985
X9.254 Y4.047 Z-5.996
X9.25 Y4 Z-6
G3 X10.75 I0.75 F50
X9.25 I-0.75
G1 X9.257 Y3.969
X9.276 Y3.945
X9.304 Y3.93
X9.336 Y3.929
X9.364 Y3.942
X9.385 Y3.966
X9.49 Y4.157
X9.499 Y4.188
X9.494 Y4.219
X9.476 Y4.245
X9.449 Y4.26
X9.417 Y4.263
X9.388 Y4.252
Z-6.7 F33
X9.385 Y4.25 Z-6.747
X9.376 Y4.244 Z-6.793
X9.361 Y4.233 Z-6.836
X9.343 Y4.217 Z-6.876
X9.322 Y4.195 Z-6.912
X9.3 Y4.166 Z-6.943
X9.28 Y4.132 Z-6.967
X9.264 Y4.091 Z-6.985
X9.254 Y4.047 Z-6.996
X9.25 Y4 Z-7
G3 X10.75 I0.75 F50
X9.25 I-0.75
G1 X9.257 Y3.969
X9.276 Y3.945
X9.304 Y3.93
X9.336 Y3.929
X9.364 Y3.942
X9.385 Y3.966
X9.49 Y4.157
X9.499 Y4.188
X9.494 Y4.219
X9.476 Y4.245
X9.449 Y4.26
X9.417 Y4.263
X9.388 Y4.252
Z-7.7 F33
X9.385 Y4.25 Z-7.747
X9.376 Y4.244 Z-7.793
X9.361 Y4.233 Z-7.836
X9.343 Y4.217 Z-7.876
X9.322 Y4.195 Z-7.912
X9.3 Y4.166 Z-7.943
X9.28 Y4.132 Z-7.967
X9.264 Y4.091 Z-7.985
X9.254 Y4.047 Z-7.996
X9.25 Y4 Z-8
G3 X10.75 I0.75 F50
X9.25 I-0.75
G1 X9.257 Y3.969
X9.276 Y3.945
X9.304 Y3.93
X9.336 Y3.929
X9.364 Y3.942
X9.385 Y3.966
X9.49 Y4.157
X9.499 Y4.188
X9.494 Y4.219
X9.476 Y4.245
X9.449 Y4.26
X9.417 Y4.263
X9.388 Y4.252
Z-8.7 F33
X9.385 Y4.25 Z-8.747
X9.376 Y4.244 Z-8.793
X9.361 Y4.233 Z-8.836
X9.343 Y4.217 Z-8.876
X9.322 Y4.195 Z-8.912
X9.3 Y4.166 Z-8.943
X9.28 Y4.132 Z-8.967
X9.264 Y4.091 Z-8.985
X9.254 Y4.047 Z-8.996
X9.25 Y4 Z-9
G3 X10.75 I0.75 F50
X9.25 I-0.75
G1 X9.254 Y3.953 Z-8.996 F100
X9.264 Y3.909 Z-8.985
X9.28 Y3.868 Z-8.967
X9.3 Y3.834 Z-8.943
X9.322 Y3.805 Z-8.912
X9.343 Y3.783 Z-8.876
X9.361 Y3.767 Z-8.836
X9.376 Y3.756 Z-8.793
X9.385 Y3.75 Z-8.747
X9.388 Y3.748 Z-8.7
G0 Z2.8
X20.35 Y35.769
G1 Z2.5 F33
Z-0.7
G19 G2 Y35.469 Z-1 J-0.3
G17 G3 X21.075 I0.362 F50
X18.925 I-1.075
X22.5 I1.788
X17.5 I-2.5
X22.5 I2.5
G1 X22.493 Y35.513
X22.474 Y35.553
X22.444 Y35.586
X22.406 Y35.608
X22.363 Y35.619
X20.505 Y35.775
G3 X20.48 Y35.477 I-0.013 J-0.149
X20.642 Y35.618 I0.013 J0.149
G1 X20.65 Y35.761
G3 X20.504 Y35.919 I-0.15 J0.008
X20.35 Y35.769 I-0.004 J-0.15
G1 Z-1.7 F33
G19 G2 Y35.469 Z-2 J-0.3
G17 G3 X21.075 I0.362 F50
X18.925 I-1.075
X22.5 I1.788
X17.5 I-2.5
X22.5 I2.5
G1 X22.493 Y35.513
X22.474 Y35.553
X22.444 Y35.586
X22.406 Y35.608
X22.363 Y35.619
X20.505 Y35.775
G3 X20.48 Y35.477 I-0.013 J-0.149
X20.642 Y35.618 I0.013 J0.149
G1 X20.65 Y35.761
G3 X20.504 Y35.919 I-0.15 J0.008
X20.35 Y35.769 I-0.004 J-0.15
G1 Z-2.7 F33
G19 G2 Y35.469 Z-3 J-0.3
G17 G3 X21.075 I0.362 F50
X18.925 I-1.075
X22.5 I1.788
X17.5 I-2.5
X22.5 I2.5
G1 X22.493 Y35.513
X22.474 Y35.553
X22.444 Y35.586
X22.406 Y35.608
X22.363 Y35.619
X20.505 Y35.775
G3 X20.48 Y35.477 I-0.013 J-0.149
X20.642 Y35.618 I0.013 J0.149
G1 X20.65 Y35.761
G3 X20.504 Y35.919 I-0.15 J0.008
X20.35 Y35.769 I-0.004 J-0.15
G1 Z-3.7 F33
G19 G2 Y35.469 Z-4 J-0.3
G17 G3 X21.075 I0.362 F50
X18.925 I-1.075
X22.5 I1.788
X17.5 I-2.5
X22.5 I2.5
G1 X22.493 Y35.513
X22.474 Y35.553
X22.444 Y35.586
X22.406 Y35.608
X22.363 Y35.619
X20.505 Y35.775
G3 X20.48 Y35.477 I-0.013 J-0.149
X20.642 Y35.618 I0.013 J0.149
G1 X20.65 Y35.761
G3 X20.504 Y35.919 I-0.15 J0.008
X20.35 Y35.769 I-0.004 J-0.15
G1 Z-4.7 F33
G19 G2 Y35.469 Z-5 J-0.3
G17 G3 X21.075 I0.362 F50
X18.925 I-1.075
X22.5 I1.788
X17.5 I-2.5
X22.5 I2.5
G1 X22.493 Y35.513
X22.474 Y35.553
X22.444 Y35.586
X22.406 Y35.608
X22.363 Y35.619
X20.505 Y35.775
G3 X20.48 Y35.477 I-0.013 J-0.149
X20.642 Y35.618 I0.013 J0.149
G1 X20.65 Y35.761
G3 X20.504 Y35.919 I-0.15 J0.008
X20.35 Y35.769 I-0.004 J-0.15
G1 Z-5.7 F33
G19 G2 Y35.469 Z-6 J-0.3
G17 G3 X21.075 I0.362 F50
X18.925 I-1.075
X22.5 I1.788
X17.5 I-2.5
X22.5 I2.5
G1 X22.493 Y35.513
X22.474 Y35.553
X22.444 Y35.586
X22.406 Y35.608
X22.363 Y35.619
X20.505 Y35.775
G3 X20.48 Y35.477 I-0.013 J-0.149
X20.642 Y35.618 I0.013 J0.149
G1 X20.65 Y35.761
G3 X20.504 Y35.919 I-0.15 J0.008
X20.35 Y35.769 I-0.004 J-0.15
G1 Z-6.7 F33
G19 G2 Y35.469 Z-7 J-0.3
G17 G3 X21.075 I0.362 F50
X18.925 I-1.075
X22.5 I1.788
X17.5 I-2.5
X22.5 I2.5
G1 X22.493 Y35.513
X22.474 Y35.553
X22.444 Y35.586
X22.406 Y35.608
X22.363 Y35.619
X20.505 Y35.775
G3 X20.48 Y35.477 I-0.013 J-0.149
X20.642 Y35.618 I0.013 J0.149
G1 X20.65 Y35.761
G3 X20.504 Y35.919 I-0.15 J0.008
X20.35 Y35.769 I-0.004 J-0.15
G1 Z-7.7 F33
G19 G2 Y35.469 Z-8 J-0.3
G17 G3 X21.075 I0.362 F50
X18.925 I-1.075
X22.5 I1.788
X17.5 I-2.5
X22.5 I2.5
G1 X22.493 Y35.513
X22.474 Y35.553
X22.444 Y35.586
X22.406 Y35.608
X22.363 Y35.619
X20.505 Y35.775
G3 X20.48 Y35.477 I-0.013 J-0.149
X20.642 Y35.618 I0.013 J0.149
G1 X20.65 Y35.761
G3 X20.504 Y35.919 I-0.15 J0.008
X20.35 Y35.769 I-0.004 J-0.15
G1 Z-8.7 F33
G19 G2 Y35.469 Z-9 J-0.3
G17 G3 X21.075 I0.362 F50
X18.925 I-1.075
X22.5 I1.788
X17.5 I-2.5
X22.5 I2.5
G1 X22.496 Y35.516 Z-8.996 F100
X22.486 Y35.56 Z-8.985
X22.47 Y35.601 Z-8.967
X22.45 Y35.635 Z-8.943
X22.428 Y35.664 Z-8.912
X22.407 Y35.686 Z-8.876
X22.389 Y35.702 Z-8.836
X22.374 Y35.713 Z-8.793
X22.365 Y35.72 Z-8.747
X22.362 Y35.722 Z-8.7
G0 Z2.8
X27.25 Y49
G1 Z2.5 F33
Z-1
G3 X27.75 I0.25 F50
X27.25 I-0.25
G1 Z-2 F33
G3 X27.75 I0.25 F50
X27.25 I-0.25
G1 Z-3 F33
G3 X27.75 I0.25 F50
X27.25 I-0.25
G1 Z-4 F33
G3 X27.75 I0.25 F50
X27.25 I-0.25
G1 Z-5 F33
G3 X27.75 I0.25 F50
X27.25 I-0.25
G1 Z-6 F33
G3 X27.75 I0.25 F50
X27.25 I-0.25
G1 Z-7 F33
G3 X27.75 I0.25 F50
X27.25 I-0.25
G1 Z-8 F33
G3 X27.75 I0.25 F50
X27.25 I-0.25
G1 Z-9 F33
G3 X27.75 I0.25 F50
X27.25 I-0.25
G1 X27.254 Y48.953 Z-8.996 F100
X27.267 Y48.909 Z-8.985
X27.286 Y48.87 Z-8.967
X27.31 Y48.838 Z-8.943
X27.335 Y48.812 Z-8.912
X27.359 Y48.794 Z-8.876
X27.38 Y48.781 Z-8.836
X27.396 Y48.773 Z-8.793
X27.406 Y48.768 Z-8.747
X27.409 Y48.767 Z-8.7
G0 Z2.8
X58.75 Y49
G1 Z2.5 F33
Z-1
G3 X58.25 I-0.25 F50
X58.75 I0.25
G1 Z-2 F33
G3 X58.25 I-0.25 F50
X58.75 I0.25
G1 Z-3 F33
G3 X58.25 I-0.25 F50
X58.75 I0.25
G1 Z-4 F33
G3 X58.25 I-0.25 F50
X58.75 I0.25
G1 Z-5 F33
G3 X58.25 I-0.25 F50
X58.75 I0.25
G1 Z-6 F33
G3 X58.25 I-0.25 F50
X58.75 I0.25
G1 Z-7 F33
G3 X58.25 I-0.25 F50
X58.75 I0.25
G1 Z-8 F33
G3 X58.25 I-0.25 F50
X58.75 I0.25
G1 Z-9 F33
G3 X58.25 I-0.25 F50
X58.75 I0.25
G1 X58.746 Y49.047 Z-8.996 F100
X58.733 Y49.091 Z-8.985
X58.714 Y49.13 Z-8.967
X58.69 Y49.162 Z-8.943
X58.665 Y49.188 Z-8.912
X58.641 Y49.206 Z-8.876
X58.62 Y49.219 Z-8.836
X58.604 Y49.227 Z-8.793
X58.594 Y49.232 Z-8.747
X58.591 Y49.233 Z-8.7
G0 Z2.8
X58.25 Y18
G1 Z2.5 F33
Z-1
G3 X58.75 I0.25 F50
X58.25 I-0.25
G1 Z-2 F33
G3 X58.75 I0.25 F50
X58.25 I-0.25
G1 Z-3 F33
G3 X58.75 I0.25 F50
X58.25 I-0.25
G1 Z-4 F33
G3 X58.75 I0.25 F50
X58.25 I-0.25
G1 Z-5 F33
G3 X58.75 I0.25 F50
X58.25 I-0.25
G1 Z-6 F33
G3 X58.75 I0.25 F50
X58.25 I-0.25
G1 Z-7 F33
G3 X58.75 I0.25 F50
X58.25 I-0.25
G1 Z-8 F33
G3 X58.75 I0.25 F50
X58.25 I-0.25
G1 Z-9 F33
G3 X58.75 I0.25 F50
X58.25 I-0.25
G1 X58.254 Y17.953 Z-8.996 F100
X58.267 Y17.909 Z-8.985
X58.286 Y17.87 Z-8.967
X58.31 Y17.838 Z-8.943
X58.335 Y17.812 Z-8.912
X58.359 Y17.794 Z-8.876
X58.38 Y17.781 Z-8.836
X58.396 Y17.773 Z-8.793
X58.406 Y17.768 Z-8.747
X58.409 Y17.767 Z-8.7
G0 Z2.8
X56.612 Y3.748
G1 Z2.5 F33
Z-0.7
X56.615 Y3.75 Z-0.747
X56.624 Y3.756 Z-0.793
X56.639 Y3.767 Z-0.836
X56.657 Y3.783 Z-0.876
X56.678 Y3.805 Z-0.912
X56.7 Y3.834 Z-0.943
X56.72 Y3.868 Z-0.967
X56.736 Y3.909 Z-0.985
X56.746 Y3.953 Z-0.996
X56.75 Y4 Z-1
G3 X55.25 I-0.75 F50
X56.75 I0.75
G1 X56.743 Y4.031
X56.724 Y4.055
X56.696 Y4.07
X56.664 Y4.071
X56.636 Y4.058
X56.615 Y4.034
X56.51 Y3.843
X56.501 Y3.812
X56.506 Y3.781
X56.524 Y3.755
X56.551 Y3.74
X56.583 Y3.737
X56.612 Y3.748
Z-1.7 F33
X56.615 Y3.75 Z-1.747
X56.624 Y3.756 Z-1.793
X56.639 Y3.767 Z-1.836
X56.657 Y3.783 Z-1.876
X56.678 Y3.805 Z-1.912
X56.7 Y3.834 Z-1.943
X56.72 Y3.868 Z-1.967
X56.736 Y3.909 Z-1.985
X56.746 Y3.953 Z-1.996
X56.75 Y4 Z-2
G3 X55.25 I-0.75 F50
X56.75 I0.75
G1 X56.743 Y4.031
X56.724 Y4.055
X56.696 Y4.07
X56.664 Y4.071
X56.636 Y4.058
X56.615 Y4.034
X56.51 Y3.843
X56.501 Y3.812
X56.506 Y3.781
X56.524 Y3.755
X56.551 Y3.74
X56.583 Y3.737
X56.612 Y3.748
Z-2.7 F33
X56.615 Y3.75 Z-2.747
X56.624 Y3.756 Z-2.793
X56.639 Y3.767 Z-2.836
X56.657 Y3.783 Z-2.876
X56.678 Y3.805 Z-2.912
X56.7 Y3.834 Z-2.943
X56.72 Y3.868 Z-2.967
X56.736 Y3.909 Z-2.985
X56.746 Y3.953 Z-2.996
X56.75 Y4 Z-3
G3 X55.25 I-0.75 F50
X56.75 I0.75
G1 X56.743 Y4.031
X56.724 Y4.055
X56.696 Y4.07
X56.664 Y4.071
X56.636 Y4.058
X56.615 Y4.034
X56.51 Y3.843
X56.501 Y3.812
X56.506 Y3.781
X56.524 Y3.755
X56.551 Y3.74
X56.583 Y3.737
X56.612 Y3.748
Z-3.7 F33
X56.615 Y3.75 Z-3.747
X56.624 Y3.756 Z-3.793
X56.639 Y3.767 Z-3.836
X56.657 Y3.783 Z-3.876
X56.678 Y3.805 Z-3.912
X56.7 Y3.834 Z-3.943
X56.72 Y3.868 Z-3.967
X56.736 Y3.909 Z-3.985
X56.746 Y3.953 Z-3.996
X56.75 Y4 Z-4
G3 X55.25 I-0.75 F50
X56.75 I0.75
G1 X56.743 Y4.031
X56.724 Y4.055
X56.696 Y4.07
X56.664 Y4.071
X56.636 Y4.058
X56.615 Y4.034
X56.51 Y3.843
X56.501 Y3.812
X56.506 Y3.781
X56.524 Y3.755
X56.551 Y3.74
X56.583 Y3.737
X56.612 Y3.748
Z-4.7 F33
X56.615 Y3.75 Z-4.747
X56.624 Y3.756 Z-4.793
X56.639 Y3.767 Z-4.836
X56.657 Y3.783 Z-4.876
X56.678 Y3.805 Z-4.912
X56.7 Y3.834 Z-4.943
X56.72 Y3.868 Z-4.967
X56.736 Y3.909 Z-4.985
X56.746 Y3.953 Z-4.996
X56.75 Y4 Z-5
G3 X55.25 I-0.75 F50
X56.75 I0.75
G1 X56.743 Y4.031
X56.724 Y4.055
X56.696 Y4.07
X56.664 Y4.071
X56.636 Y4.058
X56.615 Y4.034
X56.51 Y3.843
X56.501 Y3.812
X56.506 Y3.781
X56.524 Y3.755
X56.551 Y3.74
X56.583 Y3.737
X56.612 Y3.748
Z-5.7 F33
X56.615 Y3.75 Z-5.747
X56.624 Y3.756 Z-5.793
X56.639 Y3.767 Z-5.836
X56.657 Y3.783 Z-5.876
X56.678 Y3.805 Z-5.912
X56.7 Y3.834 Z-5.943
X56.72 Y3.868 Z-5.967
X56.736 Y3.909 Z-5.985
X56.746 Y3.953 Z-5.996
X56.75 Y4 Z-6
G3 X55.25 I-0.75 F50
X56.75 I0.75
G1 X56.743 Y4.031
X56.724 Y4.055
X56.696 Y4.07
X56.664 Y4.071
X56.636 Y4.058
X56.615 Y4.034
X56.51 Y3.843
X56.501 Y3.812
X56.506 Y3.781
X56.524 Y3.755
X56.551 Y3.74
X56.583 Y3.737
X56.612 Y3.748
Z-6.7 F33
X56.615 Y3.75 Z-6.747
X56.624 Y3.756 Z-6.793
X56.639 Y3.767 Z-6.836
X56.657 Y3.783 Z-6.876
X56.678 Y3.805 Z-6.912
X56.7 Y3.834 Z-6.943
X56.72 Y3.868 Z-6.967
X56.736 Y3.909 Z-6.985
X56.746 Y3.953 Z-6.996
X56.75 Y4 Z-7
G3 X55.25 I-0.75 F50
X56.75 I0.75
G1 X56.743 Y4.031
X56.724 Y4.055
X56.696 Y4.07
X56.664 Y4.071
X56.636 Y4.058
X56.615 Y4.034
X56.51 Y3.843
X56.501 Y3.812
X56.506 Y3.781
X56.524 Y3.755
X56.551 Y3.74
X56.583 Y3.737
X56.612 Y3.748
Z-7.7 F33
X56.615 Y3.75 Z-7.747
X56.624 Y3.756 Z-7.793
X56.639 Y3.767 Z-7.836
X56.657 Y3.783 Z-7.876
X56.678 Y3.805 Z-7.912
X56.7 Y3.834 Z-7.943
X56.72 Y3.868 Z-7.967
X56.736 Y3.909 Z-7.985
X56.746 Y3.953 Z-7.996
X56.75 Y4 Z-8
G3 X55.25 I-0.75 F50
X56.75 I0.75
G1 X56.743 Y4.031
X56.724 Y4.055
X56.696 Y4.07
X56.664 Y4.071
X56.636 Y4.058
X56.615 Y4.034
X56.51 Y3.843
X56.501 Y3.812
X56.506 Y3.781
X56.524 Y3.755
X56.551 Y3.74
X56.583 Y3.737
X56.612 Y3.748
Z-8.7 F33
X56.615 Y3.75 Z-8.747
X56.624 Y3.756 Z-8.793
X56.639 Y3.767 Z-8.836
X56.657 Y3.783 Z-8.876
X56.678 Y3.805 Z-8.912
X56.7 Y3.834 Z-8.943
X56.72 Y3.868 Z-8.967
X56.736 Y3.909 Z-8.985
X56.746 Y3.953 Z-8.996
X56.75 Y4 Z-9
G3 X55.25 I-0.75 F50
X56.75 I0.75
G1 X56.746 Y4.047 Z-8.996 F100
X56.736 Y4.091 Z-8.985
X56.72 Y4.132 Z-8.967
X56.7 Y4.166 Z-8.943
X56.678 Y4.195 Z-8.912
X56.657 Y4.217 Z-8.876
X56.639 Y4.233 Z-8.836
X56.624 Y4.244 Z-8.793
X56.615 Y4.25 Z-8.747
X56.612 Y4.252 Z-8.7
G0 Z5

(2D Contour1)
X48.1 Y33.2
Z5
Z2
G1 Z-0.7 F33
G18 G2 X48.4 Z-1 I0.3
G1 X48.7 F30
G17 G3 X49 Y33.5 J0.3
X37 I-6 F60
X49 I6
X48.7 Y33.8 I-0.3 F100
G1 X48.4
G18 G3 X48.1 Z-0.7 K0.3
G0 Z2
Y33.2
Z1.516
G1 Z-1.7 F33
G2 X48.4 Z-2 I0.3
G1 X48.7 F30
G17 G3 X49 Y33.5 J0.3
X37 I-6 F60
X49 I6
X48.7 Y33.8 I-0.3 F100
G1 X48.4
G18 G3 X48.1 Z-1.7 K0.3
G0 Z2
Y33.2
Z1
G1 Z0.516 F33
Z-2.7
G2 X48.4 Z-3 I0.3
G1 X48.7 F30
G17 G3 X49 Y33.5 J0.3
X37 I-6 F60
X49 I6
X48.7 Y33.8 I-0.3 F100
G1 X48.4
G18 G3 X48.1 Z-2.7 K0.3
G0 Z2
Y33.2
Z1
G1 Z-0.484 F33
Z-3.7
G2 X48.4 Z-4 I0.3
G1 X48.7 F30
G17 G3 X49 Y33.5 J0.3
X37 I-6 F60
X49 I6
X48.7 Y33.8 I-0.3 F100
G1 X48.4
G18 G3 X48.1 Z-3.7 K0.3
G0 Z2
Y33.2
Z1
G1 Z-1.484 F33
Z-4.7
G2 X48.4 Z-5 I0.3
G1 X48.7 F30
G17 G3 X49 Y33.5 J0.3
X37 I-6 F60
X49 I6
X48.7 Y33.8 I-0.3 F100
G1 X48.4
G18 G3 X48.1 Z-4.7 K0.3
G0 Z2
Y33.2
Z1
G1 Z-2.484 F33
Z-5.7
G2 X48.4 Z-6 I0.3
G1 X48.7 F30
G17 G3 X49 Y33.5 J0.3
X37 I-6 F60
X49 I6
X48.7 Y33.8 I-0.3 F100
G1 X48.4
G18 G3 X48.1 Z-5.7 K0.3
G0 Z2
Y33.2
Z1
G1 Z-3.484 F33
Z-6.7
G2 X48.4 Z-7 I0.3
G1 X48.7 F30
G17 G3 X49 Y33.5 J0.3
X37 I-6 F60
X49 I6
X48.7 Y33.8 I-0.3 F100
G1 X48.4
G18 G3 X48.1 Z-6.7 K0.3
G0 Z2
Y33.2
Z1
G1 Z-4.484 F33
Z-7.7
G2 X48.4 Z-8 I0.3
G1 X48.7 F30
G17 G3 X49 Y33.5 J0.3
X37 I-6 F60
X49 I6
X48.7 Y33.8 I-0.3 F100
G1 X48.4
G18 G3 X48.1 Z-7.7 K0.3
G0 Z2
Y33.2
Z1
G1 Z-5.484 F33
Z-8.7
G2 X48.4 Z-9 I0.3
G1 X48.7 F30
G17 G3 X49 Y33.5 J0.3
X37 I-6 F60
X49 I6
X48.7 Y33.8 I-0.3 F100
G1 X48.4
G18 G3 X48.1 Z-8.7 K0.3
G0 Z2
X68.4 Y27.55
G1 Z-0.7 F33
G3 X68.1 Z-1 I-0.3
G1 X67.8 F30
G17 G3 X67.5 Y27.25 J-0.3
G1 Y0 F60
G2 X66 Y-1.5 I-1.5
G1 X0
G2 X-1.5 Y0 J1.5
G1 Y54.5
G2 X0 Y56 I1.5
G1 X66
G2 X67.5 Y54.5 J-1.5
G1 Y27.25
G3 X67.8 Y26.95 I0.3 F100
G1 X68.1
G18 G2 X68.4 Z-0.7 K0.3
G0 Z2
Y27.55
Z1.516
G1 Z-1.7 F33
G3 X68.1 Z-2 I-0.3
G1 X67.8 F30
G17 G3 X67.5 Y27.25 J-0.3
G1 Y0 F60
G2 X66 Y-1.5 I-1.5
G1 X0
G2 X-1.5 Y0 J1.5
G1 Y54.5
G2 X0 Y56 I1.5
G1 X66
G2 X67.5 Y54.5 J-1.5
G1 Y27.25
G3 X67.8 Y26.95 I0.3 F100
G1 X68.1
G18 G2 X68.4 Z-1.7 K0.3
G0 Z2
Y27.55
Z1
G1 Z0.516 F33
Z-2.7
G3 X68.1 Z-3 I-0.3
G1 X67.8 F30
G17 G3 X67.5 Y27.25 J-0.3
G1 Y0 F60
G2 X66 Y-1.5 I-1.5
G1 X0
G2 X-1.5 Y0 J1.5
G1 Y54.5
G2 X0 Y56 I1.5
G1 X66
G2 X67.5 Y54.5 J-1.5
G1 Y27.25
G3 X67.8 Y26.95 I0.3 F100
G1 X68.1
G18 G2 X68.4 Z-2.7 K0.3
G0 Z2
Y27.55
Z1
G1 Z-0.484 F33
Z-3.7
G3 X68.1 Z-4 I-0.3
G1 X67.8 F30
G17 G3 X67.5 Y27.25 J-0.3
G1 Y0 F60
G2 X66 Y-1.5 I-1.5
G1 X0
G2 X-1.5 Y0 J1.5
G1 Y54.5
G2 X0 Y56 I1.5
G1 X66
G2 X67.5 Y54.5 J-1.5
G1 Y27.25
G3 X67.8 Y26.95 I0.3 F100
G1 X68.1
G18 G2 X68.4 Z-3.7 K0.3
G0 Z2
Y27.55
Z1
G1 Z-1.484 F33
Z-4.7
G3 X68.1 Z-5 I-0.3
G1 X67.8 F30
G17 G3 X67.5 Y27.25 J-0.3
G1 Y0 F60
G2 X66 Y-1.5 I-1.5
G1 X0
G2 X-1.5 Y0 J1.5
G1 Y54.5
G2 X0 Y56 I1.5
G1 X66
G2 X67.5 Y54.5 J-1.5
G1 Y27.25
G3 X67.8 Y26.95 I0.3 F100
G1 X68.1
G18 G2 X68.4 Z-4.7 K0.3
G0 Z2
Y27.55
Z1
G1 Z-2.484 F33
Z-5.7
G3 X68.1 Z-6 I-0.3
G1 X67.8 F30
G17 G3 X67.5 Y27.25 J-0.3
G1 Y0 F60
G2 X66 Y-1.5 I-1.5
G1 X0
G2 X-1.5 Y0 J1.5
G1 Y54.5
G2 X0 Y56 I1.5
G1 X66
G2 X67.5 Y54.5 J-1.5
G1 Y27.25
G3 X67.8 Y26.95 I0.3 F100
G1 X68.1
G18 G2 X68.4 Z-5.7 K0.3
G0 Z2
Y27.55
Z1
G1 Z-3.484 F33
Z-6.7
G3 X68.1 Z-7 I-0.3
G1 X67.8 F30
G17 G3 X67.5 Y27.25 J-0.3
G1 Y0 F60
G2 X66 Y-1.5 I-1.5
G1 X0
G2 X-1.5 Y0 J1.5
G1 Y54.5
G2 X0 Y56 I1.5
G1 X66
G2 X67.5 Y54.5 J-1.5
G1 Y27.25
G3 X67.8 Y26.95 I0.3 F100
G1 X68.1
G18 G2 X68.4 Z-6.7 K0.3
G0 Z2
Y27.55
Z1
G1 Z-4.484 F33
Z-7.7
G3 X68.1 Z-8 I-0.3
G1 X67.8 F30
G17 G3 X67.5 Y27.25 J-0.3
G1 Y0 F60
G2 X66 Y-1.5 I-1.5
G1 X0
G2 X-1.5 Y0 J1.5
G1 Y54.5
G2 X0 Y56 I1.5
G1 X66
G2 X67.5 Y54.5 J-1.5
G1 Y27.25
G3 X67.8 Y26.95 I0.3 F100
G1 X68.1
G18 G2 X68.4 Z-7.7 K0.3
G0 Z2
Y27.55
Z1
G1 Z-5.484 F33
Z-8.7
G3 X68.1 Z-9 I-0.3
G1 X67.8 F30
G17 G3 X67.5 Y27.25 J-0.3
G1 Y0 F60
G2 X66 Y-1.5 I-1.5
G1 X0
G2 X-1.5 Y0 J1.5
G1 Y54.5
G2 X0 Y56 I1.5
G1 X66
G2 X67.5 Y54.5 J-1.5
G1 Y27.25
G3 X67.8 Y26.95 I0.3 F100
G1 X68.1
G18 G2 X68.4 Z-8.7 K0.3
G0 Z5
G17
M9
G28 G91 Z0
G90
G28 G91 X0 Y0
G90
M30
%
