%
(1001)
(T1  D=3 CR=0.75 - ZMIN=-8 - bullnose end mill)
G90 G94
G17
G21
G28 G91 Z6
G90

(2D Pocket1)
M9
T1 M6
S1000 M3
G54
M8
G0 X102.252 Y22.362
Z5
Z2.8
G1 Z2.5 F30
Z-0.7 F33
X102.25 Y22.365 Z-0.747
X102.244 Y22.374 Z-0.793
X102.233 Y22.389 Z-0.836
X102.217 Y22.407 Z-0.876
X102.195 Y22.428 Z-0.912
X102.166 Y22.45 Z-0.943
X102.132 Y22.47 Z-0.967
X102.091 Y22.486 Z-0.985
X102.047 Y22.496 Z-0.996
X102 Y22.5 Z-1
G3 Y21.5 J-0.5 F50
Y22.5 J0.5
G1 X101.969 Y22.493
X101.945 Y22.474
X101.93 Y22.446
X101.929 Y22.414
X101.942 Y22.386
X101.966 Y22.365
X102.157 Y22.26
X102.188 Y22.251
X102.219 Y22.256
X102.245 Y22.274
X102.26 Y22.301
X102.263 Y22.333
X102.252 Y22.362
Z-1.7 F33
X102.25 Y22.365 Z-1.747
X102.244 Y22.374 Z-1.793
X102.233 Y22.389 Z-1.836
X102.217 Y22.407 Z-1.876
X102.195 Y22.428 Z-1.912
X102.166 Y22.45 Z-1.943
X102.132 Y22.47 Z-1.967
X102.091 Y22.486 Z-1.985
X102.047 Y22.496 Z-1.996
X102 Y22.5 Z-2
G3 Y21.5 J-0.5 F50
Y22.5 J0.5
G1 X101.969 Y22.493
X101.945 Y22.474
X101.93 Y22.446
X101.929 Y22.414
X101.942 Y22.386
X101.966 Y22.365
X102.157 Y22.26
X102.188 Y22.251
X102.219 Y22.256
X102.245 Y22.274
X102.26 Y22.301
X102.263 Y22.333
X102.252 Y22.362
Z-2.7 F33
X102.25 Y22.365 Z-2.747
X102.244 Y22.374 Z-2.793
X102.233 Y22.389 Z-2.836
X102.217 Y22.407 Z-2.876
X102.195 Y22.428 Z-2.912
X102.166 Y22.45 Z-2.943
X102.132 Y22.47 Z-2.967
X102.091 Y22.486 Z-2.985
X102.047 Y22.496 Z-2.996
X102 Y22.5 Z-3
G3 Y21.5 J-0.5 F50
Y22.5 J0.5
G1 X101.969 Y22.493
X101.945 Y22.474
X101.93 Y22.446
X101.929 Y22.414
X101.942 Y22.386
X101.966 Y22.365
X102.157 Y22.26
X102.188 Y22.251
X102.219 Y22.256
X102.245 Y22.274
X102.26 Y22.301
X102.263 Y22.333
X102.252 Y22.362
Z-3.7 F33
X102.25 Y22.365 Z-3.747
X102.244 Y22.374 Z-3.793
X102.233 Y22.389 Z-3.836
X102.217 Y22.407 Z-3.876
X102.195 Y22.428 Z-3.912
X102.166 Y22.45 Z-3.943
X102.132 Y22.47 Z-3.967
X102.091 Y22.486 Z-3.985
X102.047 Y22.496 Z-3.996
X102 Y22.5 Z-4
G3 Y21.5 J-0.5 F50
Y22.5 J0.5
G1 X101.969 Y22.493
X101.945 Y22.474
X101.93 Y22.446
X101.929 Y22.414
X101.942 Y22.386
X101.966 Y22.365
X102.157 Y22.26
X102.188 Y22.251
X102.219 Y22.256
X102.245 Y22.274
X102.26 Y22.301
X102.263 Y22.333
X102.252 Y22.362
Z-4.7 F33
X102.25 Y22.365 Z-4.747
X102.244 Y22.374 Z-4.793
X102.233 Y22.389 Z-4.836
X102.217 Y22.407 Z-4.876
X102.195 Y22.428 Z-4.912
X102.166 Y22.45 Z-4.943
X102.132 Y22.47 Z-4.967
X102.091 Y22.486 Z-4.985
X102.047 Y22.496 Z-4.996
X102 Y22.5 Z-5
G3 Y21.5 J-0.5 F50
Y22.5 J0.5
G1 X101.969 Y22.493
X101.945 Y22.474
X101.93 Y22.446
X101.929 Y22.414
X101.942 Y22.386
X101.966 Y22.365
X102.157 Y22.26
X102.188 Y22.251
X102.219 Y22.256
X102.245 Y22.274
X102.26 Y22.301
X102.263 Y22.333
X102.252 Y22.362
Z-5.7 F33
X102.25 Y22.365 Z-5.747
X102.244 Y22.374 Z-5.793
X102.233 Y22.389 Z-5.836
X102.217 Y22.407 Z-5.876
X102.195 Y22.428 Z-5.912
X102.166 Y22.45 Z-5.943
X102.132 Y22.47 Z-5.967
X102.091 Y22.486 Z-5.985
X102.047 Y22.496 Z-5.996
X102 Y22.5 Z-6
G3 Y21.5 J-0.5 F50
Y22.5 J0.5
G1 X101.969 Y22.493
X101.945 Y22.474
X101.93 Y22.446
X101.929 Y22.414
X101.942 Y22.386
X101.966 Y22.365
X102.157 Y22.26
X102.188 Y22.251
X102.219 Y22.256
X102.245 Y22.274
X102.26 Y22.301
X102.263 Y22.333
X102.252 Y22.362
Z-6.7 F33
X102.25 Y22.365 Z-6.747
X102.244 Y22.374 Z-6.793
X102.233 Y22.389 Z-6.836
X102.217 Y22.407 Z-6.876
X102.195 Y22.428 Z-6.912
X102.166 Y22.45 Z-6.943
X102.132 Y22.47 Z-6.967
X102.091 Y22.486 Z-6.985
X102.047 Y22.496 Z-6.996
X102 Y22.5 Z-7
G3 Y21.5 J-0.5 F50
Y22.5 J0.5
G1 X101.969 Y22.493
X101.945 Y22.474
X101.93 Y22.446
X101.929 Y22.414
X101.942 Y22.386
X101.966 Y22.365
X102.157 Y22.26
X102.188 Y22.251
X102.219 Y22.256
X102.245 Y22.274
X102.26 Y22.301
X102.263 Y22.333
X102.252 Y22.362
Z-7.7 F33
X102.25 Y22.365 Z-7.747
X102.244 Y22.374 Z-7.793
X102.233 Y22.389 Z-7.836
X102.217 Y22.407 Z-7.876
X102.195 Y22.428 Z-7.912
X102.166 Y22.45 Z-7.943
X102.132 Y22.47 Z-7.967
X102.091 Y22.486 Z-7.985
X102.047 Y22.496 Z-7.996
X102 Y22.5 Z-8
G3 Y21.5 J-0.5 F50
Y22.5 J0.5
G1 X101.953 Y22.496 Z-7.996 F100
X101.909 Y22.486 Z-7.985
X101.868 Y22.47 Z-7.967
X101.834 Y22.45 Z-7.943
X101.805 Y22.428 Z-7.912
X101.783 Y22.407 Z-7.876
X101.767 Y22.389 Z-7.836
X101.756 Y22.374 Z-7.793
X101.75 Y22.365 Z-7.747
X101.748 Y22.362 Z-7.7
G0 Z2.8
Y30.638
G1 Z2.5 F33
Z-0.7
X101.75 Y30.635 Z-0.747
X101.756 Y30.626 Z-0.793
X101.767 Y30.611 Z-0.836
X101.783 Y30.593 Z-0.876
X101.805 Y30.572 Z-0.912
X101.834 Y30.55 Z-0.943
X101.868 Y30.53 Z-0.967
X101.909 Y30.514 Z-0.985
X101.953 Y30.504 Z-0.996
X102 Y30.5 Z-1
G3 Y31.5 J0.5 F50
Y30.5 J-0.5
G1 X102.031 Y30.507
X102.055 Y30.526
X102.07 Y30.554
X102.071 Y30.586
X102.058 Y30.614
X102.034 Y30.635
X101.843 Y30.74
X101.812 Y30.749
X101.781 Y30.744
X101.755 Y30.726
X101.74 Y30.699
X101.737 Y30.667
X101.748 Y30.638
Z-1.7 F33
X101.75 Y30.635 Z-1.747
X101.756 Y30.626 Z-1.793
X101.767 Y30.611 Z-1.836
X101.783 Y30.593 Z-1.876
X101.805 Y30.572 Z-1.912
X101.834 Y30.55 Z-1.943
X101.868 Y30.53 Z-1.967
X101.909 Y30.514 Z-1.985
X101.953 Y30.504 Z-1.996
X102 Y30.5 Z-2
G3 Y31.5 J0.5 F50
Y30.5 J-0.5
G1 X102.031 Y30.507
X102.055 Y30.526
X102.07 Y30.554
X102.071 Y30.586
X102.058 Y30.614
X102.034 Y30.635
X101.843 Y30.74
X101.812 Y30.749
X101.781 Y30.744
X101.755 Y30.726
X101.74 Y30.699
X101.737 Y30.667
X101.748 Y30.638
Z-2.7 F33
X101.75 Y30.635 Z-2.747
X101.756 Y30.626 Z-2.793
X101.767 Y30.611 Z-2.836
X101.783 Y30.593 Z-2.876
X101.805 Y30.572 Z-2.912
X101.834 Y30.55 Z-2.943
X101.868 Y30.53 Z-2.967
X101.909 Y30.514 Z-2.985
X101.953 Y30.504 Z-2.996
X102 Y30.5 Z-3
G3 Y31.5 J0.5 F50
Y30.5 J-0.5
G1 X102.031 Y30.507
X102.055 Y30.526
X102.07 Y30.554
X102.071 Y30.586
X102.058 Y30.614
X102.034 Y30.635
X101.843 Y30.74
X101.812 Y30.749
X101.781 Y30.744
X101.755 Y30.726
X101.74 Y30.699
X101.737 Y30.667
X101.748 Y30.638
Z-3.7 F33
X101.75 Y30.635 Z-3.747
X101.756 Y30.626 Z-3.793
X101.767 Y30.611 Z-3.836
X101.783 Y30.593 Z-3.876
X101.805 Y30.572 Z-3.912
X101.834 Y30.55 Z-3.943
X101.868 Y30.53 Z-3.967
X101.909 Y30.514 Z-3.985
X101.953 Y30.504 Z-3.996
X102 Y30.5 Z-4
G3 Y31.5 J0.5 F50
Y30.5 J-0.5
G1 X102.031 Y30.507
X102.055 Y30.526
X102.07 Y30.554
X102.071 Y30.586
X102.058 Y30.614
X102.034 Y30.635
X101.843 Y30.74
X101.812 Y30.749
X101.781 Y30.744
X101.755 Y30.726
X101.74 Y30.699
X101.737 Y30.667
X101.748 Y30.638
Z-4.7 F33
X101.75 Y30.635 Z-4.747
X101.756 Y30.626 Z-4.793
X101.767 Y30.611 Z-4.836
X101.783 Y30.593 Z-4.876
X101.805 Y30.572 Z-4.912
X101.834 Y30.55 Z-4.943
X101.868 Y30.53 Z-4.967
X101.909 Y30.514 Z-4.985
X101.953 Y30.504 Z-4.996
X102 Y30.5 Z-5
G3 Y31.5 J0.5 F50
Y30.5 J-0.5
G1 X102.031 Y30.507
X102.055 Y30.526
X102.07 Y30.554
X102.071 Y30.586
X102.058 Y30.614
X102.034 Y30.635
X101.843 Y30.74
X101.812 Y30.749
X101.781 Y30.744
X101.755 Y30.726
X101.74 Y30.699
X101.737 Y30.667
X101.748 Y30.638
Z-5.7 F33
X101.75 Y30.635 Z-5.747
X101.756 Y30.626 Z-5.793
X101.767 Y30.611 Z-5.836
X101.783 Y30.593 Z-5.876
X101.805 Y30.572 Z-5.912
X101.834 Y30.55 Z-5.943
X101.868 Y30.53 Z-5.967
X101.909 Y30.514 Z-5.985
X101.953 Y30.504 Z-5.996
X102 Y30.5 Z-6
G3 Y31.5 J0.5 F50
Y30.5 J-0.5
G1 X102.031 Y30.507
X102.055 Y30.526
X102.07 Y30.554
X102.071 Y30.586
X102.058 Y30.614
X102.034 Y30.635
X101.843 Y30.74
X101.812 Y30.749
X101.781 Y30.744
X101.755 Y30.726
X101.74 Y30.699
X101.737 Y30.667
X101.748 Y30.638
Z-6.7 F33
X101.75 Y30.635 Z-6.747
X101.756 Y30.626 Z-6.793
X101.767 Y30.611 Z-6.836
X101.783 Y30.593 Z-6.876
X101.805 Y30.572 Z-6.912
X101.834 Y30.55 Z-6.943
X101.868 Y30.53 Z-6.967
X101.909 Y30.514 Z-6.985
X101.953 Y30.504 Z-6.996
X102 Y30.5 Z-7
G3 Y31.5 J0.5 F50
Y30.5 J-0.5
G1 X102.031 Y30.507
X102.055 Y30.526
X102.07 Y30.554
X102.071 Y30.586
X102.058 Y30.614
X102.034 Y30.635
X101.843 Y30.74
X101.812 Y30.749
X101.781 Y30.744
X101.755 Y30.726
X101.74 Y30.699
X101.737 Y30.667
X101.748 Y30.638
Z-7.7 F33
X101.75 Y30.635 Z-7.747
X101.756 Y30.626 Z-7.793
X101.767 Y30.611 Z-7.836
X101.783 Y30.593 Z-7.876
X101.805 Y30.572 Z-7.912
X101.834 Y30.55 Z-7.943
X101.868 Y30.53 Z-7.967
X101.909 Y30.514 Z-7.985
X101.953 Y30.504 Z-7.996
X102 Y30.5 Z-8
G3 Y31.5 J0.5 F50
Y30.5 J-0.5
G1 X102.047 Y30.504 Z-7.996 F100
X102.091 Y30.514 Z-7.985
X102.132 Y30.53 Z-7.967
X102.166 Y30.55 Z-7.943
X102.195 Y30.572 Z-7.912
X102.217 Y30.593 Z-7.876
X102.233 Y30.611 Z-7.836
X102.244 Y30.626 Z-7.793
X102.25 Y30.635 Z-7.747
X102.252 Y30.638 Z-7.7
G0 Z2.8
X152.612 Y29.748
G1 Z2.5 F33
Z-0.7
X152.615 Y29.75 Z-0.747
X152.624 Y29.756 Z-0.793
X152.639 Y29.767 Z-0.836
X152.657 Y29.783 Z-0.876
X152.678 Y29.805 Z-0.912
X152.7 Y29.834 Z-0.943
X152.72 Y29.868 Z-0.967
X152.736 Y29.909 Z-0.985
X152.746 Y29.953 Z-0.996
X152.75 Y30 Z-1
G3 X151.25 I-0.75 F50
X152.75 I0.75
G1 X152.743 Y30.031
X152.724 Y30.055
X152.696 Y30.07
X152.664 Y30.071
X152.636 Y30.058
X152.615 Y30.034
X152.51 Y29.843
X152.501 Y29.812
X152.506 Y29.781
X152.524 Y29.755
X152.551 Y29.74
X152.583 Y29.737
X152.612 Y29.748
Z-1.7 F33
X152.615 Y29.75 Z-1.747
X152.624 Y29.756 Z-1.793
X152.639 Y29.767 Z-1.836
X152.657 Y29.783 Z-1.876
X152.678 Y29.805 Z-1.912
X152.7 Y29.834 Z-1.943
X152.72 Y29.868 Z-1.967
X152.736 Y29.909 Z-1.985
X152.746 Y29.953 Z-1.996
X152.75 Y30 Z-2
G3 X151.25 I-0.75 F50
X152.75 I0.75
G1 X152.743 Y30.031
X152.724 Y30.055
X152.696 Y30.07
X152.664 Y30.071
X152.636 Y30.058
X152.615 Y30.034
X152.51 Y29.843
X152.501 Y29.812
X152.506 Y29.781
X152.524 Y29.755
X152.551 Y29.74
X152.583 Y29.737
X152.612 Y29.748
Z-2.7 F33
X152.615 Y29.75 Z-2.747
X152.624 Y29.756 Z-2.793
X152.639 Y29.767 Z-2.836
X152.657 Y29.783 Z-2.876
X152.678 Y29.805 Z-2.912
X152.7 Y29.834 Z-2.943
X152.72 Y29.868 Z-2.967
X152.736 Y29.909 Z-2.985
X152.746 Y29.953 Z-2.996
X152.75 Y30 Z-3
G3 X151.25 I-0.75 F50
X152.75 I0.75
G1 X152.743 Y30.031
X152.724 Y30.055
X152.696 Y30.07
X152.664 Y30.071
X152.636 Y30.058
X152.615 Y30.034
X152.51 Y29.843
X152.501 Y29.812
X152.506 Y29.781
X152.524 Y29.755
X152.551 Y29.74
X152.583 Y29.737
X152.612 Y29.748
Z-3.7 F33
X152.615 Y29.75 Z-3.747
X152.624 Y29.756 Z-3.793
X152.639 Y29.767 Z-3.836
X152.657 Y29.783 Z-3.876
X152.678 Y29.805 Z-3.912
X152.7 Y29.834 Z-3.943
X152.72 Y29.868 Z-3.967
X152.736 Y29.909 Z-3.985
X152.746 Y29.953 Z-3.996
X152.75 Y30 Z-4
G3 X151.25 I-0.75 F50
X152.75 I0.75
G1 X152.743 Y30.031
X152.724 Y30.055
X152.696 Y30.07
X152.664 Y30.071
X152.636 Y30.058
X152.615 Y30.034
X152.51 Y29.843
X152.501 Y29.812
X152.506 Y29.781
X152.524 Y29.755
X152.551 Y29.74
X152.583 Y29.737
X152.612 Y29.748
Z-4.7 F33
X152.615 Y29.75 Z-4.747
X152.624 Y29.756 Z-4.793
X152.639 Y29.767 Z-4.836
X152.657 Y29.783 Z-4.876
X152.678 Y29.805 Z-4.912
X152.7 Y29.834 Z-4.943
X152.72 Y29.868 Z-4.967
X152.736 Y29.909 Z-4.985
X152.746 Y29.953 Z-4.996
X152.75 Y30 Z-5
G3 X151.25 I-0.75 F50
X152.75 I0.75
G1 X152.743 Y30.031
X152.724 Y30.055
X152.696 Y30.07
X152.664 Y30.071
X152.636 Y30.058
X152.615 Y30.034
X152.51 Y29.843
X152.501 Y29.812
X152.506 Y29.781
X152.524 Y29.755
X152.551 Y29.74
X152.583 Y29.737
X152.612 Y29.748
Z-5.7 F33
X152.615 Y29.75 Z-5.747
X152.624 Y29.756 Z-5.793
X152.639 Y29.767 Z-5.836
X152.657 Y29.783 Z-5.876
X152.678 Y29.805 Z-5.912
X152.7 Y29.834 Z-5.943
X152.72 Y29.868 Z-5.967
X152.736 Y29.909 Z-5.985
X152.746 Y29.953 Z-5.996
X152.75 Y30 Z-6
G3 X151.25 I-0.75 F50
X152.75 I0.75
G1 X152.743 Y30.031
X152.724 Y30.055
X152.696 Y30.07
X152.664 Y30.071
X152.636 Y30.058
X152.615 Y30.034
X152.51 Y29.843
X152.501 Y29.812
X152.506 Y29.781
X152.524 Y29.755
X152.551 Y29.74
X152.583 Y29.737
X152.612 Y29.748
Z-6.7 F33
X152.615 Y29.75 Z-6.747
X152.624 Y29.756 Z-6.793
X152.639 Y29.767 Z-6.836
X152.657 Y29.783 Z-6.876
X152.678 Y29.805 Z-6.912
X152.7 Y29.834 Z-6.943
X152.72 Y29.868 Z-6.967
X152.736 Y29.909 Z-6.985
X152.746 Y29.953 Z-6.996
X152.75 Y30 Z-7
G3 X151.25 I-0.75 F50
X152.75 I0.75
G1 X152.743 Y30.031
X152.724 Y30.055
X152.696 Y30.07
X152.664 Y30.071
X152.636 Y30.058
X152.615 Y30.034
X152.51 Y29.843
X152.501 Y29.812
X152.506 Y29.781
X152.524 Y29.755
X152.551 Y29.74
X152.583 Y29.737
X152.612 Y29.748
Z-7.7 F33
X152.615 Y29.75 Z-7.747
X152.624 Y29.756 Z-7.793
X152.639 Y29.767 Z-7.836
X152.657 Y29.783 Z-7.876
X152.678 Y29.805 Z-7.912
X152.7 Y29.834 Z-7.943
X152.72 Y29.868 Z-7.967
X152.736 Y29.909 Z-7.985
X152.746 Y29.953 Z-7.996
X152.75 Y30 Z-8
G3 X151.25 I-0.75 F50
X152.75 I0.75
G1 X152.746 Y30.047 Z-7.996 F100
X152.736 Y30.091 Z-7.985
X152.72 Y30.132 Z-7.967
X152.7 Y30.166 Z-7.943
X152.678 Y30.195 Z-7.912
X152.657 Y30.217 Z-7.876
X152.639 Y30.233 Z-7.836
X152.624 Y30.244 Z-7.793
X152.615 Y30.25 Z-7.747
X152.612 Y30.252 Z-7.7
G0 Z2.8
Y6.748
G1 Z2.5 F33
Z-0.7
X152.615 Y6.75 Z-0.747
X152.624 Y6.756 Z-0.793
X152.639 Y6.767 Z-0.836
X152.657 Y6.783 Z-0.876
X152.678 Y6.805 Z-0.912
X152.7 Y6.834 Z-0.943
X152.72 Y6.868 Z-0.967
X152.736 Y6.909 Z-0.985
X152.746 Y6.953 Z-0.996
X152.75 Y7 Z-1
G3 X151.25 I-0.75 F50
X152.75 I0.75
G1 X152.743 Y7.031
X152.724 Y7.055
X152.696 Y7.07
X152.664 Y7.071
X152.636 Y7.058
X152.615 Y7.034
X152.51 Y6.843
X152.501 Y6.812
X152.506 Y6.781
X152.524 Y6.755
X152.551 Y6.74
X152.583 Y6.737
X152.612 Y6.748
Z-1.7 F33
X152.615 Y6.75 Z-1.747
X152.624 Y6.756 Z-1.793
X152.639 Y6.767 Z-1.836
X152.657 Y6.783 Z-1.876
X152.678 Y6.805 Z-1.912
X152.7 Y6.834 Z-1.943
X152.72 Y6.868 Z-1.967
X152.736 Y6.909 Z-1.985
X152.746 Y6.953 Z-1.996
X152.75 Y7 Z-2
G3 X151.25 I-0.75 F50
X152.75 I0.75
G1 X152.743 Y7.031
X152.724 Y7.055
X152.696 Y7.07
X152.664 Y7.071
X152.636 Y7.058
X152.615 Y7.034
X152.51 Y6.843
X152.501 Y6.812
X152.506 Y6.781
X152.524 Y6.755
X152.551 Y6.74
X152.583 Y6.737
X152.612 Y6.748
Z-2.7 F33
X152.615 Y6.75 Z-2.747
X152.624 Y6.756 Z-2.793
X152.639 Y6.767 Z-2.836
X152.657 Y6.783 Z-2.876
X152.678 Y6.805 Z-2.912
X152.7 Y6.834 Z-2.943
X152.72 Y6.868 Z-2.967
X152.736 Y6.909 Z-2.985
X152.746 Y6.953 Z-2.996
X152.75 Y7 Z-3
G3 X151.25 I-0.75 F50
X152.75 I0.75
G1 X152.743 Y7.031
X152.724 Y7.055
X152.696 Y7.07
X152.664 Y7.071
X152.636 Y7.058
X152.615 Y7.034
X152.51 Y6.843
X152.501 Y6.812
X152.506 Y6.781
X152.524 Y6.755
X152.551 Y6.74
X152.583 Y6.737
X152.612 Y6.748
Z-3.7 F33
X152.615 Y6.75 Z-3.747
X152.624 Y6.756 Z-3.793
X152.639 Y6.767 Z-3.836
X152.657 Y6.783 Z-3.876
X152.678 Y6.805 Z-3.912
X152.7 Y6.834 Z-3.943
X152.72 Y6.868 Z-3.967
X152.736 Y6.909 Z-3.985
X152.746 Y6.953 Z-3.996
X152.75 Y7 Z-4
G3 X151.25 I-0.75 F50
X152.75 I0.75
G1 X152.743 Y7.031
X152.724 Y7.055
X152.696 Y7.07
X152.664 Y7.071
X152.636 Y7.058
X152.615 Y7.034
X152.51 Y6.843
X152.501 Y6.812
X152.506 Y6.781
X152.524 Y6.755
X152.551 Y6.74
X152.583 Y6.737
X152.612 Y6.748
Z-4.7 F33
X152.615 Y6.75 Z-4.747
X152.624 Y6.756 Z-4.793
X152.639 Y6.767 Z-4.836
X152.657 Y6.783 Z-4.876
X152.678 Y6.805 Z-4.912
X152.7 Y6.834 Z-4.943
X152.72 Y6.868 Z-4.967
X152.736 Y6.909 Z-4.985
X152.746 Y6.953 Z-4.996
X152.75 Y7 Z-5
G3 X151.25 I-0.75 F50
X152.75 I0.75
G1 X152.743 Y7.031
X152.724 Y7.055
X152.696 Y7.07
X152.664 Y7.071
X152.636 Y7.058
X152.615 Y7.034
X152.51 Y6.843
X152.501 Y6.812
X152.506 Y6.781
X152.524 Y6.755
X152.551 Y6.74
X152.583 Y6.737
X152.612 Y6.748
Z-5.7 F33
X152.615 Y6.75 Z-5.747
X152.624 Y6.756 Z-5.793
X152.639 Y6.767 Z-5.836
X152.657 Y6.783 Z-5.876
X152.678 Y6.805 Z-5.912
X152.7 Y6.834 Z-5.943
X152.72 Y6.868 Z-5.967
X152.736 Y6.909 Z-5.985
X152.746 Y6.953 Z-5.996
X152.75 Y7 Z-6
G3 X151.25 I-0.75 F50
X152.75 I0.75
G1 X152.743 Y7.031
X152.724 Y7.055
X152.696 Y7.07
X152.664 Y7.071
X152.636 Y7.058
X152.615 Y7.034
X152.51 Y6.843
X152.501 Y6.812
X152.506 Y6.781
X152.524 Y6.755
X152.551 Y6.74
X152.583 Y6.737
X152.612 Y6.748
Z-6.7 F33
X152.615 Y6.75 Z-6.747
X152.624 Y6.756 Z-6.793
X152.639 Y6.767 Z-6.836
X152.657 Y6.783 Z-6.876
X152.678 Y6.805 Z-6.912
X152.7 Y6.834 Z-6.943
X152.72 Y6.868 Z-6.967
X152.736 Y6.909 Z-6.985
X152.746 Y6.953 Z-6.996
X152.75 Y7 Z-7
G3 X151.25 I-0.75 F50
X152.75 I0.75
G1 X152.743 Y7.031
X152.724 Y7.055
X152.696 Y7.07
X152.664 Y7.071
X152.636 Y7.058
X152.615 Y7.034
X152.51 Y6.843
X152.501 Y6.812
X152.506 Y6.781
X152.524 Y6.755
X152.551 Y6.74
X152.583 Y6.737
X152.612 Y6.748
Z-7.7 F33
X152.615 Y6.75 Z-7.747
X152.624 Y6.756 Z-7.793
X152.639 Y6.767 Z-7.836
X152.657 Y6.783 Z-7.876
X152.678 Y6.805 Z-7.912
X152.7 Y6.834 Z-7.943
X152.72 Y6.868 Z-7.967
X152.736 Y6.909 Z-7.985
X152.746 Y6.953 Z-7.996
X152.75 Y7 Z-8
G3 X151.25 I-0.75 F50
X152.75 I0.75
G1 X152.746 Y7.047 Z-7.996 F100
X152.736 Y7.091 Z-7.985
X152.72 Y7.132 Z-7.967
X152.7 Y7.166 Z-7.943
X152.678 Y7.195 Z-7.912
X152.657 Y7.217 Z-7.876
X152.639 Y7.233 Z-7.836
X152.624 Y7.244 Z-7.793
X152.615 Y7.25 Z-7.747
X152.612 Y7.252 Z-7.7
G0 Z5

(2D Contour1)
X0.7 Y38.4
Z5
Z2
G1 Z-0.7 F33
G19 G2 Y38.1 Z-1 J-0.3
G1 Y37.8 F30
G17 G3 X1 Y37.5 I0.3
G1 X156 F60
G2 X157.5 Y36 J-1.5
G1 Y1
G2 X156 Y-0.5 I-1.5
G1 X1
G2 X-0.5 Y1 J1.5
G1 Y36
G2 X1 Y37.5 I1.5
G3 X1.3 Y37.8 J0.3 F100
G1 Y38.1
G19 G3 Y38.4 Z-0.7 K0.3
G0 Z2
X0.7
Z1.516
G1 Z-1.7 F33
G2 Y38.1 Z-2 J-0.3
G1 Y37.8 F30
G17 G3 X1 Y37.5 I0.3
G1 X156 F60
G2 X157.5 Y36 J-1.5
G1 Y1
G2 X156 Y-0.5 I-1.5
G1 X1
G2 X-0.5 Y1 J1.5
G1 Y36
G2 X1 Y37.5 I1.5
G3 X1.3 Y37.8 J0.3 F100
G1 Y38.1
G19 G3 Y38.4 Z-1.7 K0.3
G0 Z2
X0.7
Z1
G1 Z0.516 F33
Z-2.7
G2 Y38.1 Z-3 J-0.3
G1 Y37.8 F30
G17 G3 X1 Y37.5 I0.3
G1 X156 F60
G2 X157.5 Y36 J-1.5
G1 Y1
G2 X156 Y-0.5 I-1.5
G1 X1
G2 X-0.5 Y1 J1.5
G1 Y36
G2 X1 Y37.5 I1.5
G3 X1.3 Y37.8 J0.3 F100
G1 Y38.1
G19 G3 Y38.4 Z-2.7 K0.3
G0 Z2
X0.7
Z1
G1 Z-0.484 F33
Z-3.7
G2 Y38.1 Z-4 J-0.3
G1 Y37.8 F30
G17 G3 X1 Y37.5 I0.3
G1 X156 F60
G2 X157.5 Y36 J-1.5
G1 Y1
G2 X156 Y-0.5 I-1.5
G1 X1
G2 X-0.5 Y1 J1.5
G1 Y36
G2 X1 Y37.5 I1.5
G3 X1.3 Y37.8 J0.3 F100
G1 Y38.1
G19 G3 Y38.4 Z-3.7 K0.3
G0 Z2
X0.7
Z1
G1 Z-1.484 F33
Z-4.7
G2 Y38.1 Z-5 J-0.3
G1 Y37.8 F30
G17 G3 X1 Y37.5 I0.3
G1 X156 F60
G2 X157.5 Y36 J-1.5
G1 Y1
G2 X156 Y-0.5 I-1.5
G1 X1
G2 X-0.5 Y1 J1.5
G1 Y36
G2 X1 Y37.5 I1.5
G3 X1.3 Y37.8 J0.3 F100
G1 Y38.1
G19 G3 Y38.4 Z-4.7 K0.3
G0 Z2
X0.7
Z1
G1 Z-2.484 F33
Z-5.7
G2 Y38.1 Z-6 J-0.3
G1 Y37.8 F30
G17 G3 X1 Y37.5 I0.3
G1 X156 F60
G2 X157.5 Y36 J-1.5
G1 Y1
G2 X156 Y-0.5 I-1.5
G1 X1
G2 X-0.5 Y1 J1.5
G1 Y36
G2 X1 Y37.5 I1.5
G3 X1.3 Y37.8 J0.3 F100
G1 Y38.1
G19 G3 Y38.4 Z-5.7 K0.3
G0 Z2
X0.7
Z1
G1 Z-3.484 F33
Z-6.7
G2 Y38.1 Z-7 J-0.3
G1 Y37.8 F30
G17 G3 X1 Y37.5 I0.3
G1 X156 F60
G2 X157.5 Y36 J-1.5
G1 Y1
G2 X156 Y-0.5 I-1.5
G1 X1
G2 X-0.5 Y1 J1.5
G1 Y36
G2 X1 Y37.5 I1.5
G3 X1.3 Y37.8 J0.3 F100
G1 Y38.1
G19 G3 Y38.4 Z-6.7 K0.3
G0 Z2
X0.7
Z1
G1 Z-4.484 F33
Z-7.7
G2 Y38.1 Z-8 J-0.3
G1 Y37.8 F30
G17 G3 X1 Y37.5 I0.3
G1 X156 F60
G2 X157.5 Y36 J-1.5
G1 Y1
G2 X156 Y-0.5 I-1.5
G1 X1
G2 X-0.5 Y1 J1.5
G1 Y36
G2 X1 Y37.5 I1.5
G3 X1.3 Y37.8 J0.3 F100
G1 Y38.1
G19 G3 Y38.4 Z-7.7 K0.3
G0 Z5
G17
M9
G28 G91 Z0
G90
G28 G91 X0 Y0
G90
M30
%
