%
(1001)
(T1  D=3 CR=0.75 - ZMIN=-9 - bullnose end mill)
G90 G94
G17
G21
G28 G91 Z6
G90

(2D Pocket1)
M9
T1 M6
S1000 M3
G54
M8
G0 X60.612 Y3.748
Z5
Z2
G1 Z-0.7 F33
X60.631 Y3.761 Z-0.815
X60.678 Y3.805 Z-0.912
X60.707 Y3.845 Z-0.945
X60.728 Y3.888 Z-0.977
X60.745 Y3.943 Z-0.989
X60.75 Y4 Z-1
G3 X59.25 I-0.75 F50
X60.75 I0.75
G1 X60.743 Y4.031
X60.724 Y4.055
X60.696 Y4.07
X60.664 Y4.071
X60.636 Y4.058
X60.615 Y4.034
X60.51 Y3.843
X60.501 Y3.812
X60.506 Y3.781
X60.524 Y3.755
X60.551 Y3.74
X60.583 Y3.737
X60.612 Y3.748
Z-1.7 F33
X60.631 Y3.761 Z-1.815
X60.678 Y3.805 Z-1.912
X60.707 Y3.845 Z-1.945
X60.728 Y3.888 Z-1.977
X60.745 Y3.943 Z-1.989
X60.75 Y4 Z-2
G3 X59.25 I-0.75 F50
X60.75 I0.75
G1 X60.743 Y4.031
X60.724 Y4.055
X60.696 Y4.07
X60.664 Y4.071
X60.636 Y4.058
X60.615 Y4.034
X60.51 Y3.843
X60.501 Y3.812
X60.506 Y3.781
X60.524 Y3.755
X60.551 Y3.74
X60.583 Y3.737
X60.612 Y3.748
Z-2.7 F33
X60.631 Y3.761 Z-2.815
X60.678 Y3.805 Z-2.912
X60.707 Y3.845 Z-2.945
X60.728 Y3.888 Z-2.977
X60.745 Y3.943 Z-2.989
X60.75 Y4 Z-3
G3 X59.25 I-0.75 F50
X60.75 I0.75
G1 X60.743 Y4.031
X60.724 Y4.055
X60.696 Y4.07
X60.664 Y4.071
X60.636 Y4.058
X60.615 Y4.034
X60.51 Y3.843
X60.501 Y3.812
X60.506 Y3.781
X60.524 Y3.755
X60.551 Y3.74
X60.583 Y3.737
X60.612 Y3.748
Z-3.7 F33
X60.631 Y3.761 Z-3.815
X60.678 Y3.805 Z-3.912
X60.707 Y3.845 Z-3.945
X60.728 Y3.888 Z-3.977
X60.745 Y3.943 Z-3.989
X60.75 Y4 Z-4
G3 X59.25 I-0.75 F50
X60.75 I0.75
G1 X60.743 Y4.031
X60.724 Y4.055
X60.696 Y4.07
X60.664 Y4.071
X60.636 Y4.058
X60.615 Y4.034
X60.51 Y3.843
X60.501 Y3.812
X60.506 Y3.781
X60.524 Y3.755
X60.551 Y3.74
X60.583 Y3.737
X60.612 Y3.748
Z-4.7 F33
X60.631 Y3.761 Z-4.815
X60.678 Y3.805 Z-4.912
X60.707 Y3.845 Z-4.945
X60.728 Y3.888 Z-4.977
X60.745 Y3.943 Z-4.989
X60.75 Y4 Z-5
G3 X59.25 I-0.75 F50
X60.75 I0.75
G1 X60.743 Y4.031
X60.724 Y4.055
X60.696 Y4.07
X60.664 Y4.071
X60.636 Y4.058
X60.615 Y4.034
X60.51 Y3.843
X60.501 Y3.812
X60.506 Y3.781
X60.524 Y3.755
X60.551 Y3.74
X60.583 Y3.737
X60.612 Y3.748
Z-5.7 F33
X60.631 Y3.761 Z-5.815
X60.678 Y3.805 Z-5.912
X60.707 Y3.845 Z-5.945
X60.728 Y3.888 Z-5.977
X60.745 Y3.943 Z-5.989
X60.75 Y4 Z-6
G3 X59.25 I-0.75 F50
X60.75 I0.75
G1 X60.743 Y4.031
X60.724 Y4.055
X60.696 Y4.07
X60.664 Y4.071
X60.636 Y4.058
X60.615 Y4.034
X60.51 Y3.843
X60.501 Y3.812
X60.506 Y3.781
X60.524 Y3.755
X60.551 Y3.74
X60.583 Y3.737
X60.612 Y3.748
Z-6.7 F33
X60.631 Y3.761 Z-6.815
X60.678 Y3.805 Z-6.912
X60.707 Y3.845 Z-6.945
X60.728 Y3.888 Z-6.977
X60.745 Y3.943 Z-6.989
X60.75 Y4 Z-7
G3 X59.25 I-0.75 F50
X60.75 I0.75
G1 X60.743 Y4.031
X60.724 Y4.055
X60.696 Y4.07
X60.664 Y4.071
X60.636 Y4.058
X60.615 Y4.034
X60.51 Y3.843
X60.501 Y3.812
X60.506 Y3.781
X60.524 Y3.755
X60.551 Y3.74
X60.583 Y3.737
X60.612 Y3.748
Z-7.7 F33
X60.631 Y3.761 Z-7.815
X60.678 Y3.805 Z-7.912
X60.707 Y3.845 Z-7.945
X60.728 Y3.888 Z-7.977
X60.745 Y3.943 Z-7.989
X60.75 Y4 Z-8
G3 X59.25 I-0.75 F50
X60.75 I0.75
G1 X60.743 Y4.031
X60.724 Y4.055
X60.696 Y4.07
X60.664 Y4.071
X60.636 Y4.058
X60.615 Y4.034
X60.51 Y3.843
X60.501 Y3.812
X60.506 Y3.781
X60.524 Y3.755
X60.551 Y3.74
X60.583 Y3.737
X60.612 Y3.748
Z-8.7 F33
X60.631 Y3.761 Z-8.815
X60.678 Y3.805 Z-8.912
X60.707 Y3.845 Z-8.945
X60.728 Y3.888 Z-8.977
X60.745 Y3.943 Z-8.989
X60.75 Y4 Z-9
G3 X59.25 I-0.75 F50
X60.75 I0.75
G1 X60.745 Y4.057 Z-8.989 F100
X60.728 Y4.112 Z-8.977
X60.707 Y4.155 Z-8.945
X60.678 Y4.195 Z-8.912
X60.631 Y4.239 Z-8.815
X60.612 Y4.252 Z-8.7
G0 Z2
X9.388
G1 Z-0.7 F33
X9.369 Y4.239 Z-0.815
X9.322 Y4.195 Z-0.912
X9.293 Y4.155 Z-0.945
X9.272 Y4.112 Z-0.977
X9.255 Y4.057 Z-0.989
X9.25 Y4 Z-1
G3 X10.75 I0.75 F50
X9.25 I-0.75
G1 X9.257 Y3.969
X9.276 Y3.945
X9.304 Y3.93
X9.336 Y3.929
X9.364 Y3.942
X9.385 Y3.966
X9.49 Y4.157
X9.499 Y4.188
X9.494 Y4.219
X9.476 Y4.245
X9.449 Y4.26
X9.417 Y4.263
X9.388 Y4.252
Z-1.7 F33
X9.369 Y4.239 Z-1.815
X9.322 Y4.195 Z-1.912
X9.293 Y4.155 Z-1.945
X9.272 Y4.112 Z-1.977
X9.255 Y4.057 Z-1.989
X9.25 Y4 Z-2
G3 X10.75 I0.75 F50
X9.25 I-0.75
G1 X9.257 Y3.969
X9.276 Y3.945
X9.304 Y3.93
X9.336 Y3.929
X9.364 Y3.942
X9.385 Y3.966
X9.49 Y4.157
X9.499 Y4.188
X9.494 Y4.219
X9.476 Y4.245
X9.449 Y4.26
X9.417 Y4.263
X9.388 Y4.252
Z-2.7 F33
X9.369 Y4.239 Z-2.815
X9.322 Y4.195 Z-2.912
X9.293 Y4.155 Z-2.945
X9.272 Y4.112 Z-2.977
X9.255 Y4.057 Z-2.989
X9.25 Y4 Z-3
G3 X10.75 I0.75 F50
X9.25 I-0.75
G1 X9.257 Y3.969
X9.276 Y3.945
X9.304 Y3.93
X9.336 Y3.929
X9.364 Y3.942
X9.385 Y3.966
X9.49 Y4.157
X9.499 Y4.188
X9.494 Y4.219
X9.476 Y4.245
X9.449 Y4.26
X9.417 Y4.263
X9.388 Y4.252
Z-3.7 F33
X9.369 Y4.239 Z-3.815
X9.322 Y4.195 Z-3.912
X9.293 Y4.155 Z-3.945
X9.272 Y4.112 Z-3.977
X9.255 Y4.057 Z-3.989
X9.25 Y4 Z-4
G3 X10.75 I0.75 F50
X9.25 I-0.75
G1 X9.257 Y3.969
X9.276 Y3.945
X9.304 Y3.93
X9.336 Y3.929
X9.364 Y3.942
X9.385 Y3.966
X9.49 Y4.157
X9.499 Y4.188
X9.494 Y4.219
X9.476 Y4.245
X9.449 Y4.26
X9.417 Y4.263
X9.388 Y4.252
Z-4.7 F33
X9.369 Y4.239 Z-4.815
X9.322 Y4.195 Z-4.912
X9.293 Y4.155 Z-4.945
X9.272 Y4.112 Z-4.977
X9.255 Y4.057 Z-4.989
X9.25 Y4 Z-5
G3 X10.75 I0.75 F50
X9.25 I-0.75
G1 X9.257 Y3.969
X9.276 Y3.945
X9.304 Y3.93
X9.336 Y3.929
X9.364 Y3.942
X9.385 Y3.966
X9.49 Y4.157
X9.499 Y4.188
X9.494 Y4.219
X9.476 Y4.245
X9.449 Y4.26
X9.417 Y4.263
X9.388 Y4.252
Z-5.7 F33
X9.369 Y4.239 Z-5.815
X9.322 Y4.195 Z-5.912
X9.293 Y4.155 Z-5.945
X9.272 Y4.112 Z-5.977
X9.255 Y4.057 Z-5.989
X9.25 Y4 Z-6
G3 X10.75 I0.75 F50
X9.25 I-0.75
G1 X9.257 Y3.969
X9.276 Y3.945
X9.304 Y3.93
X9.336 Y3.929
X9.364 Y3.942
X9.385 Y3.966
X9.49 Y4.157
X9.499 Y4.188
X9.494 Y4.219
X9.476 Y4.245
X9.449 Y4.26
X9.417 Y4.263
X9.388 Y4.252
Z-6.7 F33
X9.369 Y4.239 Z-6.815
X9.322 Y4.195 Z-6.912
X9.293 Y4.155 Z-6.945
X9.272 Y4.112 Z-6.977
X9.255 Y4.057 Z-6.989
X9.25 Y4 Z-7
G3 X10.75 I0.75 F50
X9.25 I-0.75
G1 X9.257 Y3.969
X9.276 Y3.945
X9.304 Y3.93
X9.336 Y3.929
X9.364 Y3.942
X9.385 Y3.966
X9.49 Y4.157
X9.499 Y4.188
X9.494 Y4.219
X9.476 Y4.245
X9.449 Y4.26
X9.417 Y4.263
X9.388 Y4.252
Z-7.7 F33
X9.369 Y4.239 Z-7.815
X9.322 Y4.195 Z-7.912
X9.293 Y4.155 Z-7.945
X9.272 Y4.112 Z-7.977
X9.255 Y4.057 Z-7.989
X9.25 Y4 Z-8
G3 X10.75 I0.75 F50
X9.25 I-0.75
G1 X9.257 Y3.969
X9.276 Y3.945
X9.304 Y3.93
X9.336 Y3.929
X9.364 Y3.942
X9.385 Y3.966
X9.49 Y4.157
X9.499 Y4.188
X9.494 Y4.219
X9.476 Y4.245
X9.449 Y4.26
X9.417 Y4.263
X9.388 Y4.252
Z-8.7 F33
X9.369 Y4.239 Z-8.815
X9.322 Y4.195 Z-8.912
X9.293 Y4.155 Z-8.945
X9.272 Y4.112 Z-8.977
X9.255 Y4.057 Z-8.989
X9.25 Y4 Z-9
G3 X10.75 I0.75 F50
X9.25 I-0.75
G1 X9.255 Y3.943 Z-8.989 F100
X9.272 Y3.888 Z-8.977
X9.293 Y3.845 Z-8.945
X9.322 Y3.805 Z-8.912
X9.369 Y3.761 Z-8.815
X9.388 Y3.748 Z-8.7
G0 Z2
X9.748 Y61.388
G1 Z-0.7 F33
X9.761 Y61.369 Z-0.815
X9.805 Y61.322 Z-0.912
X9.845 Y61.293 Z-0.945
X9.888 Y61.272 Z-0.977
X9.943 Y61.255 Z-0.989
X10 Y61.25 Z-1
G3 Y62.75 J0.75 F50
Y61.25 J-0.75
G1 X10.031 Y61.257
X10.055 Y61.276
X10.07 Y61.304
X10.071 Y61.336
X10.058 Y61.364
X10.034 Y61.385
X9.843 Y61.49
X9.812 Y61.499
X9.781 Y61.494
X9.755 Y61.476
X9.74 Y61.449
X9.737 Y61.417
X9.748 Y61.388
Z-1.7 F33
X9.761 Y61.369 Z-1.815
X9.805 Y61.322 Z-1.912
X9.845 Y61.293 Z-1.945
X9.888 Y61.272 Z-1.977
X9.943 Y61.255 Z-1.989
X10 Y61.25 Z-2
G3 Y62.75 J0.75 F50
Y61.25 J-0.75
G1 X10.031 Y61.257
X10.055 Y61.276
X10.07 Y61.304
X10.071 Y61.336
X10.058 Y61.364
X10.034 Y61.385
X9.843 Y61.49
X9.812 Y61.499
X9.781 Y61.494
X9.755 Y61.476
X9.74 Y61.449
X9.737 Y61.417
X9.748 Y61.388
Z-2.7 F33
X9.761 Y61.369 Z-2.815
X9.805 Y61.322 Z-2.912
X9.845 Y61.293 Z-2.945
X9.888 Y61.272 Z-2.977
X9.943 Y61.255 Z-2.989
X10 Y61.25 Z-3
G3 Y62.75 J0.75 F50
Y61.25 J-0.75
G1 X10.031 Y61.257
X10.055 Y61.276
X10.07 Y61.304
X10.071 Y61.336
X10.058 Y61.364
X10.034 Y61.385
X9.843 Y61.49
X9.812 Y61.499
X9.781 Y61.494
X9.755 Y61.476
X9.74 Y61.449
X9.737 Y61.417
X9.748 Y61.388
Z-3.7 F33
X9.761 Y61.369 Z-3.815
X9.805 Y61.322 Z-3.912
X9.845 Y61.293 Z-3.945
X9.888 Y61.272 Z-3.977
X9.943 Y61.255 Z-3.989
X10 Y61.25 Z-4
G3 Y62.75 J0.75 F50
Y61.25 J-0.75
G1 X10.031 Y61.257
X10.055 Y61.276
X10.07 Y61.304
X10.071 Y61.336
X10.058 Y61.364
X10.034 Y61.385
X9.843 Y61.49
X9.812 Y61.499
X9.781 Y61.494
X9.755 Y61.476
X9.74 Y61.449
X9.737 Y61.417
X9.748 Y61.388
Z-4.7 F33
X9.761 Y61.369 Z-4.815
X9.805 Y61.322 Z-4.912
X9.845 Y61.293 Z-4.945
X9.888 Y61.272 Z-4.977
X9.943 Y61.255 Z-4.989
X10 Y61.25 Z-5
G3 Y62.75 J0.75 F50
Y61.25 J-0.75
G1 X10.031 Y61.257
X10.055 Y61.276
X10.07 Y61.304
X10.071 Y61.336
X10.058 Y61.364
X10.034 Y61.385
X9.843 Y61.49
X9.812 Y61.499
X9.781 Y61.494
X9.755 Y61.476
X9.74 Y61.449
X9.737 Y61.417
X9.748 Y61.388
Z-5.7 F33
X9.761 Y61.369 Z-5.815
X9.805 Y61.322 Z-5.912
X9.845 Y61.293 Z-5.945
X9.888 Y61.272 Z-5.977
X9.943 Y61.255 Z-5.989
X10 Y61.25 Z-6
G3 Y62.75 J0.75 F50
Y61.25 J-0.75
G1 X10.031 Y61.257
X10.055 Y61.276
X10.07 Y61.304
X10.071 Y61.336
X10.058 Y61.364
X10.034 Y61.385
X9.843 Y61.49
X9.812 Y61.499
X9.781 Y61.494
X9.755 Y61.476
X9.74 Y61.449
X9.737 Y61.417
X9.748 Y61.388
Z-6.7 F33
X9.761 Y61.369 Z-6.815
X9.805 Y61.322 Z-6.912
X9.845 Y61.293 Z-6.945
X9.888 Y61.272 Z-6.977
X9.943 Y61.255 Z-6.989
X10 Y61.25 Z-7
G3 Y62.75 J0.75 F50
Y61.25 J-0.75
G1 X10.031 Y61.257
X10.055 Y61.276
X10.07 Y61.304
X10.071 Y61.336
X10.058 Y61.364
X10.034 Y61.385
X9.843 Y61.49
X9.812 Y61.499
X9.781 Y61.494
X9.755 Y61.476
X9.74 Y61.449
X9.737 Y61.417
X9.748 Y61.388
Z-7.7 F33
X9.761 Y61.369 Z-7.815
X9.805 Y61.322 Z-7.912
X9.845 Y61.293 Z-7.945
X9.888 Y61.272 Z-7.977
X9.943 Y61.255 Z-7.989
X10 Y61.25 Z-8
G3 Y62.75 J0.75 F50
Y61.25 J-0.75
G1 X10.031 Y61.257
X10.055 Y61.276
X10.07 Y61.304
X10.071 Y61.336
X10.058 Y61.364
X10.034 Y61.385
X9.843 Y61.49
X9.812 Y61.499
X9.781 Y61.494
X9.755 Y61.476
X9.74 Y61.449
X9.737 Y61.417
X9.748 Y61.388
Z-8.7 F33
X9.761 Y61.369 Z-8.815
X9.805 Y61.322 Z-8.912
X9.845 Y61.293 Z-8.945
X9.888 Y61.272 Z-8.977
X9.943 Y61.255 Z-8.989
X10 Y61.25 Z-9
G3 Y62.75 J0.75 F50
Y61.25 J-0.75
G1 X10.057 Y61.255 Z-8.989 F100
X10.112 Y61.272 Z-8.977
X10.155 Y61.293 Z-8.945
X10.195 Y61.322 Z-8.912
X10.239 Y61.369 Z-8.815
X10.252 Y61.388 Z-8.7
G0 Z2
X60.252 Y62.612
G1 Z-0.7 F33
X60.239 Y62.631 Z-0.815
X60.195 Y62.678 Z-0.912
X60.155 Y62.707 Z-0.945
X60.112 Y62.728 Z-0.977
X60.057 Y62.745 Z-0.989
X60 Y62.75 Z-1
G3 Y61.25 J-0.75 F50
Y62.75 J0.75
G1 X59.969 Y62.743
X59.945 Y62.724
X59.93 Y62.696
X59.929 Y62.664
X59.942 Y62.636
X59.966 Y62.615
X60.157 Y62.51
X60.188 Y62.501
X60.219 Y62.506
X60.245 Y62.524
X60.26 Y62.551
X60.263 Y62.583
X60.252 Y62.612
Z-1.7 F33
X60.239 Y62.631 Z-1.815
X60.195 Y62.678 Z-1.912
X60.155 Y62.707 Z-1.945
X60.112 Y62.728 Z-1.977
X60.057 Y62.745 Z-1.989
X60 Y62.75 Z-2
G3 Y61.25 J-0.75 F50
Y62.75 J0.75
G1 X59.969 Y62.743
X59.945 Y62.724
X59.93 Y62.696
X59.929 Y62.664
X59.942 Y62.636
X59.966 Y62.615
X60.157 Y62.51
X60.188 Y62.501
X60.219 Y62.506
X60.245 Y62.524
X60.26 Y62.551
X60.263 Y62.583
X60.252 Y62.612
Z-2.7 F33
X60.239 Y62.631 Z-2.815
X60.195 Y62.678 Z-2.912
X60.155 Y62.707 Z-2.945
X60.112 Y62.728 Z-2.977
X60.057 Y62.745 Z-2.989
X60 Y62.75 Z-3
G3 Y61.25 J-0.75 F50
Y62.75 J0.75
G1 X59.969 Y62.743
X59.945 Y62.724
X59.93 Y62.696
X59.929 Y62.664
X59.942 Y62.636
X59.966 Y62.615
X60.157 Y62.51
X60.188 Y62.501
X60.219 Y62.506
X60.245 Y62.524
X60.26 Y62.551
X60.263 Y62.583
X60.252 Y62.612
Z-3.7 F33
X60.239 Y62.631 Z-3.815
X60.195 Y62.678 Z-3.912
X60.155 Y62.707 Z-3.945
X60.112 Y62.728 Z-3.977
X60.057 Y62.745 Z-3.989
X60 Y62.75 Z-4
G3 Y61.25 J-0.75 F50
Y62.75 J0.75
G1 X59.969 Y62.743
X59.945 Y62.724
X59.93 Y62.696
X59.929 Y62.664
X59.942 Y62.636
X59.966 Y62.615
X60.157 Y62.51
X60.188 Y62.501
X60.219 Y62.506
X60.245 Y62.524
X60.26 Y62.551
X60.263 Y62.583
X60.252 Y62.612
Z-4.7 F33
X60.239 Y62.631 Z-4.815
X60.195 Y62.678 Z-4.912
X60.155 Y62.707 Z-4.945
X60.112 Y62.728 Z-4.977
X60.057 Y62.745 Z-4.989
X60 Y62.75 Z-5
G3 Y61.25 J-0.75 F50
Y62.75 J0.75
G1 X59.969 Y62.743
X59.945 Y62.724
X59.93 Y62.696
X59.929 Y62.664
X59.942 Y62.636
X59.966 Y62.615
X60.157 Y62.51
X60.188 Y62.501
X60.219 Y62.506
X60.245 Y62.524
X60.26 Y62.551
X60.263 Y62.583
X60.252 Y62.612
Z-5.7 F33
X60.239 Y62.631 Z-5.815
X60.195 Y62.678 Z-5.912
X60.155 Y62.707 Z-5.945
X60.112 Y62.728 Z-5.977
X60.057 Y62.745 Z-5.989
X60 Y62.75 Z-6
G3 Y61.25 J-0.75 F50
Y62.75 J0.75
G1 X59.969 Y62.743
X59.945 Y62.724
X59.93 Y62.696
X59.929 Y62.664
X59.942 Y62.636
X59.966 Y62.615
X60.157 Y62.51
X60.188 Y62.501
X60.219 Y62.506
X60.245 Y62.524
X60.26 Y62.551
X60.263 Y62.583
X60.252 Y62.612
Z-6.7 F33
X60.239 Y62.631 Z-6.815
X60.195 Y62.678 Z-6.912
X60.155 Y62.707 Z-6.945
X60.112 Y62.728 Z-6.977
X60.057 Y62.745 Z-6.989
X60 Y62.75 Z-7
G3 Y61.25 J-0.75 F50
Y62.75 J0.75
G1 X59.969 Y62.743
X59.945 Y62.724
X59.93 Y62.696
X59.929 Y62.664
X59.942 Y62.636
X59.966 Y62.615
X60.157 Y62.51
X60.188 Y62.501
X60.219 Y62.506
X60.245 Y62.524
X60.26 Y62.551
X60.263 Y62.583
X60.252 Y62.612
Z-7.7 F33
X60.239 Y62.631 Z-7.815
X60.195 Y62.678 Z-7.912
X60.155 Y62.707 Z-7.945
X60.112 Y62.728 Z-7.977
X60.057 Y62.745 Z-7.989
X60 Y62.75 Z-8
G3 Y61.25 J-0.75 F50
Y62.75 J0.75
G1 X59.969 Y62.743
X59.945 Y62.724
X59.93 Y62.696
X59.929 Y62.664
X59.942 Y62.636
X59.966 Y62.615
X60.157 Y62.51
X60.188 Y62.501
X60.219 Y62.506
X60.245 Y62.524
X60.26 Y62.551
X60.263 Y62.583
X60.252 Y62.612
Z-8.7 F33
X60.239 Y62.631 Z-8.815
X60.195 Y62.678 Z-8.912
X60.155 Y62.707 Z-8.945
X60.112 Y62.728 Z-8.977
X60.057 Y62.745 Z-8.989
X60 Y62.75 Z-9
G3 Y61.25 J-0.75 F50
Y62.75 J0.75
G1 X59.943 Y62.745 Z-8.989 F100
X59.888 Y62.728 Z-8.977
X59.845 Y62.707 Z-8.945
X59.805 Y62.678 Z-8.912
X59.761 Y62.631 Z-8.815
X59.748 Y62.612 Z-8.7
G0 Z5

(2D Contour1)
X-0.3 Y68.4
Z5
Z2
G1 Z-0.7 F33
G19 G2 Y68.1 Z-1 J-0.3
G1 Y67.8 F30
G17 G3 X0 Y67.5 I0.3
G1 X97 F60
G2 X98.5 Y66 J-1.5
G1 Y0
G2 X97 Y-1.5 I-1.5
G1 X0
G2 X-1.5 Y0 J1.5
G1 Y66
G2 X0 Y67.5 I1.5
G3 X0.3 Y67.8 J0.3 F100
G1 Y68.1
G19 G3 Y68.4 Z-0.7 K0.3
G1 X-0.3 F60
Z-1.7 F33
G2 Y68.1 Z-2 J-0.3
G1 Y67.8 F30
G17 G3 X0 Y67.5 I0.3
G1 X97 F60
G2 X98.5 Y66 J-1.5
G1 Y0
G2 X97 Y-1.5 I-1.5
G1 X0
G2 X-1.5 Y0 J1.5
G1 Y66
G2 X0 Y67.5 I1.5
G3 X0.3 Y67.8 J0.3 F100
G1 Y68.1
G19 G3 Y68.4 Z-1.7 K0.3
G1 X-0.3 F60
Z-2.7 F33
G2 Y68.1 Z-3 J-0.3
G1 Y67.8 F30
G17 G3 X0 Y67.5 I0.3
G1 X97 F60
G2 X98.5 Y66 J-1.5
G1 Y0
G2 X97 Y-1.5 I-1.5
G1 X0
G2 X-1.5 Y0 J1.5
G1 Y66
G2 X0 Y67.5 I1.5
G3 X0.3 Y67.8 J0.3 F100
G1 Y68.1
G19 G3 Y68.4 Z-2.7 K0.3
G1 X-0.3 F60
Z-3.7 F33
G2 Y68.1 Z-4 J-0.3
G1 Y67.8 F30
G17 G3 X0 Y67.5 I0.3
G1 X97 F60
G2 X98.5 Y66 J-1.5
G1 Y0
G2 X97 Y-1.5 I-1.5
G1 X0
G2 X-1.5 Y0 J1.5
G1 Y66
G2 X0 Y67.5 I1.5
G3 X0.3 Y67.8 J0.3 F100
G1 Y68.1
G19 G3 Y68.4 Z-3.7 K0.3
G1 X-0.3 F60
Z-4.7 F33
G2 Y68.1 Z-5 J-0.3
G1 Y67.8 F30
G17 G3 X0 Y67.5 I0.3
G1 X97 F60
G2 X98.5 Y66 J-1.5
G1 Y0
G2 X97 Y-1.5 I-1.5
G1 X0
G2 X-1.5 Y0 J1.5
G1 Y66
G2 X0 Y67.5 I1.5
G3 X0.3 Y67.8 J0.3 F100
G1 Y68.1
G19 G3 Y68.4 Z-4.7 K0.3
G1 X-0.3 F60
Z-5.7 F33
G2 Y68.1 Z-6 J-0.3
G1 Y67.8 F30
G17 G3 X0 Y67.5 I0.3
G1 X97 F60
G2 X98.5 Y66 J-1.5
G1 Y0
G2 X97 Y-1.5 I-1.5
G1 X0
G2 X-1.5 Y0 J1.5
G1 Y66
G2 X0 Y67.5 I1.5
G3 X0.3 Y67.8 J0.3 F100
G1 Y68.1
G19 G3 Y68.4 Z-5.7 K0.3
G1 X-0.3 F60
Z-6.7 F33
G2 Y68.1 Z-7 J-0.3
G1 Y67.8 F30
G17 G3 X0 Y67.5 I0.3
G1 X97 F60
G2 X98.5 Y66 J-1.5
G1 Y0
G2 X97 Y-1.5 I-1.5
G1 X0
G2 X-1.5 Y0 J1.5
G1 Y66
G2 X0 Y67.5 I1.5
G3 X0.3 Y67.8 J0.3 F100
G1 Y68.1
G19 G3 Y68.4 Z-6.7 K0.3
G1 X-0.3 F60
Z-7.7 F33
G2 Y68.1 Z-8 J-0.3
G1 Y67.8 F30
G17 G3 X0 Y67.5 I0.3
G1 X97 F60
G2 X98.5 Y66 J-1.5
G1 Y0
G2 X97 Y-1.5 I-1.5
G1 X0
G2 X-1.5 Y0 J1.5
G1 Y66
G2 X0 Y67.5 I1.5
G3 X0.3 Y67.8 J0.3 F100
G1 Y68.1
G19 G3 Y68.4 Z-7.7 K0.3
G1 X-0.3 F60
Z-8.5 F33
G2 Y68.1 Z-8.8 J-0.3
G1 Y67.8 F30
G17 G3 X0 Y67.5 I0.3
G1 X97 F60
G2 X98.5 Y66 J-1.5
G1 Y0
G2 X97 Y-1.5 I-1.5
G1 X0
G2 X-1.5 Y0 J1.5
G1 Y66
G2 X0 Y67.5 I1.5
G3 X0.3 Y67.8 J0.3 F100
G1 Y68.1
G19 G3 Y68.4 Z-8.5 K0.3
G1 X-0.3 F60
Z-8.7 F33
G2 Y68.1 Z-9 J-0.3
G1 Y67.8 F30
G17 G3 X0 Y67.5 I0.3
G1 X97 F60
G2 X98.5 Y66 J-1.5
G1 Y0
G2 X97 Y-1.5 I-1.5
G1 X0
G2 X-1.5 Y0 J1.5
G1 Y66
G2 X0 Y67.5 I1.5
G3 X0.3 Y67.8 J0.3 F100
G1 Y68.1
G19 G3 Y68.4 Z-8.7 K0.3
G0 Z5
G17
M9
G28 G91 Z0
G90
G28 G91 X0 Y0
G90
M30
%
