%
(1001)
(T1  D=3 CR=0.75 - ZMIN=-9 - bullnose end mill)
G90 G94
G17
G21
G28 G91 Z6
G90

(2D Pocket2)
M9
T1 M6
S1000 M3
G54
M8
G0 X23.751 Y35.25
Z5
Z2
G1 Z-1 F33
G3 Y34.75 J-0.25 F50
Y35.25 J0.25
G1 Z-2 F33
G3 Y34.75 J-0.25 F50
Y35.25 J0.25
G1 Z-3 F33
G3 Y34.75 J-0.25 F50
Y35.25 J0.25
G1 Z-4 F33
G3 Y34.75 J-0.25 F50
Y35.25 J0.25
G1 Z-5 F33
G3 Y34.75 J-0.25 F50
Y35.25 J0.25
G1 Z-6 F33
G3 Y34.75 J-0.25 F50
Y35.25 J0.25
G1 Z-7 F33
G3 Y34.75 J-0.25 F50
Y35.25 J0.25
G1 Z-8 F33
G3 Y34.75 J-0.25 F50
Y35.25 J0.25
G1 Z-9 F33
G3 Y34.75 J-0.25 F50
Y35.25 J0.25
G1 X23.705 Y35.246 Z-8.996 F100
X23.661 Y35.233 Z-8.985
X23.622 Y35.214 Z-8.967
X23.589 Y35.19 Z-8.943
X23.564 Y35.165 Z-8.912
X23.545 Y35.141 Z-8.876
X23.532 Y35.12 Z-8.836
X23.524 Y35.104 Z-8.793
X23.52 Y35.094 Z-8.747
X23.518 Y35.091 Z-8.7
G0 Z2
X15.501 Y43
G1 Z-1 F33
G3 X16.001 I0.25 F50
X15.501 I-0.25
G1 Z-2 F33
G3 X16.001 I0.25 F50
X15.501 I-0.25
G1 Z-3 F33
G3 X16.001 I0.25 F50
X15.501 I-0.25
G1 Z-4 F33
G3 X16.001 I0.25 F50
X15.501 I-0.25
G1 Z-5 F33
G3 X16.001 I0.25 F50
X15.501 I-0.25
G1 Z-6 F33
G3 X16.001 I0.25 F50
X15.501 I-0.25
G1 Z-7 F33
G3 X16.001 I0.25 F50
X15.501 I-0.25
G1 Z-8 F33
G3 X16.001 I0.25 F50
X15.501 I-0.25
G1 Z-9 F33
G3 X16.001 I0.25 F50
X15.501 I-0.25
G1 X15.506 Y42.953 Z-8.996 F100
X15.518 Y42.909 Z-8.985
X15.537 Y42.87 Z-8.967
X15.561 Y42.838 Z-8.943
X15.586 Y42.812 Z-8.912
X15.61 Y42.794 Z-8.876
X15.631 Y42.781 Z-8.836
X15.647 Y42.773 Z-8.793
X15.657 Y42.768 Z-8.747
X15.661 Y42.767 Z-8.7
G0 Z2
X23.751 Y51.25
G1 Z-1 F33
G3 Y50.75 J-0.25 F50
Y51.25 J0.25
G1 Z-2 F33
G3 Y50.75 J-0.25 F50
Y51.25 J0.25
G1 Z-3 F33
G3 Y50.75 J-0.25 F50
Y51.25 J0.25
G1 Z-4 F33
G3 Y50.75 J-0.25 F50
Y51.25 J0.25
G1 Z-5 F33
G3 Y50.75 J-0.25 F50
Y51.25 J0.25
G1 Z-6 F33
G3 Y50.75 J-0.25 F50
Y51.25 J0.25
G1 Z-7 F33
G3 Y50.75 J-0.25 F50
Y51.25 J0.25
G1 Z-8 F33
G3 Y50.75 J-0.25 F50
Y51.25 J0.25
G1 Z-9 F33
G3 Y50.75 J-0.25 F50
Y51.25 J0.25
G1 X23.705 Y51.246 Z-8.996 F100
X23.661 Y51.233 Z-8.985
X23.622 Y51.214 Z-8.967
X23.589 Y51.19 Z-8.943
X23.564 Y51.165 Z-8.912
X23.545 Y51.141 Z-8.876
X23.532 Y51.12 Z-8.836
X23.524 Y51.104 Z-8.793
X23.52 Y51.094 Z-8.747
X23.518 Y51.091 Z-8.7
G0 Z2
X31.751 Y43.25
G1 Z-1 F33
G3 Y42.75 J-0.25 F50
Y43.25 J0.25
G1 Z-2 F33
G3 Y42.75 J-0.25 F50
Y43.25 J0.25
G1 Z-3 F33
G3 Y42.75 J-0.25 F50
Y43.25 J0.25
G1 Z-4 F33
G3 Y42.75 J-0.25 F50
Y43.25 J0.25
G1 Z-5 F33
G3 Y42.75 J-0.25 F50
Y43.25 J0.25
G1 Z-6 F33
G3 Y42.75 J-0.25 F50
Y43.25 J0.25
G1 Z-7 F33
G3 Y42.75 J-0.25 F50
Y43.25 J0.25
G1 Z-8 F33
G3 Y42.75 J-0.25 F50
Y43.25 J0.25
G1 Z-9 F33
G3 Y42.75 J-0.25 F50
Y43.25 J0.25
G1 X31.705 Y43.246 Z-8.996 F100
X31.661 Y43.233 Z-8.985
X31.622 Y43.214 Z-8.967
X31.589 Y43.19 Z-8.943
X31.564 Y43.165 Z-8.912
X31.545 Y43.141 Z-8.876
X31.532 Y43.12 Z-8.836
X31.524 Y43.104 Z-8.793
X31.52 Y43.094 Z-8.747
X31.518 Y43.091 Z-8.7
G0 Z5

(2D Contour1)
X26.851 Y42.7
Z5
Z2
G1 Z-0.7 F33
G18 G2 X27.151 Z-1 I0.3
G1 X27.451 F30
G17 G3 X27.751 Y43 J0.3
X19.751 I-4 F50
X27.751 I4
X27.451 Y43.3 I-0.3 F100
G1 X27.151
G18 G3 X26.851 Z-0.7 K0.3
G1 Y42.7 F50
Z-1.7 F33
G2 X27.151 Z-2 I0.3
G1 X27.451 F30
G17 G3 X27.751 Y43 J0.3
X19.751 I-4 F50
X27.751 I4
X27.451 Y43.3 I-0.3 F100
G1 X27.151
G18 G3 X26.851 Z-1.7 K0.3
G1 Y42.7 F50
Z-2.7 F33
G2 X27.151 Z-3 I0.3
G1 X27.451 F30
G17 G3 X27.751 Y43 J0.3
X19.751 I-4 F50
X27.751 I4
X27.451 Y43.3 I-0.3 F100
G1 X27.151
G18 G3 X26.851 Z-2.7 K0.3
G1 Y42.7 F50
Z-3.7 F33
G2 X27.151 Z-4 I0.3
G1 X27.451 F30
G17 G3 X27.751 Y43 J0.3
X19.751 I-4 F50
X27.751 I4
X27.451 Y43.3 I-0.3 F100
G1 X27.151
G18 G3 X26.851 Z-3.7 K0.3
G1 Y42.7 F50
Z-4.7 F33
G2 X27.151 Z-5 I0.3
G1 X27.451 F30
G17 G3 X27.751 Y43 J0.3
X19.751 I-4 F50
X27.751 I4
X27.451 Y43.3 I-0.3 F100
G1 X27.151
G18 G3 X26.851 Z-4.7 K0.3
G1 Y42.7 F50
Z-5.7 F33
G2 X27.151 Z-6 I0.3
G1 X27.451 F30
G17 G3 X27.751 Y43 J0.3
X19.751 I-4 F50
X27.751 I4
X27.451 Y43.3 I-0.3 F100
G1 X27.151
G18 G3 X26.851 Z-5.7 K0.3
G1 Y42.7 F50
Z-6.7 F33
G2 X27.151 Z-7 I0.3
G1 X27.451 F30
G17 G3 X27.751 Y43 J0.3
X19.751 I-4 F50
X27.751 I4
X27.451 Y43.3 I-0.3 F100
G1 X27.151
G18 G3 X26.851 Z-6.7 K0.3
G1 Y42.7 F50
Z-7.7 F33
G2 X27.151 Z-8 I0.3
G1 X27.451 F30
G17 G3 X27.751 Y43 J0.3
X19.751 I-4 F50
X27.751 I4
X27.451 Y43.3 I-0.3 F100
G1 X27.151
G18 G3 X26.851 Z-7.7 K0.3
G1 Y42.7 F50
Z-8.7 F33
G2 X27.151 Z-9 I0.3
G1 X27.451 F30
G17 G3 X27.751 Y43 J0.3
X19.751 I-4 F50
X27.751 I4
X27.451 Y43.3 I-0.3 F100
G1 X27.151
G18 G3 X26.851 Z-8.7 K0.3
G0 Z2
X39.6 Y66.7
G1 Z-0.7 F33
G2 X39.9 Z-1 I0.3
G1 X40.2 F30
G17 G3 X40.5 Y67 J0.3
X31.5 I-4.5 F50
X40.5 I4.5
X40.2 Y67.3 I-0.3 F100
G1 X39.9
G18 G3 X39.6 Z-0.7 K0.3
G1 Y66.7 F50
Z-1.7 F33
G2 X39.9 Z-2 I0.3
G1 X40.2 F30
G17 G3 X40.5 Y67 J0.3
X31.5 I-4.5 F50
X40.5 I4.5
X40.2 Y67.3 I-0.3 F100
G1 X39.9
G18 G3 X39.6 Z-1.7 K0.3
G1 Y66.7 F50
Z-2.7 F33
G2 X39.9 Z-3 I0.3
G1 X40.2 F30
G17 G3 X40.5 Y67 J0.3
X31.5 I-4.5 F50
X40.5 I4.5
X40.2 Y67.3 I-0.3 F100
G1 X39.9
G18 G3 X39.6 Z-2.7 K0.3
G1 Y66.7 F50
Z-3.7 F33
G2 X39.9 Z-4 I0.3
G1 X40.2 F30
G17 G3 X40.5 Y67 J0.3
X31.5 I-4.5 F50
X40.5 I4.5
X40.2 Y67.3 I-0.3 F100
G1 X39.9
G18 G3 X39.6 Z-3.7 K0.3
G1 Y66.7 F50
Z-4.7 F33
G2 X39.9 Z-5 I0.3
G1 X40.2 F30
G17 G3 X40.5 Y67 J0.3
X31.5 I-4.5 F50
X40.5 I4.5
X40.2 Y67.3 I-0.3 F100
G1 X39.9
G18 G3 X39.6 Z-4.7 K0.3
G1 Y66.7 F50
Z-5.7 F33
G2 X39.9 Z-6 I0.3
G1 X40.2 F30
G17 G3 X40.5 Y67 J0.3
X31.5 I-4.5 F50
X40.5 I4.5
X40.2 Y67.3 I-0.3 F100
G1 X39.9
G18 G3 X39.6 Z-5.7 K0.3
G1 Y66.7 F50
Z-6.7 F33
G2 X39.9 Z-7 I0.3
G1 X40.2 F30
G17 G3 X40.5 Y67 J0.3
X31.5 I-4.5 F50
X40.5 I4.5
X40.2 Y67.3 I-0.3 F100
G1 X39.9
G18 G3 X39.6 Z-6.7 K0.3
G1 Y66.7 F50
Z-7.7 F33
G2 X39.9 Z-8 I0.3
G1 X40.2 F30
G17 G3 X40.5 Y67 J0.3
X31.5 I-4.5 F50
X40.5 I4.5
X40.2 Y67.3 I-0.3 F100
G1 X39.9
G18 G3 X39.6 Z-7.7 K0.3
G1 Y66.7 F50
Z-8.7 F33
G2 X39.9 Z-9 I0.3
G1 X40.2 F30
G17 G3 X40.5 Y67 J0.3
X31.5 I-4.5 F50
X40.5 I4.5
X40.2 Y67.3 I-0.3 F100
G1 X39.9
G18 G3 X39.6 Z-8.7 K0.3
G0 Z2
Y18.7
G1 Z-0.7 F33
G2 X39.9 Z-1 I0.3
G1 X40.2 F30
G17 G3 X40.5 Y19 J0.3
X31.5 I-4.5 F50
X40.5 I4.5
X40.2 Y19.3 I-0.3 F100
G1 X39.9
G18 G3 X39.6 Z-0.7 K0.3
G1 Y18.7 F50
Z-1.7 F33
G2 X39.9 Z-2 I0.3
G1 X40.2 F30
G17 G3 X40.5 Y19 J0.3
X31.5 I-4.5 F50
X40.5 I4.5
X40.2 Y19.3 I-0.3 F100
G1 X39.9
G18 G3 X39.6 Z-1.7 K0.3
G1 Y18.7 F50
Z-2.7 F33
G2 X39.9 Z-3 I0.3
G1 X40.2 F30
G17 G3 X40.5 Y19 J0.3
X31.5 I-4.5 F50
X40.5 I4.5
X40.2 Y19.3 I-0.3 F100
G1 X39.9
G18 G3 X39.6 Z-2.7 K0.3
G1 Y18.7 F50
Z-3.7 F33
G2 X39.9 Z-4 I0.3
G1 X40.2 F30
G17 G3 X40.5 Y19 J0.3
X31.5 I-4.5 F50
X40.5 I4.5
X40.2 Y19.3 I-0.3 F100
G1 X39.9
G18 G3 X39.6 Z-3.7 K0.3
G1 Y18.7 F50
Z-4.7 F33
G2 X39.9 Z-5 I0.3
G1 X40.2 F30
G17 G3 X40.5 Y19 J0.3
X31.5 I-4.5 F50
X40.5 I4.5
X40.2 Y19.3 I-0.3 F100
G1 X39.9
G18 G3 X39.6 Z-4.7 K0.3
G1 Y18.7 F50
Z-5.7 F33
G2 X39.9 Z-6 I0.3
G1 X40.2 F30
G17 G3 X40.5 Y19 J0.3
X31.5 I-4.5 F50
X40.5 I4.5
X40.2 Y19.3 I-0.3 F100
G1 X39.9
G18 G3 X39.6 Z-5.7 K0.3
G1 Y18.7 F50
Z-6.7 F33
G2 X39.9 Z-7 I0.3
G1 X40.2 F30
G17 G3 X40.5 Y19 J0.3
X31.5 I-4.5 F50
X40.5 I4.5
X40.2 Y19.3 I-0.3 F100
G1 X39.9
G18 G3 X39.6 Z-6.7 K0.3
G1 Y18.7 F50
Z-7.7 F33
G2 X39.9 Z-8 I0.3
G1 X40.2 F30
G17 G3 X40.5 Y19 J0.3
X31.5 I-4.5 F50
X40.5 I4.5
X40.2 Y19.3 I-0.3 F100
G1 X39.9
G18 G3 X39.6 Z-7.7 K0.3
G1 Y18.7 F50
Z-8.7 F33
G2 X39.9 Z-9 I0.3
G1 X40.2 F30
G17 G3 X40.5 Y19 J0.3
X31.5 I-4.5 F50
X40.5 I4.5
X40.2 Y19.3 I-0.3 F100
G1 X39.9
G18 G3 X39.6 Z-8.7 K0.3
G0 Z5
G17

(2D Contour2)
G0 X37.05 Y-2.4
Z5
Z2
G1 Z-0.7 F33
G19 G3 Y-2.1 Z-1 J0.3
G1 Y-1.8 F30
G17 G3 X36.75 Y-1.5 I-0.3
G1 X0 F60
G2 X-1.5 Y0 J1.5
G1 Y86
G2 X0 Y87.5 I1.5
G1 X73.5
G2 X75 Y86 J-1.5
G1 Y76
G2 X73.5 Y74.5 I-1.5
G1 X53.5
G2 X55 Y73 J-1.5
G1 Y13
G2 X53.5 Y11.5 I-1.5
G1 X73.5
G2 X75 Y10 J-1.5
G1 Y0
G2 X73.5 Y-1.5 I-1.5
G1 X36.75
G3 X36.45 Y-1.8 J-0.3 F100
G1 Y-2.1
G19 G2 Y-2.4 Z-0.7 K0.3
G1 X37.05 F60
Z-1.7 F33
G3 Y-2.1 Z-2 J0.3
G1 Y-1.8 F30
G17 G3 X36.75 Y-1.5 I-0.3
G1 X0 F60
G2 X-1.5 Y0 J1.5
G1 Y86
G2 X0 Y87.5 I1.5
G1 X73.5
G2 X75 Y86 J-1.5
G1 Y76
G2 X73.5 Y74.5 I-1.5
G1 X53.5
G2 X55 Y73 J-1.5
G1 Y13
G2 X53.5 Y11.5 I-1.5
G1 X73.5
G2 X75 Y10 J-1.5
G1 Y0
G2 X73.5 Y-1.5 I-1.5
G1 X36.75
G3 X36.45 Y-1.8 J-0.3 F100
G1 Y-2.1
G19 G2 Y-2.4 Z-1.7 K0.3
G1 X37.05 F60
Z-2.7 F33
G3 Y-2.1 Z-3 J0.3
G1 Y-1.8 F30
G17 G3 X36.75 Y-1.5 I-0.3
G1 X0 F60
G2 X-1.5 Y0 J1.5
G1 Y86
G2 X0 Y87.5 I1.5
G1 X73.5
G2 X75 Y86 J-1.5
G1 Y76
G2 X73.5 Y74.5 I-1.5
G1 X53.5
G2 X55 Y73 J-1.5
G1 Y13
G2 X53.5 Y11.5 I-1.5
G1 X73.5
G2 X75 Y10 J-1.5
G1 Y0
G2 X73.5 Y-1.5 I-1.5
G1 X36.75
G3 X36.45 Y-1.8 J-0.3 F100
G1 Y-2.1
G19 G2 Y-2.4 Z-2.7 K0.3
G1 X37.05 F60
Z-3.7 F33
G3 Y-2.1 Z-4 J0.3
G1 Y-1.8 F30
G17 G3 X36.75 Y-1.5 I-0.3
G1 X0 F60
G2 X-1.5 Y0 J1.5
G1 Y86
G2 X0 Y87.5 I1.5
G1 X73.5
G2 X75 Y86 J-1.5
G1 Y76
G2 X73.5 Y74.5 I-1.5
G1 X53.5
G2 X55 Y73 J-1.5
G1 Y13
G2 X53.5 Y11.5 I-1.5
G1 X73.5
G2 X75 Y10 J-1.5
G1 Y0
G2 X73.5 Y-1.5 I-1.5
G1 X36.75
G3 X36.45 Y-1.8 J-0.3 F100
G1 Y-2.1
G19 G2 Y-2.4 Z-3.7 K0.3
G1 X37.05 F60
Z-4.7 F33
G3 Y-2.1 Z-5 J0.3
G1 Y-1.8 F30
G17 G3 X36.75 Y-1.5 I-0.3
G1 X0 F60
G2 X-1.5 Y0 J1.5
G1 Y86
G2 X0 Y87.5 I1.5
G1 X73.5
G2 X75 Y86 J-1.5
G1 Y76
G2 X73.5 Y74.5 I-1.5
G1 X53.5
G2 X55 Y73 J-1.5
G1 Y13
G2 X53.5 Y11.5 I-1.5
G1 X73.5
G2 X75 Y10 J-1.5
G1 Y0
G2 X73.5 Y-1.5 I-1.5
G1 X36.75
G3 X36.45 Y-1.8 J-0.3 F100
G1 Y-2.1
G19 G2 Y-2.4 Z-4.7 K0.3
G1 X37.05 F60
Z-5.7 F33
G3 Y-2.1 Z-6 J0.3
G1 Y-1.8 F30
G17 G3 X36.75 Y-1.5 I-0.3
G1 X0 F60
G2 X-1.5 Y0 J1.5
G1 Y86
G2 X0 Y87.5 I1.5
G1 X73.5
G2 X75 Y86 J-1.5
G1 Y76
G2 X73.5 Y74.5 I-1.5
G1 X53.5
G2 X55 Y73 J-1.5
G1 Y13
G2 X53.5 Y11.5 I-1.5
G1 X73.5
G2 X75 Y10 J-1.5
G1 Y0
G2 X73.5 Y-1.5 I-1.5
G1 X36.75
G3 X36.45 Y-1.8 J-0.3 F100
G1 Y-2.1
G19 G2 Y-2.4 Z-5.7 K0.3
G1 X37.05 F60
Z-6.7 F33
G3 Y-2.1 Z-7 J0.3
G1 Y-1.8 F30
G17 G3 X36.75 Y-1.5 I-0.3
G1 X0 F60
G2 X-1.5 Y0 J1.5
G1 Y86
G2 X0 Y87.5 I1.5
G1 X73.5
G2 X75 Y86 J-1.5
G1 Y76
G2 X73.5 Y74.5 I-1.5
G1 X53.5
G2 X55 Y73 J-1.5
G1 Y13
G2 X53.5 Y11.5 I-1.5
G1 X73.5
G2 X75 Y10 J-1.5
G1 Y0
G2 X73.5 Y-1.5 I-1.5
G1 X36.75
G3 X36.45 Y-1.8 J-0.3 F100
G1 Y-2.1
G19 G2 Y-2.4 Z-6.7 K0.3
G1 X37.05 F60
Z-7.7 F33
G3 Y-2.1 Z-8 J0.3
G1 Y-1.8 F30
G17 G3 X36.75 Y-1.5 I-0.3
G1 X0 F60
G2 X-1.5 Y0 J1.5
G1 Y86
G2 X0 Y87.5 I1.5
G1 X73.5
G2 X75 Y86 J-1.5
G1 Y76
G2 X73.5 Y74.5 I-1.5
G1 X53.5
G2 X55 Y73 J-1.5
G1 Y13
G2 X53.5 Y11.5 I-1.5
G1 X73.5
G2 X75 Y10 J-1.5
G1 Y0
G2 X73.5 Y-1.5 I-1.5
G1 X36.75
G3 X36.45 Y-1.8 J-0.3 F100
G1 Y-2.1
G19 G2 Y-2.4 Z-7.7 K0.3
G1 X37.05 F60
Z-8.7 F33
G3 Y-2.1 Z-9 J0.3
G1 Y-1.8 F30
G17 G3 X36.75 Y-1.5 I-0.3
G1 X0 F60
G2 X-1.5 Y0 J1.5
G1 Y86
G2 X0 Y87.5 I1.5
G1 X73.5
G2 X75 Y86 J-1.5
G1 Y76
G2 X73.5 Y74.5 I-1.5
G1 X53.5
G2 X55 Y73 J-1.5
G1 Y13
G2 X53.5 Y11.5 I-1.5
G1 X73.5
G2 X75 Y10 J-1.5
G1 Y0
G2 X73.5 Y-1.5 I-1.5
G1 X36.75
G3 X36.45 Y-1.8 J-0.3 F100
G1 Y-2.1
G19 G2 Y-2.4 Z-8.7 K0.3
G0 Z5
G17
M9
G28 G91 Z0
G90
G28 G91 X0 Y0
G90
M30
%
