%
(1001)
(T1  D=3 CR=0.75 - ZMIN=-9 - bullnose end mill)
G90 G94
G17
G21
G28 G91 Z6
G90

(2D Pocket1)
M9
T1 M6
S1000 M3
G54
M8
G0 X56.25 Y20
Z5
Z2
G1 Z-1 F33
G3 X56.75 I0.25 F50
X56.25 I-0.25
G1 Z-2 F33
G3 X56.75 I0.25 F50
X56.25 I-0.25
G1 Z-3 F33
G3 X56.75 I0.25 F50
X56.25 I-0.25
G1 Z-4 F33
G3 X56.75 I0.25 F50
X56.25 I-0.25
G1 Z-5 F33
G3 X56.75 I0.25 F50
X56.25 I-0.25
G1 Z-6 F33
G3 X56.75 I0.25 F50
X56.25 I-0.25
G1 Z-7 F33
G3 X56.75 I0.25 F50
X56.25 I-0.25
G1 Z-8 F33
G3 X56.75 I0.25 F50
X56.25 I-0.25
G1 Z-9 F33
G3 X56.75 I0.25 F50
X56.25 I-0.25
G1 X56.254 Y19.953 Z-8.996 F100
X56.267 Y19.909 Z-8.985
X56.286 Y19.87 Z-8.967
X56.31 Y19.838 Z-8.943
X56.335 Y19.812 Z-8.912
X56.359 Y19.794 Z-8.876
X56.38 Y19.781 Z-8.836
X56.396 Y19.773 Z-8.793
X56.406 Y19.768 Z-8.747
X56.409 Y19.767 Z-8.7
G0 Z2
X56.25 Y5
G1 Z-1 F33
G3 X56.75 I0.25 F50
X56.25 I-0.25
G1 Z-2 F33
G3 X56.75 I0.25 F50
X56.25 I-0.25
G1 Z-3 F33
G3 X56.75 I0.25 F50
X56.25 I-0.25
G1 Z-4 F33
G3 X56.75 I0.25 F50
X56.25 I-0.25
G1 Z-5 F33
G3 X56.75 I0.25 F50
X56.25 I-0.25
G1 Z-6 F33
G3 X56.75 I0.25 F50
X56.25 I-0.25
G1 Z-7 F33
G3 X56.75 I0.25 F50
X56.25 I-0.25
G1 Z-8 F33
G3 X56.75 I0.25 F50
X56.25 I-0.25
G1 Z-9 F33
G3 X56.75 I0.25 F50
X56.25 I-0.25
G1 X56.254 Y4.953 Z-8.996 F100
X56.267 Y4.909 Z-8.985
X56.286 Y4.87 Z-8.967
X56.31 Y4.838 Z-8.943
X56.335 Y4.812 Z-8.912
X56.359 Y4.794 Z-8.876
X56.38 Y4.781 Z-8.836
X56.396 Y4.773 Z-8.793
X56.406 Y4.768 Z-8.747
X56.409 Y4.767 Z-8.7
G0 Z2
X83.75 Y5
G1 Z-1 F33
G3 X83.25 I-0.25 F50
X83.75 I0.25
G1 Z-2 F33
G3 X83.25 I-0.25 F50
X83.75 I0.25
G1 Z-3 F33
G3 X83.25 I-0.25 F50
X83.75 I0.25
G1 Z-4 F33
G3 X83.25 I-0.25 F50
X83.75 I0.25
G1 Z-5 F33
G3 X83.25 I-0.25 F50
X83.75 I0.25
G1 Z-6 F33
G3 X83.25 I-0.25 F50
X83.75 I0.25
G1 Z-7 F33
G3 X83.25 I-0.25 F50
X83.75 I0.25
G1 Z-8 F33
G3 X83.25 I-0.25 F50
X83.75 I0.25
G1 Z-9 F33
G3 X83.25 I-0.25 F50
X83.75 I0.25
G1 X83.746 Y5.047 Z-8.996 F100
X83.733 Y5.091 Z-8.985
X83.714 Y5.13 Z-8.967
X83.69 Y5.162 Z-8.943
X83.665 Y5.188 Z-8.912
X83.641 Y5.206 Z-8.876
X83.62 Y5.219 Z-8.836
X83.604 Y5.227 Z-8.793
X83.594 Y5.232 Z-8.747
X83.591 Y5.233 Z-8.7
G0 Z2
X83.75 Y20
G1 Z-1 F33
G3 X83.25 I-0.25 F50
X83.75 I0.25
G1 Z-2 F33
G3 X83.25 I-0.25 F50
X83.75 I0.25
G1 Z-3 F33
G3 X83.25 I-0.25 F50
X83.75 I0.25
G1 Z-4 F33
G3 X83.25 I-0.25 F50
X83.75 I0.25
G1 Z-5 F33
G3 X83.25 I-0.25 F50
X83.75 I0.25
G1 Z-6 F33
G3 X83.25 I-0.25 F50
X83.75 I0.25
G1 Z-7 F33
G3 X83.25 I-0.25 F50
X83.75 I0.25
G1 Z-8 F33
G3 X83.25 I-0.25 F50
X83.75 I0.25
G1 Z-9 F33
G3 X83.25 I-0.25 F50
X83.75 I0.25
G1 X83.746 Y20.047 Z-8.996 F100
X83.733 Y20.091 Z-8.985
X83.714 Y20.13 Z-8.967
X83.69 Y20.162 Z-8.943
X83.665 Y20.188 Z-8.912
X83.641 Y20.206 Z-8.876
X83.62 Y20.219 Z-8.836
X83.604 Y20.227 Z-8.793
X83.594 Y20.232 Z-8.747
X83.591 Y20.233 Z-8.7
G0 Z2
X83.75 Y46
G1 Z-1 F33
G3 X83.25 I-0.25 F50
X83.75 I0.25
G1 Z-2 F33
G3 X83.25 I-0.25 F50
X83.75 I0.25
G1 Z-3 F33
G3 X83.25 I-0.25 F50
X83.75 I0.25
G1 Z-4 F33
G3 X83.25 I-0.25 F50
X83.75 I0.25
G1 Z-5 F33
G3 X83.25 I-0.25 F50
X83.75 I0.25
G1 Z-6 F33
G3 X83.25 I-0.25 F50
X83.75 I0.25
G1 Z-7 F33
G3 X83.25 I-0.25 F50
X83.75 I0.25
G1 Z-8 F33
G3 X83.25 I-0.25 F50
X83.75 I0.25
G1 Z-9 F33
G3 X83.25 I-0.25 F50
X83.75 I0.25
G1 X83.746 Y46.047 Z-8.996 F100
X83.733 Y46.091 Z-8.985
X83.714 Y46.13 Z-8.967
X83.69 Y46.162 Z-8.943
X83.665 Y46.188 Z-8.912
X83.641 Y46.206 Z-8.876
X83.62 Y46.219 Z-8.836
X83.604 Y46.227 Z-8.793
X83.594 Y46.232 Z-8.747
X83.591 Y46.233 Z-8.7
G0 Z2
X83.75 Y61
G1 Z-1 F33
G3 X83.25 I-0.25 F50
X83.75 I0.25
G1 Z-2 F33
G3 X83.25 I-0.25 F50
X83.75 I0.25
G1 Z-3 F33
G3 X83.25 I-0.25 F50
X83.75 I0.25
G1 Z-4 F33
G3 X83.25 I-0.25 F50
X83.75 I0.25
G1 Z-5 F33
G3 X83.25 I-0.25 F50
X83.75 I0.25
G1 Z-6 F33
G3 X83.25 I-0.25 F50
X83.75 I0.25
G1 Z-7 F33
G3 X83.25 I-0.25 F50
X83.75 I0.25
G1 Z-8 F33
G3 X83.25 I-0.25 F50
X83.75 I0.25
G1 Z-9 F33
G3 X83.25 I-0.25 F50
X83.75 I0.25
G1 X83.746 Y61.047 Z-8.996 F100
X83.733 Y61.091 Z-8.985
X83.714 Y61.13 Z-8.967
X83.69 Y61.162 Z-8.943
X83.665 Y61.188 Z-8.912
X83.641 Y61.206 Z-8.876
X83.62 Y61.219 Z-8.836
X83.604 Y61.227 Z-8.793
X83.594 Y61.232 Z-8.747
X83.591 Y61.233 Z-8.7
G0 Z2
X56.75 Y61
G1 Z-1 F33
G3 X56.25 I-0.25 F50
X56.75 I0.25
G1 Z-2 F33
G3 X56.25 I-0.25 F50
X56.75 I0.25
G1 Z-3 F33
G3 X56.25 I-0.25 F50
X56.75 I0.25
G1 Z-4 F33
G3 X56.25 I-0.25 F50
X56.75 I0.25
G1 Z-5 F33
G3 X56.25 I-0.25 F50
X56.75 I0.25
G1 Z-6 F33
G3 X56.25 I-0.25 F50
X56.75 I0.25
G1 Z-7 F33
G3 X56.25 I-0.25 F50
X56.75 I0.25
G1 Z-8 F33
G3 X56.25 I-0.25 F50
X56.75 I0.25
G1 Z-9 F33
G3 X56.25 I-0.25 F50
X56.75 I0.25
G1 X56.746 Y61.047 Z-8.996 F100
X56.733 Y61.091 Z-8.985
X56.714 Y61.13 Z-8.967
X56.69 Y61.162 Z-8.943
X56.665 Y61.188 Z-8.912
X56.641 Y61.206 Z-8.876
X56.62 Y61.219 Z-8.836
X56.604 Y61.227 Z-8.793
X56.594 Y61.232 Z-8.747
X56.591 Y61.233 Z-8.7
G0 Z2
X56.75 Y46
G1 Z-1 F33
G3 X56.25 I-0.25 F50
X56.75 I0.25
G1 Z-2 F33
G3 X56.25 I-0.25 F50
X56.75 I0.25
G1 Z-3 F33
G3 X56.25 I-0.25 F50
X56.75 I0.25
G1 Z-4 F33
G3 X56.25 I-0.25 F50
X56.75 I0.25
G1 Z-5 F33
G3 X56.25 I-0.25 F50
X56.75 I0.25
G1 Z-6 F33
G3 X56.25 I-0.25 F50
X56.75 I0.25
G1 Z-7 F33
G3 X56.25 I-0.25 F50
X56.75 I0.25
G1 Z-8 F33
G3 X56.25 I-0.25 F50
X56.75 I0.25
G1 Z-9 F33
G3 X56.25 I-0.25 F50
X56.75 I0.25
G1 X56.746 Y46.047 Z-8.996 F100
X56.733 Y46.091 Z-8.985
X56.714 Y46.13 Z-8.967
X56.69 Y46.162 Z-8.943
X56.665 Y46.188 Z-8.912
X56.641 Y46.206 Z-8.876
X56.62 Y46.219 Z-8.836
X56.604 Y46.227 Z-8.793
X56.594 Y46.232 Z-8.747
X56.591 Y46.233 Z-8.7
G0 Z2
X31.749 Y43
G1 Z-1 F33
G3 X31.249 I-0.25 F50
X31.749 I0.25
G1 Z-2 F33
G3 X31.249 I-0.25 F50
X31.749 I0.25
G1 Z-3 F33
G3 X31.249 I-0.25 F50
X31.749 I0.25
G1 Z-4 F33
G3 X31.249 I-0.25 F50
X31.749 I0.25
G1 Z-5 F33
G3 X31.249 I-0.25 F50
X31.749 I0.25
G1 Z-6 F33
G3 X31.249 I-0.25 F50
X31.749 I0.25
G1 Z-7 F33
G3 X31.249 I-0.25 F50
X31.749 I0.25
G1 Z-8 F33
G3 X31.249 I-0.25 F50
X31.749 I0.25
G1 Z-9 F33
G3 X31.249 I-0.25 F50
X31.749 I0.25
G1 X31.744 Y43.047 Z-8.996 F100
X31.732 Y43.091 Z-8.985
X31.713 Y43.13 Z-8.967
X31.689 Y43.162 Z-8.943
X31.664 Y43.188 Z-8.912
X31.64 Y43.206 Z-8.876
X31.619 Y43.219 Z-8.836
X31.603 Y43.227 Z-8.793
X31.593 Y43.232 Z-8.747
X31.589 Y43.233 Z-8.7
G0 Z2
X31.499 Y23.25
G1 Z-1 F33
G3 Y22.75 J-0.25 F50
Y23.25 J0.25
G1 Z-2 F33
G3 Y22.75 J-0.25 F50
Y23.25 J0.25
G1 Z-3 F33
G3 Y22.75 J-0.25 F50
Y23.25 J0.25
G1 Z-4 F33
G3 Y22.75 J-0.25 F50
Y23.25 J0.25
G1 Z-5 F33
G3 Y22.75 J-0.25 F50
Y23.25 J0.25
G1 Z-6 F33
G3 Y22.75 J-0.25 F50
Y23.25 J0.25
G1 Z-7 F33
G3 Y22.75 J-0.25 F50
Y23.25 J0.25
G1 Z-8 F33
G3 Y22.75 J-0.25 F50
Y23.25 J0.25
G1 Z-9 F33
G3 Y22.75 J-0.25 F50
Y23.25 J0.25
G1 X31.452 Y23.246 Z-8.996 F100
X31.408 Y23.233 Z-8.985
X31.369 Y23.214 Z-8.967
X31.337 Y23.19 Z-8.943
X31.311 Y23.165 Z-8.912
X31.292 Y23.141 Z-8.876
X31.28 Y23.12 Z-8.836
X31.272 Y23.104 Z-8.793
X31.267 Y23.094 Z-8.747
X31.266 Y23.091 Z-8.7
G0 Z2
X9.999 Y23.25
G1 Z-1 F33
G3 Y22.75 J-0.25 F50
Y23.25 J0.25
G1 Z-2 F33
G3 Y22.75 J-0.25 F50
Y23.25 J0.25
G1 Z-3 F33
G3 Y22.75 J-0.25 F50
Y23.25 J0.25
G1 Z-4 F33
G3 Y22.75 J-0.25 F50
Y23.25 J0.25
G1 Z-5 F33
G3 Y22.75 J-0.25 F50
Y23.25 J0.25
G1 Z-6 F33
G3 Y22.75 J-0.25 F50
Y23.25 J0.25
G1 Z-7 F33
G3 Y22.75 J-0.25 F50
Y23.25 J0.25
G1 Z-8 F33
G3 Y22.75 J-0.25 F50
Y23.25 J0.25
G1 Z-9 F33
G3 Y22.75 J-0.25 F50
Y23.25 J0.25
G1 X9.952 Y23.246 Z-8.996 F100
X9.908 Y23.233 Z-8.985
X9.869 Y23.214 Z-8.967
X9.837 Y23.19 Z-8.943
X9.811 Y23.165 Z-8.912
X9.793 Y23.141 Z-8.876
X9.78 Y23.12 Z-8.836
X9.772 Y23.104 Z-8.793
X9.767 Y23.094 Z-8.747
X9.766 Y23.091 Z-8.7
G0 Z2
X9.999 Y42.75
G1 Z-1 F33
G3 Y43.25 J0.25 F50
Y42.75 J-0.25
G1 Z-2 F33
G3 Y43.25 J0.25 F50
Y42.75 J-0.25
G1 Z-3 F33
G3 Y43.25 J0.25 F50
Y42.75 J-0.25
G1 Z-4 F33
G3 Y43.25 J0.25 F50
Y42.75 J-0.25
G1 Z-5 F33
G3 Y43.25 J0.25 F50
Y42.75 J-0.25
G1 Z-6 F33
G3 Y43.25 J0.25 F50
Y42.75 J-0.25
G1 Z-7 F33
G3 Y43.25 J0.25 F50
Y42.75 J-0.25
G1 Z-8 F33
G3 Y43.25 J0.25 F50
Y42.75 J-0.25
G1 Z-9 F33
G3 Y43.25 J0.25 F50
Y42.75 J-0.25
G1 X10.045 Y42.754 Z-8.996 F100
X10.089 Y42.767 Z-8.985
X10.128 Y42.786 Z-8.967
X10.161 Y42.81 Z-8.943
X10.186 Y42.835 Z-8.912
X10.205 Y42.859 Z-8.876
X10.218 Y42.88 Z-8.836
X10.226 Y42.896 Z-8.793
X10.23 Y42.906 Z-8.747
X10.232 Y42.909 Z-8.7
G0 Z5

(2D Contour1)
X26.349 Y32.7
Z5
Z2
G1 Z-0.7 F33
G18 G2 X26.649 Z-1 I0.3
G1 X26.949 F30
G17 G3 X27.249 Y33 J0.3
X14.249 I-6.5 F50
X27.249 I6.5
X26.949 Y33.3 I-0.3 F100
G1 X26.649
G18 G3 X26.349 Z-0.7 K0.3
G1 Y32.7 F50
Z-1.7 F33
G2 X26.649 Z-2 I0.3
G1 X26.949 F30
G17 G3 X27.249 Y33 J0.3
X14.249 I-6.5 F50
X27.249 I6.5
X26.949 Y33.3 I-0.3 F100
G1 X26.649
G18 G3 X26.349 Z-1.7 K0.3
G1 Y32.7 F50
Z-2.7 F33
G2 X26.649 Z-3 I0.3
G1 X26.949 F30
G17 G3 X27.249 Y33 J0.3
X14.249 I-6.5 F50
X27.249 I6.5
X26.949 Y33.3 I-0.3 F100
G1 X26.649
G18 G3 X26.349 Z-2.7 K0.3
G1 Y32.7 F50
Z-3.7 F33
G2 X26.649 Z-4 I0.3
G1 X26.949 F30
G17 G3 X27.249 Y33 J0.3
X14.249 I-6.5 F50
X27.249 I6.5
X26.949 Y33.3 I-0.3 F100
G1 X26.649
G18 G3 X26.349 Z-3.7 K0.3
G1 Y32.7 F50
Z-4.7 F33
G2 X26.649 Z-5 I0.3
G1 X26.949 F30
G17 G3 X27.249 Y33 J0.3
X14.249 I-6.5 F50
X27.249 I6.5
X26.949 Y33.3 I-0.3 F100
G1 X26.649
G18 G3 X26.349 Z-4.7 K0.3
G1 Y32.7 F50
Z-5.7 F33
G2 X26.649 Z-6 I0.3
G1 X26.949 F30
G17 G3 X27.249 Y33 J0.3
X14.249 I-6.5 F50
X27.249 I6.5
X26.949 Y33.3 I-0.3 F100
G1 X26.649
G18 G3 X26.349 Z-5.7 K0.3
G1 Y32.7 F50
Z-6.7 F33
G2 X26.649 Z-7 I0.3
G1 X26.949 F30
G17 G3 X27.249 Y33 J0.3
X14.249 I-6.5 F50
X27.249 I6.5
X26.949 Y33.3 I-0.3 F100
G1 X26.649
G18 G3 X26.349 Z-6.7 K0.3
G1 Y32.7 F50
Z-7.7 F33
G2 X26.649 Z-8 I0.3
G1 X26.949 F30
G17 G3 X27.249 Y33 J0.3
X14.249 I-6.5 F50
X27.249 I6.5
X26.949 Y33.3 I-0.3 F100
G1 X26.649
G18 G3 X26.349 Z-7.7 K0.3
G1 Y32.7 F50
Z-8.7 F33
G2 X26.649 Z-9 I0.3
G1 X26.949 F30
G17 G3 X27.249 Y33 J0.3
X14.249 I-6.5 F50
X27.249 I6.5
X26.949 Y33.3 I-0.3 F100
G1 X26.649
G18 G3 X26.349 Z-8.7 K0.3
G0 Z2
X11.5 Y56.7
G1 Z-0.7 F33
G2 X11.8 Z-1 I0.3
G1 X12.1 F30
G17 G3 X12.4 Y57 J0.3
X4.6 I-3.9 F50
X12.4 I3.9
X12.1 Y57.3 I-0.3 F100
G1 X11.8
G18 G3 X11.5 Z-0.7 K0.3
G1 Y56.7 F50
Z-1.7 F33
G2 X11.8 Z-2 I0.3
G1 X12.1 F30
G17 G3 X12.4 Y57 J0.3
X4.6 I-3.9 F50
X12.4 I3.9
X12.1 Y57.3 I-0.3 F100
G1 X11.8
G18 G3 X11.5 Z-1.7 K0.3
G1 Y56.7 F50
Z-2.7 F33
G2 X11.8 Z-3 I0.3
G1 X12.1 F30
G17 G3 X12.4 Y57 J0.3
X4.6 I-3.9 F50
X12.4 I3.9
X12.1 Y57.3 I-0.3 F100
G1 X11.8
G18 G3 X11.5 Z-2.7 K0.3
G1 Y56.7 F50
Z-3.7 F33
G2 X11.8 Z-4 I0.3
G1 X12.1 F30
G17 G3 X12.4 Y57 J0.3
X4.6 I-3.9 F50
X12.4 I3.9
X12.1 Y57.3 I-0.3 F100
G1 X11.8
G18 G3 X11.5 Z-3.7 K0.3
G1 Y56.7 F50
Z-4.7 F33
G2 X11.8 Z-5 I0.3
G1 X12.1 F30
G17 G3 X12.4 Y57 J0.3
X4.6 I-3.9 F50
X12.4 I3.9
X12.1 Y57.3 I-0.3 F100
G1 X11.8
G18 G3 X11.5 Z-4.7 K0.3
G1 Y56.7 F50
Z-5.7 F33
G2 X11.8 Z-6 I0.3
G1 X12.1 F30
G17 G3 X12.4 Y57 J0.3
X4.6 I-3.9 F50
X12.4 I3.9
X12.1 Y57.3 I-0.3 F100
G1 X11.8
G18 G3 X11.5 Z-5.7 K0.3
G1 Y56.7 F50
Z-6.7 F33
G2 X11.8 Z-7 I0.3
G1 X12.1 F30
G17 G3 X12.4 Y57 J0.3
X4.6 I-3.9 F50
X12.4 I3.9
X12.1 Y57.3 I-0.3 F100
G1 X11.8
G18 G3 X11.5 Z-6.7 K0.3
G1 Y56.7 F50
Z-7.7 F33
G2 X11.8 Z-8 I0.3
G1 X12.1 F30
G17 G3 X12.4 Y57 J0.3
X4.6 I-3.9 F50
X12.4 I3.9
X12.1 Y57.3 I-0.3 F100
G1 X11.8
G18 G3 X11.5 Z-7.7 K0.3
G1 Y56.7 F50
Z-8.7 F33
G2 X11.8 Z-9 I0.3
G1 X12.1 F30
G17 G3 X12.4 Y57 J0.3
X4.6 I-3.9 F50
X12.4 I3.9
X12.1 Y57.3 I-0.3 F100
G1 X11.8
G18 G3 X11.5 Z-8.7 K0.3
G0 Z2
Y8.7
G1 Z-0.7 F33
G2 X11.8 Z-1 I0.3
G1 X12.1 F30
G17 G3 X12.4 Y9 J0.3
X4.6 I-3.9 F50
X12.4 I3.9
X12.1 Y9.3 I-0.3 F100
G1 X11.8
G18 G3 X11.5 Z-0.7 K0.3
G1 Y8.7 F50
Z-1.7 F33
G2 X11.8 Z-2 I0.3
G1 X12.1 F30
G17 G3 X12.4 Y9 J0.3
X4.6 I-3.9 F50
X12.4 I3.9
X12.1 Y9.3 I-0.3 F100
G1 X11.8
G18 G3 X11.5 Z-1.7 K0.3
G1 Y8.7 F50
Z-2.7 F33
G2 X11.8 Z-3 I0.3
G1 X12.1 F30
G17 G3 X12.4 Y9 J0.3
X4.6 I-3.9 F50
X12.4 I3.9
X12.1 Y9.3 I-0.3 F100
G1 X11.8
G18 G3 X11.5 Z-2.7 K0.3
G1 Y8.7 F50
Z-3.7 F33
G2 X11.8 Z-4 I0.3
G1 X12.1 F30
G17 G3 X12.4 Y9 J0.3
X4.6 I-3.9 F50
X12.4 I3.9
X12.1 Y9.3 I-0.3 F100
G1 X11.8
G18 G3 X11.5 Z-3.7 K0.3
G1 Y8.7 F50
Z-4.7 F33
G2 X11.8 Z-5 I0.3
G1 X12.1 F30
G17 G3 X12.4 Y9 J0.3
X4.6 I-3.9 F50
X12.4 I3.9
X12.1 Y9.3 I-0.3 F100
G1 X11.8
G18 G3 X11.5 Z-4.7 K0.3
G1 Y8.7 F50
Z-5.7 F33
G2 X11.8 Z-6 I0.3
G1 X12.1 F30
G17 G3 X12.4 Y9 J0.3
X4.6 I-3.9 F50
X12.4 I3.9
X12.1 Y9.3 I-0.3 F100
G1 X11.8
G18 G3 X11.5 Z-5.7 K0.3
G1 Y8.7 F50
Z-6.7 F33
G2 X11.8 Z-7 I0.3
G1 X12.1 F30
G17 G3 X12.4 Y9 J0.3
X4.6 I-3.9 F50
X12.4 I3.9
X12.1 Y9.3 I-0.3 F100
G1 X11.8
G18 G3 X11.5 Z-6.7 K0.3
G1 Y8.7 F50
Z-7.7 F33
G2 X11.8 Z-8 I0.3
G1 X12.1 F30
G17 G3 X12.4 Y9 J0.3
X4.6 I-3.9 F50
X12.4 I3.9
X12.1 Y9.3 I-0.3 F100
G1 X11.8
G18 G3 X11.5 Z-7.7 K0.3
G1 Y8.7 F50
Z-8.7 F33
G2 X11.8 Z-9 I0.3
G1 X12.1 F30
G17 G3 X12.4 Y9 J0.3
X4.6 I-3.9 F50
X12.4 I3.9
X12.1 Y9.3 I-0.3 F100
G1 X11.8
G18 G3 X11.5 Z-8.7 K0.3
G0 Z5
G17

(2D Contour2)
G0 X-2.4 Y32.7
Z5
Z2
G1 Z-0.7 F33
G18 G2 X-2.1 Z-1 I0.3
G1 X-1.8 F30
G17 G3 X-1.5 Y33 J0.3
G1 Y66 F60
G2 X0 Y67.5 I1.5
G1 X89.5
G2 X91 Y66 J-1.5
G1 Y0
G2 X89.5 Y-1.5 I-1.5
G1 X0
G2 X-1.5 Y0 J1.5
G1 Y33
G3 X-1.8 Y33.3 I-0.3 F100
G1 X-2.1
G18 G3 X-2.4 Z-0.7 K0.3
G1 Y32.7 F60
Z-1.7 F33
G2 X-2.1 Z-2 I0.3
G1 X-1.8 F30
G17 G3 X-1.5 Y33 J0.3
G1 Y66 F60
G2 X0 Y67.5 I1.5
G1 X89.5
G2 X91 Y66 J-1.5
G1 Y0
G2 X89.5 Y-1.5 I-1.5
G1 X0
G2 X-1.5 Y0 J1.5
G1 Y33
G3 X-1.8 Y33.3 I-0.3 F100
G1 X-2.1
G18 G3 X-2.4 Z-1.7 K0.3
G1 Y32.7 F60
Z-2.7 F33
G2 X-2.1 Z-3 I0.3
G1 X-1.8 F30
G17 G3 X-1.5 Y33 J0.3
G1 Y66 F60
G2 X0 Y67.5 I1.5
G1 X89.5
G2 X91 Y66 J-1.5
G1 Y0
G2 X89.5 Y-1.5 I-1.5
G1 X0
G2 X-1.5 Y0 J1.5
G1 Y33
G3 X-1.8 Y33.3 I-0.3 F100
G1 X-2.1
G18 G3 X-2.4 Z-2.7 K0.3
G1 Y32.7 F60
Z-3.7 F33
G2 X-2.1 Z-4 I0.3
G1 X-1.8 F30
G17 G3 X-1.5 Y33 J0.3
G1 Y66 F60
G2 X0 Y67.5 I1.5
G1 X89.5
G2 X91 Y66 J-1.5
G1 Y0
G2 X89.5 Y-1.5 I-1.5
G1 X0
G2 X-1.5 Y0 J1.5
G1 Y33
G3 X-1.8 Y33.3 I-0.3 F100
G1 X-2.1
G18 G3 X-2.4 Z-3.7 K0.3
G1 Y32.7 F60
Z-4.7 F33
G2 X-2.1 Z-5 I0.3
G1 X-1.8 F30
G17 G3 X-1.5 Y33 J0.3
G1 Y66 F60
G2 X0 Y67.5 I1.5
G1 X89.5
G2 X91 Y66 J-1.5
G1 Y0
G2 X89.5 Y-1.5 I-1.5
G1 X0
G2 X-1.5 Y0 J1.5
G1 Y33
G3 X-1.8 Y33.3 I-0.3 F100
G1 X-2.1
G18 G3 X-2.4 Z-4.7 K0.3
G1 Y32.7 F60
Z-5.7 F33
G2 X-2.1 Z-6 I0.3
G1 X-1.8 F30
G17 G3 X-1.5 Y33 J0.3
G1 Y66 F60
G2 X0 Y67.5 I1.5
G1 X89.5
G2 X91 Y66 J-1.5
G1 Y0
G2 X89.5 Y-1.5 I-1.5
G1 X0
G2 X-1.5 Y0 J1.5
G1 Y33
G3 X-1.8 Y33.3 I-0.3 F100
G1 X-2.1
G18 G3 X-2.4 Z-5.7 K0.3
G1 Y32.7 F60
Z-6.7 F33
G2 X-2.1 Z-7 I0.3
G1 X-1.8 F30
G17 G3 X-1.5 Y33 J0.3
G1 Y66 F60
G2 X0 Y67.5 I1.5
G1 X89.5
G2 X91 Y66 J-1.5
G1 Y0
G2 X89.5 Y-1.5 I-1.5
G1 X0
G2 X-1.5 Y0 J1.5
G1 Y33
G3 X-1.8 Y33.3 I-0.3 F100
G1 X-2.1
G18 G3 X-2.4 Z-6.7 K0.3
G1 Y32.7 F60
Z-7.7 F33
G2 X-2.1 Z-8 I0.3
G1 X-1.8 F30
G17 G3 X-1.5 Y33 J0.3
G1 Y66 F60
G2 X0 Y67.5 I1.5
G1 X89.5
G2 X91 Y66 J-1.5
G1 Y0
G2 X89.5 Y-1.5 I-1.5
G1 X0
G2 X-1.5 Y0 J1.5
G1 Y33
G3 X-1.8 Y33.3 I-0.3 F100
G1 X-2.1
G18 G3 X-2.4 Z-7.7 K0.3
G1 Y32.7 F60
Z-8.7 F33
G2 X-2.1 Z-9 I0.3
G1 X-1.8 F30
G17 G3 X-1.5 Y33 J0.3
G1 Y66 F60
G2 X0 Y67.5 I1.5
G1 X89.5
G2 X91 Y66 J-1.5
G1 Y0
G2 X89.5 Y-1.5 I-1.5
G1 X0
G2 X-1.5 Y0 J1.5
G1 Y33
G3 X-1.8 Y33.3 I-0.3 F100
G1 X-2.1
G18 G3 X-2.4 Z-8.7 K0.3
G0 Z5
G17
M9
G28 G91 Z0
G90
G28 G91 X0 Y0
G90
M30
%
