%
(1001)
(T1  D=3 CR=0 - ZMIN=-9 - flat end mill)
G90 G94
G17
G21
G28 G91 Z6
G90

(2D Pocket1)
M9
T1 M6
S1000 M3
G54
M8
G0 X74.748 Y22.388
Z5
Z2
G1 Z-0.7 F33
X74.75 Y22.385 Z-0.747
X74.756 Y22.376 Z-0.793
X74.767 Y22.361 Z-0.836
X74.783 Y22.343 Z-0.876
X74.805 Y22.322 Z-0.912
X74.834 Y22.3 Z-0.943
X74.868 Y22.28 Z-0.967
X74.909 Y22.264 Z-0.985
X74.953 Y22.254 Z-0.996
X75 Y22.25 Z-1
G3 Y23.75 J0.75 F50
Y22.25 J-0.75
G1 X75.031 Y22.257
X75.055 Y22.276
X75.07 Y22.304
X75.071 Y22.336
X75.058 Y22.364
X75.034 Y22.385
X74.843 Y22.49
X74.812 Y22.499
X74.781 Y22.494
X74.755 Y22.476
X74.74 Y22.449
X74.737 Y22.417
X74.748 Y22.388
Z-1.7 F33
X74.75 Y22.385 Z-1.747
X74.756 Y22.376 Z-1.793
X74.767 Y22.361 Z-1.836
X74.783 Y22.343 Z-1.876
X74.805 Y22.322 Z-1.912
X74.834 Y22.3 Z-1.943
X74.868 Y22.28 Z-1.967
X74.909 Y22.264 Z-1.985
X74.953 Y22.254 Z-1.996
X75 Y22.25 Z-2
G3 Y23.75 J0.75 F50
Y22.25 J-0.75
G1 X75.031 Y22.257
X75.055 Y22.276
X75.07 Y22.304
X75.071 Y22.336
X75.058 Y22.364
X75.034 Y22.385
X74.843 Y22.49
X74.812 Y22.499
X74.781 Y22.494
X74.755 Y22.476
X74.74 Y22.449
X74.737 Y22.417
X74.748 Y22.388
Z-2.7 F33
X74.75 Y22.385 Z-2.747
X74.756 Y22.376 Z-2.793
X74.767 Y22.361 Z-2.836
X74.783 Y22.343 Z-2.876
X74.805 Y22.322 Z-2.912
X74.834 Y22.3 Z-2.943
X74.868 Y22.28 Z-2.967
X74.909 Y22.264 Z-2.985
X74.953 Y22.254 Z-2.996
X75 Y22.25 Z-3
G3 Y23.75 J0.75 F50
Y22.25 J-0.75
G1 X75.031 Y22.257
X75.055 Y22.276
X75.07 Y22.304
X75.071 Y22.336
X75.058 Y22.364
X75.034 Y22.385
X74.843 Y22.49
X74.812 Y22.499
X74.781 Y22.494
X74.755 Y22.476
X74.74 Y22.449
X74.737 Y22.417
X74.748 Y22.388
Z-3.7 F33
X74.75 Y22.385 Z-3.747
X74.756 Y22.376 Z-3.793
X74.767 Y22.361 Z-3.836
X74.783 Y22.343 Z-3.876
X74.805 Y22.322 Z-3.912
X74.834 Y22.3 Z-3.943
X74.868 Y22.28 Z-3.967
X74.909 Y22.264 Z-3.985
X74.953 Y22.254 Z-3.996
X75 Y22.25 Z-4
G3 Y23.75 J0.75 F50
Y22.25 J-0.75
G1 X75.031 Y22.257
X75.055 Y22.276
X75.07 Y22.304
X75.071 Y22.336
X75.058 Y22.364
X75.034 Y22.385
X74.843 Y22.49
X74.812 Y22.499
X74.781 Y22.494
X74.755 Y22.476
X74.74 Y22.449
X74.737 Y22.417
X74.748 Y22.388
Z-4.7 F33
X74.75 Y22.385 Z-4.747
X74.756 Y22.376 Z-4.793
X74.767 Y22.361 Z-4.836
X74.783 Y22.343 Z-4.876
X74.805 Y22.322 Z-4.912
X74.834 Y22.3 Z-4.943
X74.868 Y22.28 Z-4.967
X74.909 Y22.264 Z-4.985
X74.953 Y22.254 Z-4.996
X75 Y22.25 Z-5
G3 Y23.75 J0.75 F50
Y22.25 J-0.75
G1 X75.031 Y22.257
X75.055 Y22.276
X75.07 Y22.304
X75.071 Y22.336
X75.058 Y22.364
X75.034 Y22.385
X74.843 Y22.49
X74.812 Y22.499
X74.781 Y22.494
X74.755 Y22.476
X74.74 Y22.449
X74.737 Y22.417
X74.748 Y22.388
Z-5.7 F33
X74.75 Y22.385 Z-5.747
X74.756 Y22.376 Z-5.793
X74.767 Y22.361 Z-5.836
X74.783 Y22.343 Z-5.876
X74.805 Y22.322 Z-5.912
X74.834 Y22.3 Z-5.943
X74.868 Y22.28 Z-5.967
X74.909 Y22.264 Z-5.985
X74.953 Y22.254 Z-5.996
X75 Y22.25 Z-6
G3 Y23.75 J0.75 F50
Y22.25 J-0.75
G1 X75.031 Y22.257
X75.055 Y22.276
X75.07 Y22.304
X75.071 Y22.336
X75.058 Y22.364
X75.034 Y22.385
X74.843 Y22.49
X74.812 Y22.499
X74.781 Y22.494
X74.755 Y22.476
X74.74 Y22.449
X74.737 Y22.417
X74.748 Y22.388
Z-6.7 F33
X74.75 Y22.385 Z-6.747
X74.756 Y22.376 Z-6.793
X74.767 Y22.361 Z-6.836
X74.783 Y22.343 Z-6.876
X74.805 Y22.322 Z-6.912
X74.834 Y22.3 Z-6.943
X74.868 Y22.28 Z-6.967
X74.909 Y22.264 Z-6.985
X74.953 Y22.254 Z-6.996
X75 Y22.25 Z-7
G3 Y23.75 J0.75 F50
Y22.25 J-0.75
G1 X75.031 Y22.257
X75.055 Y22.276
X75.07 Y22.304
X75.071 Y22.336
X75.058 Y22.364
X75.034 Y22.385
X74.843 Y22.49
X74.812 Y22.499
X74.781 Y22.494
X74.755 Y22.476
X74.74 Y22.449
X74.737 Y22.417
X74.748 Y22.388
Z-7.7 F33
X74.75 Y22.385 Z-7.747
X74.756 Y22.376 Z-7.793
X74.767 Y22.361 Z-7.836
X74.783 Y22.343 Z-7.876
X74.805 Y22.322 Z-7.912
X74.834 Y22.3 Z-7.943
X74.868 Y22.28 Z-7.967
X74.909 Y22.264 Z-7.985
X74.953 Y22.254 Z-7.996
X75 Y22.25 Z-8
G3 Y23.75 J0.75 F50
Y22.25 J-0.75
G1 X75.031 Y22.257
X75.055 Y22.276
X75.07 Y22.304
X75.071 Y22.336
X75.058 Y22.364
X75.034 Y22.385
X74.843 Y22.49
X74.812 Y22.499
X74.781 Y22.494
X74.755 Y22.476
X74.74 Y22.449
X74.737 Y22.417
X74.748 Y22.388
Z-8.7 F33
X74.75 Y22.385 Z-8.747
X74.756 Y22.376 Z-8.793
X74.767 Y22.361 Z-8.836
X74.783 Y22.343 Z-8.876
X74.805 Y22.322 Z-8.912
X74.834 Y22.3 Z-8.943
X74.868 Y22.28 Z-8.967
X74.909 Y22.264 Z-8.985
X74.953 Y22.254 Z-8.996
X75 Y22.25 Z-9
G3 Y23.75 J0.75 F50
Y22.25 J-0.75
G1 X75.047 Y22.254 Z-8.996
X75.091 Y22.264 Z-8.985
X75.132 Y22.28 Z-8.967
X75.166 Y22.3 Z-8.943
X75.195 Y22.322 Z-8.912
X75.217 Y22.343 Z-8.876
X75.233 Y22.361 Z-8.836
X75.244 Y22.376 Z-8.793
X75.25 Y22.385 Z-8.747
X75.252 Y22.388 Z-8.7
G0 Z2
X74.388 Y43.252
G1 Z-0.7 F33
X74.385 Y43.25 Z-0.747
X74.376 Y43.244 Z-0.793
X74.361 Y43.233 Z-0.836
X74.343 Y43.217 Z-0.876
X74.322 Y43.195 Z-0.912
X74.3 Y43.166 Z-0.943
X74.28 Y43.132 Z-0.967
X74.264 Y43.091 Z-0.985
X74.254 Y43.047 Z-0.996
X74.25 Y43 Z-1
G3 X75.75 I0.75 F50
X74.25 I-0.75
G1 X74.257 Y42.969
X74.276 Y42.945
X74.304 Y42.93
X74.336 Y42.929
X74.364 Y42.942
X74.385 Y42.966
X74.49 Y43.157
X74.499 Y43.188
X74.494 Y43.219
X74.476 Y43.245
X74.449 Y43.26
X74.417 Y43.263
X74.388 Y43.252
Z-1.7 F33
X74.385 Y43.25 Z-1.747
X74.376 Y43.244 Z-1.793
X74.361 Y43.233 Z-1.836
X74.343 Y43.217 Z-1.876
X74.322 Y43.195 Z-1.912
X74.3 Y43.166 Z-1.943
X74.28 Y43.132 Z-1.967
X74.264 Y43.091 Z-1.985
X74.254 Y43.047 Z-1.996
X74.25 Y43 Z-2
G3 X75.75 I0.75 F50
X74.25 I-0.75
G1 X74.257 Y42.969
X74.276 Y42.945
X74.304 Y42.93
X74.336 Y42.929
X74.364 Y42.942
X74.385 Y42.966
X74.49 Y43.157
X74.499 Y43.188
X74.494 Y43.219
X74.476 Y43.245
X74.449 Y43.26
X74.417 Y43.263
X74.388 Y43.252
Z-2.7 F33
X74.385 Y43.25 Z-2.747
X74.376 Y43.244 Z-2.793
X74.361 Y43.233 Z-2.836
X74.343 Y43.217 Z-2.876
X74.322 Y43.195 Z-2.912
X74.3 Y43.166 Z-2.943
X74.28 Y43.132 Z-2.967
X74.264 Y43.091 Z-2.985
X74.254 Y43.047 Z-2.996
X74.25 Y43 Z-3
G3 X75.75 I0.75 F50
X74.25 I-0.75
G1 X74.257 Y42.969
X74.276 Y42.945
X74.304 Y42.93
X74.336 Y42.929
X74.364 Y42.942
X74.385 Y42.966
X74.49 Y43.157
X74.499 Y43.188
X74.494 Y43.219
X74.476 Y43.245
X74.449 Y43.26
X74.417 Y43.263
X74.388 Y43.252
Z-3.7 F33
X74.385 Y43.25 Z-3.747
X74.376 Y43.244 Z-3.793
X74.361 Y43.233 Z-3.836
X74.343 Y43.217 Z-3.876
X74.322 Y43.195 Z-3.912
X74.3 Y43.166 Z-3.943
X74.28 Y43.132 Z-3.967
X74.264 Y43.091 Z-3.985
X74.254 Y43.047 Z-3.996
X74.25 Y43 Z-4
G3 X75.75 I0.75 F50
X74.25 I-0.75
G1 X74.257 Y42.969
X74.276 Y42.945
X74.304 Y42.93
X74.336 Y42.929
X74.364 Y42.942
X74.385 Y42.966
X74.49 Y43.157
X74.499 Y43.188
X74.494 Y43.219
X74.476 Y43.245
X74.449 Y43.26
X74.417 Y43.263
X74.388 Y43.252
Z-4.7 F33
X74.385 Y43.25 Z-4.747
X74.376 Y43.244 Z-4.793
X74.361 Y43.233 Z-4.836
X74.343 Y43.217 Z-4.876
X74.322 Y43.195 Z-4.912
X74.3 Y43.166 Z-4.943
X74.28 Y43.132 Z-4.967
X74.264 Y43.091 Z-4.985
X74.254 Y43.047 Z-4.996
X74.25 Y43 Z-5
G3 X75.75 I0.75 F50
X74.25 I-0.75
G1 X74.257 Y42.969
X74.276 Y42.945
X74.304 Y42.93
X74.336 Y42.929
X74.364 Y42.942
X74.385 Y42.966
X74.49 Y43.157
X74.499 Y43.188
X74.494 Y43.219
X74.476 Y43.245
X74.449 Y43.26
X74.417 Y43.263
X74.388 Y43.252
Z-5.7 F33
X74.385 Y43.25 Z-5.747
X74.376 Y43.244 Z-5.793
X74.361 Y43.233 Z-5.836
X74.343 Y43.217 Z-5.876
X74.322 Y43.195 Z-5.912
X74.3 Y43.166 Z-5.943
X74.28 Y43.132 Z-5.967
X74.264 Y43.091 Z-5.985
X74.254 Y43.047 Z-5.996
X74.25 Y43 Z-6
G3 X75.75 I0.75 F50
X74.25 I-0.75
G1 X74.257 Y42.969
X74.276 Y42.945
X74.304 Y42.93
X74.336 Y42.929
X74.364 Y42.942
X74.385 Y42.966
X74.49 Y43.157
X74.499 Y43.188
X74.494 Y43.219
X74.476 Y43.245
X74.449 Y43.26
X74.417 Y43.263
X74.388 Y43.252
Z-6.7 F33
X74.385 Y43.25 Z-6.747
X74.376 Y43.244 Z-6.793
X74.361 Y43.233 Z-6.836
X74.343 Y43.217 Z-6.876
X74.322 Y43.195 Z-6.912
X74.3 Y43.166 Z-6.943
X74.28 Y43.132 Z-6.967
X74.264 Y43.091 Z-6.985
X74.254 Y43.047 Z-6.996
X74.25 Y43 Z-7
G3 X75.75 I0.75 F50
X74.25 I-0.75
G1 X74.257 Y42.969
X74.276 Y42.945
X74.304 Y42.93
X74.336 Y42.929
X74.364 Y42.942
X74.385 Y42.966
X74.49 Y43.157
X74.499 Y43.188
X74.494 Y43.219
X74.476 Y43.245
X74.449 Y43.26
X74.417 Y43.263
X74.388 Y43.252
Z-7.7 F33
X74.385 Y43.25 Z-7.747
X74.376 Y43.244 Z-7.793
X74.361 Y43.233 Z-7.836
X74.343 Y43.217 Z-7.876
X74.322 Y43.195 Z-7.912
X74.3 Y43.166 Z-7.943
X74.28 Y43.132 Z-7.967
X74.264 Y43.091 Z-7.985
X74.254 Y43.047 Z-7.996
X74.25 Y43 Z-8
G3 X75.75 I0.75 F50
X74.25 I-0.75
G1 X74.257 Y42.969
X74.276 Y42.945
X74.304 Y42.93
X74.336 Y42.929
X74.364 Y42.942
X74.385 Y42.966
X74.49 Y43.157
X74.499 Y43.188
X74.494 Y43.219
X74.476 Y43.245
X74.449 Y43.26
X74.417 Y43.263
X74.388 Y43.252
Z-8.7 F33
X74.385 Y43.25 Z-8.747
X74.376 Y43.244 Z-8.793
X74.361 Y43.233 Z-8.836
X74.343 Y43.217 Z-8.876
X74.322 Y43.195 Z-8.912
X74.3 Y43.166 Z-8.943
X74.28 Y43.132 Z-8.967
X74.264 Y43.091 Z-8.985
X74.254 Y43.047 Z-8.996
X74.25 Y43 Z-9
G3 X75.75 I0.75 F50
X74.25 I-0.75
G1 X74.254 Y42.953 Z-8.996
X74.264 Y42.909 Z-8.985
X74.28 Y42.868 Z-8.967
X74.3 Y42.834 Z-8.943
X74.322 Y42.805 Z-8.912
X74.343 Y42.783 Z-8.876
X74.361 Y42.767 Z-8.836
X74.376 Y42.756 Z-8.793
X74.385 Y42.75 Z-8.747
X74.388 Y42.748 Z-8.7
G0 Z2
X50.252 Y58.612
G1 Z-0.7 F33
X50.25 Y58.615 Z-0.747
X50.244 Y58.624 Z-0.793
X50.233 Y58.639 Z-0.836
X50.217 Y58.657 Z-0.876
X50.195 Y58.678 Z-0.912
X50.166 Y58.7 Z-0.943
X50.132 Y58.72 Z-0.967
X50.091 Y58.736 Z-0.985
X50.047 Y58.746 Z-0.996
X50 Y58.75 Z-1
G3 Y57.25 J-0.75 F50
Y58.75 J0.75
G1 X49.969 Y58.743
X49.945 Y58.724
X49.93 Y58.696
X49.929 Y58.664
X49.942 Y58.636
X49.966 Y58.615
X50.157 Y58.51
X50.188 Y58.501
X50.219 Y58.506
X50.245 Y58.524
X50.26 Y58.551
X50.263 Y58.583
X50.252 Y58.612
Z-1.7 F33
X50.25 Y58.615 Z-1.747
X50.244 Y58.624 Z-1.793
X50.233 Y58.639 Z-1.836
X50.217 Y58.657 Z-1.876
X50.195 Y58.678 Z-1.912
X50.166 Y58.7 Z-1.943
X50.132 Y58.72 Z-1.967
X50.091 Y58.736 Z-1.985
X50.047 Y58.746 Z-1.996
X50 Y58.75 Z-2
G3 Y57.25 J-0.75 F50
Y58.75 J0.75
G1 X49.969 Y58.743
X49.945 Y58.724
X49.93 Y58.696
X49.929 Y58.664
X49.942 Y58.636
X49.966 Y58.615
X50.157 Y58.51
X50.188 Y58.501
X50.219 Y58.506
X50.245 Y58.524
X50.26 Y58.551
X50.263 Y58.583
X50.252 Y58.612
Z-2.7 F33
X50.25 Y58.615 Z-2.747
X50.244 Y58.624 Z-2.793
X50.233 Y58.639 Z-2.836
X50.217 Y58.657 Z-2.876
X50.195 Y58.678 Z-2.912
X50.166 Y58.7 Z-2.943
X50.132 Y58.72 Z-2.967
X50.091 Y58.736 Z-2.985
X50.047 Y58.746 Z-2.996
X50 Y58.75 Z-3
G3 Y57.25 J-0.75 F50
Y58.75 J0.75
G1 X49.969 Y58.743
X49.945 Y58.724
X49.93 Y58.696
X49.929 Y58.664
X49.942 Y58.636
X49.966 Y58.615
X50.157 Y58.51
X50.188 Y58.501
X50.219 Y58.506
X50.245 Y58.524
X50.26 Y58.551
X50.263 Y58.583
X50.252 Y58.612
Z-3.7 F33
X50.25 Y58.615 Z-3.747
X50.244 Y58.624 Z-3.793
X50.233 Y58.639 Z-3.836
X50.217 Y58.657 Z-3.876
X50.195 Y58.678 Z-3.912
X50.166 Y58.7 Z-3.943
X50.132 Y58.72 Z-3.967
X50.091 Y58.736 Z-3.985
X50.047 Y58.746 Z-3.996
X50 Y58.75 Z-4
G3 Y57.25 J-0.75 F50
Y58.75 J0.75
G1 X49.969 Y58.743
X49.945 Y58.724
X49.93 Y58.696
X49.929 Y58.664
X49.942 Y58.636
X49.966 Y58.615
X50.157 Y58.51
X50.188 Y58.501
X50.219 Y58.506
X50.245 Y58.524
X50.26 Y58.551
X50.263 Y58.583
X50.252 Y58.612
Z-4.7 F33
X50.25 Y58.615 Z-4.747
X50.244 Y58.624 Z-4.793
X50.233 Y58.639 Z-4.836
X50.217 Y58.657 Z-4.876
X50.195 Y58.678 Z-4.912
X50.166 Y58.7 Z-4.943
X50.132 Y58.72 Z-4.967
X50.091 Y58.736 Z-4.985
X50.047 Y58.746 Z-4.996
X50 Y58.75 Z-5
G3 Y57.25 J-0.75 F50
Y58.75 J0.75
G1 X49.969 Y58.743
X49.945 Y58.724
X49.93 Y58.696
X49.929 Y58.664
X49.942 Y58.636
X49.966 Y58.615
X50.157 Y58.51
X50.188 Y58.501
X50.219 Y58.506
X50.245 Y58.524
X50.26 Y58.551
X50.263 Y58.583
X50.252 Y58.612
Z-5.7 F33
X50.25 Y58.615 Z-5.747
X50.244 Y58.624 Z-5.793
X50.233 Y58.639 Z-5.836
X50.217 Y58.657 Z-5.876
X50.195 Y58.678 Z-5.912
X50.166 Y58.7 Z-5.943
X50.132 Y58.72 Z-5.967
X50.091 Y58.736 Z-5.985
X50.047 Y58.746 Z-5.996
X50 Y58.75 Z-6
G3 Y57.25 J-0.75 F50
Y58.75 J0.75
G1 X49.969 Y58.743
X49.945 Y58.724
X49.93 Y58.696
X49.929 Y58.664
X49.942 Y58.636
X49.966 Y58.615
X50.157 Y58.51
X50.188 Y58.501
X50.219 Y58.506
X50.245 Y58.524
X50.26 Y58.551
X50.263 Y58.583
X50.252 Y58.612
Z-6.7 F33
X50.25 Y58.615 Z-6.747
X50.244 Y58.624 Z-6.793
X50.233 Y58.639 Z-6.836
X50.217 Y58.657 Z-6.876
X50.195 Y58.678 Z-6.912
X50.166 Y58.7 Z-6.943
X50.132 Y58.72 Z-6.967
X50.091 Y58.736 Z-6.985
X50.047 Y58.746 Z-6.996
X50 Y58.75 Z-7
G3 Y57.25 J-0.75 F50
Y58.75 J0.75
G1 X49.969 Y58.743
X49.945 Y58.724
X49.93 Y58.696
X49.929 Y58.664
X49.942 Y58.636
X49.966 Y58.615
X50.157 Y58.51
X50.188 Y58.501
X50.219 Y58.506
X50.245 Y58.524
X50.26 Y58.551
X50.263 Y58.583
X50.252 Y58.612
Z-7.7 F33
X50.25 Y58.615 Z-7.747
X50.244 Y58.624 Z-7.793
X50.233 Y58.639 Z-7.836
X50.217 Y58.657 Z-7.876
X50.195 Y58.678 Z-7.912
X50.166 Y58.7 Z-7.943
X50.132 Y58.72 Z-7.967
X50.091 Y58.736 Z-7.985
X50.047 Y58.746 Z-7.996
X50 Y58.75 Z-8
G3 Y57.25 J-0.75 F50
Y58.75 J0.75
G1 X49.969 Y58.743
X49.945 Y58.724
X49.93 Y58.696
X49.929 Y58.664
X49.942 Y58.636
X49.966 Y58.615
X50.157 Y58.51
X50.188 Y58.501
X50.219 Y58.506
X50.245 Y58.524
X50.26 Y58.551
X50.263 Y58.583
X50.252 Y58.612
Z-8.7 F33
X50.25 Y58.615 Z-8.747
X50.244 Y58.624 Z-8.793
X50.233 Y58.639 Z-8.836
X50.217 Y58.657 Z-8.876
X50.195 Y58.678 Z-8.912
X50.166 Y58.7 Z-8.943
X50.132 Y58.72 Z-8.967
X50.091 Y58.736 Z-8.985
X50.047 Y58.746 Z-8.996
X50 Y58.75 Z-9
G3 Y57.25 J-0.75 F50
Y58.75 J0.75
G1 X49.953 Y58.746 Z-8.996
X49.909 Y58.736 Z-8.985
X49.868 Y58.72 Z-8.967
X49.834 Y58.7 Z-8.943
X49.805 Y58.678 Z-8.912
X49.783 Y58.657 Z-8.876
X49.767 Y58.639 Z-8.836
X49.756 Y58.624 Z-8.793
X49.75 Y58.615 Z-8.747
X49.748 Y58.612 Z-8.7
G0 Z2
X18.252
G1 Z-0.7 F33
X18.25 Y58.615 Z-0.747
X18.244 Y58.624 Z-0.793
X18.233 Y58.639 Z-0.836
X18.217 Y58.657 Z-0.876
X18.195 Y58.678 Z-0.912
X18.166 Y58.7 Z-0.943
X18.132 Y58.72 Z-0.967
X18.091 Y58.736 Z-0.985
X18.047 Y58.746 Z-0.996
X18 Y58.75 Z-1
G3 Y57.25 J-0.75 F50
Y58.75 J0.75
G1 X17.969 Y58.743
X17.945 Y58.724
X17.93 Y58.696
X17.929 Y58.664
X17.942 Y58.636
X17.966 Y58.615
X18.157 Y58.51
X18.188 Y58.501
X18.219 Y58.506
X18.245 Y58.524
X18.26 Y58.551
X18.263 Y58.583
X18.252 Y58.612
Z-1.7 F33
X18.25 Y58.615 Z-1.747
X18.244 Y58.624 Z-1.793
X18.233 Y58.639 Z-1.836
X18.217 Y58.657 Z-1.876
X18.195 Y58.678 Z-1.912
X18.166 Y58.7 Z-1.943
X18.132 Y58.72 Z-1.967
X18.091 Y58.736 Z-1.985
X18.047 Y58.746 Z-1.996
X18 Y58.75 Z-2
G3 Y57.25 J-0.75 F50
Y58.75 J0.75
G1 X17.969 Y58.743
X17.945 Y58.724
X17.93 Y58.696
X17.929 Y58.664
X17.942 Y58.636
X17.966 Y58.615
X18.157 Y58.51
X18.188 Y58.501
X18.219 Y58.506
X18.245 Y58.524
X18.26 Y58.551
X18.263 Y58.583
X18.252 Y58.612
Z-2.7 F33
X18.25 Y58.615 Z-2.747
X18.244 Y58.624 Z-2.793
X18.233 Y58.639 Z-2.836
X18.217 Y58.657 Z-2.876
X18.195 Y58.678 Z-2.912
X18.166 Y58.7 Z-2.943
X18.132 Y58.72 Z-2.967
X18.091 Y58.736 Z-2.985
X18.047 Y58.746 Z-2.996
X18 Y58.75 Z-3
G3 Y57.25 J-0.75 F50
Y58.75 J0.75
G1 X17.969 Y58.743
X17.945 Y58.724
X17.93 Y58.696
X17.929 Y58.664
X17.942 Y58.636
X17.966 Y58.615
X18.157 Y58.51
X18.188 Y58.501
X18.219 Y58.506
X18.245 Y58.524
X18.26 Y58.551
X18.263 Y58.583
X18.252 Y58.612
Z-3.7 F33
X18.25 Y58.615 Z-3.747
X18.244 Y58.624 Z-3.793
X18.233 Y58.639 Z-3.836
X18.217 Y58.657 Z-3.876
X18.195 Y58.678 Z-3.912
X18.166 Y58.7 Z-3.943
X18.132 Y58.72 Z-3.967
X18.091 Y58.736 Z-3.985
X18.047 Y58.746 Z-3.996
X18 Y58.75 Z-4
G3 Y57.25 J-0.75 F50
Y58.75 J0.75
G1 X17.969 Y58.743
X17.945 Y58.724
X17.93 Y58.696
X17.929 Y58.664
X17.942 Y58.636
X17.966 Y58.615
X18.157 Y58.51
X18.188 Y58.501
X18.219 Y58.506
X18.245 Y58.524
X18.26 Y58.551
X18.263 Y58.583
X18.252 Y58.612
Z-4.7 F33
X18.25 Y58.615 Z-4.747
X18.244 Y58.624 Z-4.793
X18.233 Y58.639 Z-4.836
X18.217 Y58.657 Z-4.876
X18.195 Y58.678 Z-4.912
X18.166 Y58.7 Z-4.943
X18.132 Y58.72 Z-4.967
X18.091 Y58.736 Z-4.985
X18.047 Y58.746 Z-4.996
X18 Y58.75 Z-5
G3 Y57.25 J-0.75 F50
Y58.75 J0.75
G1 X17.969 Y58.743
X17.945 Y58.724
X17.93 Y58.696
X17.929 Y58.664
X17.942 Y58.636
X17.966 Y58.615
X18.157 Y58.51
X18.188 Y58.501
X18.219 Y58.506
X18.245 Y58.524
X18.26 Y58.551
X18.263 Y58.583
X18.252 Y58.612
Z-5.7 F33
X18.25 Y58.615 Z-5.747
X18.244 Y58.624 Z-5.793
X18.233 Y58.639 Z-5.836
X18.217 Y58.657 Z-5.876
X18.195 Y58.678 Z-5.912
X18.166 Y58.7 Z-5.943
X18.132 Y58.72 Z-5.967
X18.091 Y58.736 Z-5.985
X18.047 Y58.746 Z-5.996
X18 Y58.75 Z-6
G3 Y57.25 J-0.75 F50
Y58.75 J0.75
G1 X17.969 Y58.743
X17.945 Y58.724
X17.93 Y58.696
X17.929 Y58.664
X17.942 Y58.636
X17.966 Y58.615
X18.157 Y58.51
X18.188 Y58.501
X18.219 Y58.506
X18.245 Y58.524
X18.26 Y58.551
X18.263 Y58.583
X18.252 Y58.612
Z-6.7 F33
X18.25 Y58.615 Z-6.747
X18.244 Y58.624 Z-6.793
X18.233 Y58.639 Z-6.836
X18.217 Y58.657 Z-6.876
X18.195 Y58.678 Z-6.912
X18.166 Y58.7 Z-6.943
X18.132 Y58.72 Z-6.967
X18.091 Y58.736 Z-6.985
X18.047 Y58.746 Z-6.996
X18 Y58.75 Z-7
G3 Y57.25 J-0.75 F50
Y58.75 J0.75
G1 X17.969 Y58.743
X17.945 Y58.724
X17.93 Y58.696
X17.929 Y58.664
X17.942 Y58.636
X17.966 Y58.615
X18.157 Y58.51
X18.188 Y58.501
X18.219 Y58.506
X18.245 Y58.524
X18.26 Y58.551
X18.263 Y58.583
X18.252 Y58.612
Z-7.7 F33
X18.25 Y58.615 Z-7.747
X18.244 Y58.624 Z-7.793
X18.233 Y58.639 Z-7.836
X18.217 Y58.657 Z-7.876
X18.195 Y58.678 Z-7.912
X18.166 Y58.7 Z-7.943
X18.132 Y58.72 Z-7.967
X18.091 Y58.736 Z-7.985
X18.047 Y58.746 Z-7.996
X18 Y58.75 Z-8
G3 Y57.25 J-0.75 F50
Y58.75 J0.75
G1 X17.969 Y58.743
X17.945 Y58.724
X17.93 Y58.696
X17.929 Y58.664
X17.942 Y58.636
X17.966 Y58.615
X18.157 Y58.51
X18.188 Y58.501
X18.219 Y58.506
X18.245 Y58.524
X18.26 Y58.551
X18.263 Y58.583
X18.252 Y58.612
Z-8.7 F33
X18.25 Y58.615 Z-8.747
X18.244 Y58.624 Z-8.793
X18.233 Y58.639 Z-8.836
X18.217 Y58.657 Z-8.876
X18.195 Y58.678 Z-8.912
X18.166 Y58.7 Z-8.943
X18.132 Y58.72 Z-8.967
X18.091 Y58.736 Z-8.985
X18.047 Y58.746 Z-8.996
X18 Y58.75 Z-9
G3 Y57.25 J-0.75 F50
Y58.75 J0.75
G1 X17.953 Y58.746 Z-8.996
X17.909 Y58.736 Z-8.985
X17.868 Y58.72 Z-8.967
X17.834 Y58.7 Z-8.943
X17.805 Y58.678 Z-8.912
X17.783 Y58.657 Z-8.876
X17.767 Y58.639 Z-8.836
X17.756 Y58.624 Z-8.793
X17.75 Y58.615 Z-8.747
X17.748 Y58.612 Z-8.7
G0 Z2
X17.388 Y8.252
G1 Z-0.7 F33
X17.385 Y8.25 Z-0.747
X17.376 Y8.244 Z-0.793
X17.361 Y8.233 Z-0.836
X17.343 Y8.217 Z-0.876
X17.322 Y8.195 Z-0.912
X17.3 Y8.166 Z-0.943
X17.28 Y8.132 Z-0.967
X17.264 Y8.091 Z-0.985
X17.254 Y8.047 Z-0.996
X17.25 Y8 Z-1
G3 X18.75 I0.75 F50
X17.25 I-0.75
G1 X17.257 Y7.969
X17.276 Y7.945
X17.304 Y7.93
X17.336 Y7.929
X17.364 Y7.942
X17.385 Y7.966
X17.49 Y8.157
X17.499 Y8.188
X17.494 Y8.219
X17.476 Y8.245
X17.449 Y8.26
X17.417 Y8.263
X17.388 Y8.252
Z-1.7 F33
X17.385 Y8.25 Z-1.747
X17.376 Y8.244 Z-1.793
X17.361 Y8.233 Z-1.836
X17.343 Y8.217 Z-1.876
X17.322 Y8.195 Z-1.912
X17.3 Y8.166 Z-1.943
X17.28 Y8.132 Z-1.967
X17.264 Y8.091 Z-1.985
X17.254 Y8.047 Z-1.996
X17.25 Y8 Z-2
G3 X18.75 I0.75 F50
X17.25 I-0.75
G1 X17.257 Y7.969
X17.276 Y7.945
X17.304 Y7.93
X17.336 Y7.929
X17.364 Y7.942
X17.385 Y7.966
X17.49 Y8.157
X17.499 Y8.188
X17.494 Y8.219
X17.476 Y8.245
X17.449 Y8.26
X17.417 Y8.263
X17.388 Y8.252
Z-2.7 F33
X17.385 Y8.25 Z-2.747
X17.376 Y8.244 Z-2.793
X17.361 Y8.233 Z-2.836
X17.343 Y8.217 Z-2.876
X17.322 Y8.195 Z-2.912
X17.3 Y8.166 Z-2.943
X17.28 Y8.132 Z-2.967
X17.264 Y8.091 Z-2.985
X17.254 Y8.047 Z-2.996
X17.25 Y8 Z-3
G3 X18.75 I0.75 F50
X17.25 I-0.75
G1 X17.257 Y7.969
X17.276 Y7.945
X17.304 Y7.93
X17.336 Y7.929
X17.364 Y7.942
X17.385 Y7.966
X17.49 Y8.157
X17.499 Y8.188
X17.494 Y8.219
X17.476 Y8.245
X17.449 Y8.26
X17.417 Y8.263
X17.388 Y8.252
Z-3.7 F33
X17.385 Y8.25 Z-3.747
X17.376 Y8.244 Z-3.793
X17.361 Y8.233 Z-3.836
X17.343 Y8.217 Z-3.876
X17.322 Y8.195 Z-3.912
X17.3 Y8.166 Z-3.943
X17.28 Y8.132 Z-3.967
X17.264 Y8.091 Z-3.985
X17.254 Y8.047 Z-3.996
X17.25 Y8 Z-4
G3 X18.75 I0.75 F50
X17.25 I-0.75
G1 X17.257 Y7.969
X17.276 Y7.945
X17.304 Y7.93
X17.336 Y7.929
X17.364 Y7.942
X17.385 Y7.966
X17.49 Y8.157
X17.499 Y8.188
X17.494 Y8.219
X17.476 Y8.245
X17.449 Y8.26
X17.417 Y8.263
X17.388 Y8.252
Z-4.7 F33
X17.385 Y8.25 Z-4.747
X17.376 Y8.244 Z-4.793
X17.361 Y8.233 Z-4.836
X17.343 Y8.217 Z-4.876
X17.322 Y8.195 Z-4.912
X17.3 Y8.166 Z-4.943
X17.28 Y8.132 Z-4.967
X17.264 Y8.091 Z-4.985
X17.254 Y8.047 Z-4.996
X17.25 Y8 Z-5
G3 X18.75 I0.75 F50
X17.25 I-0.75
G1 X17.257 Y7.969
X17.276 Y7.945
X17.304 Y7.93
X17.336 Y7.929
X17.364 Y7.942
X17.385 Y7.966
X17.49 Y8.157
X17.499 Y8.188
X17.494 Y8.219
X17.476 Y8.245
X17.449 Y8.26
X17.417 Y8.263
X17.388 Y8.252
Z-5.7 F33
X17.385 Y8.25 Z-5.747
X17.376 Y8.244 Z-5.793
X17.361 Y8.233 Z-5.836
X17.343 Y8.217 Z-5.876
X17.322 Y8.195 Z-5.912
X17.3 Y8.166 Z-5.943
X17.28 Y8.132 Z-5.967
X17.264 Y8.091 Z-5.985
X17.254 Y8.047 Z-5.996
X17.25 Y8 Z-6
G3 X18.75 I0.75 F50
X17.25 I-0.75
G1 X17.257 Y7.969
X17.276 Y7.945
X17.304 Y7.93
X17.336 Y7.929
X17.364 Y7.942
X17.385 Y7.966
X17.49 Y8.157
X17.499 Y8.188
X17.494 Y8.219
X17.476 Y8.245
X17.449 Y8.26
X17.417 Y8.263
X17.388 Y8.252
Z-6.7 F33
X17.385 Y8.25 Z-6.747
X17.376 Y8.244 Z-6.793
X17.361 Y8.233 Z-6.836
X17.343 Y8.217 Z-6.876
X17.322 Y8.195 Z-6.912
X17.3 Y8.166 Z-6.943
X17.28 Y8.132 Z-6.967
X17.264 Y8.091 Z-6.985
X17.254 Y8.047 Z-6.996
X17.25 Y8 Z-7
G3 X18.75 I0.75 F50
X17.25 I-0.75
G1 X17.257 Y7.969
X17.276 Y7.945
X17.304 Y7.93
X17.336 Y7.929
X17.364 Y7.942
X17.385 Y7.966
X17.49 Y8.157
X17.499 Y8.188
X17.494 Y8.219
X17.476 Y8.245
X17.449 Y8.26
X17.417 Y8.263
X17.388 Y8.252
Z-7.7 F33
X17.385 Y8.25 Z-7.747
X17.376 Y8.244 Z-7.793
X17.361 Y8.233 Z-7.836
X17.343 Y8.217 Z-7.876
X17.322 Y8.195 Z-7.912
X17.3 Y8.166 Z-7.943
X17.28 Y8.132 Z-7.967
X17.264 Y8.091 Z-7.985
X17.254 Y8.047 Z-7.996
X17.25 Y8 Z-8
G3 X18.75 I0.75 F50
X17.25 I-0.75
G1 X17.257 Y7.969
X17.276 Y7.945
X17.304 Y7.93
X17.336 Y7.929
X17.364 Y7.942
X17.385 Y7.966
X17.49 Y8.157
X17.499 Y8.188
X17.494 Y8.219
X17.476 Y8.245
X17.449 Y8.26
X17.417 Y8.263
X17.388 Y8.252
Z-8.7 F33
X17.385 Y8.25 Z-8.747
X17.376 Y8.244 Z-8.793
X17.361 Y8.233 Z-8.836
X17.343 Y8.217 Z-8.876
X17.322 Y8.195 Z-8.912
X17.3 Y8.166 Z-8.943
X17.28 Y8.132 Z-8.967
X17.264 Y8.091 Z-8.985
X17.254 Y8.047 Z-8.996
X17.25 Y8 Z-9
G3 X18.75 I0.75 F50
X17.25 I-0.75
G1 X17.254 Y7.953 Z-8.996
X17.264 Y7.909 Z-8.985
X17.28 Y7.868 Z-8.967
X17.3 Y7.834 Z-8.943
X17.322 Y7.805 Z-8.912
X17.343 Y7.783 Z-8.876
X17.361 Y7.767 Z-8.836
X17.376 Y7.756 Z-8.793
X17.385 Y7.75 Z-8.747
X17.388 Y7.748 Z-8.7
G0 Z2
X50.612
G1 Z-0.7 F33
X50.615 Y7.75 Z-0.747
X50.624 Y7.756 Z-0.793
X50.639 Y7.767 Z-0.836
X50.657 Y7.783 Z-0.876
X50.678 Y7.805 Z-0.912
X50.7 Y7.834 Z-0.943
X50.72 Y7.868 Z-0.967
X50.736 Y7.909 Z-0.985
X50.746 Y7.953 Z-0.996
X50.75 Y8 Z-1
G3 X49.25 I-0.75 F50
X50.75 I0.75
G1 X50.743 Y8.031
X50.724 Y8.055
X50.696 Y8.07
X50.664 Y8.071
X50.636 Y8.058
X50.615 Y8.034
X50.51 Y7.843
X50.501 Y7.812
X50.506 Y7.781
X50.524 Y7.755
X50.551 Y7.74
X50.583 Y7.737
X50.612 Y7.748
Z-1.7 F33
X50.615 Y7.75 Z-1.747
X50.624 Y7.756 Z-1.793
X50.639 Y7.767 Z-1.836
X50.657 Y7.783 Z-1.876
X50.678 Y7.805 Z-1.912
X50.7 Y7.834 Z-1.943
X50.72 Y7.868 Z-1.967
X50.736 Y7.909 Z-1.985
X50.746 Y7.953 Z-1.996
X50.75 Y8 Z-2
G3 X49.25 I-0.75 F50
X50.75 I0.75
G1 X50.743 Y8.031
X50.724 Y8.055
X50.696 Y8.07
X50.664 Y8.071
X50.636 Y8.058
X50.615 Y8.034
X50.51 Y7.843
X50.501 Y7.812
X50.506 Y7.781
X50.524 Y7.755
X50.551 Y7.74
X50.583 Y7.737
X50.612 Y7.748
Z-2.7 F33
X50.615 Y7.75 Z-2.747
X50.624 Y7.756 Z-2.793
X50.639 Y7.767 Z-2.836
X50.657 Y7.783 Z-2.876
X50.678 Y7.805 Z-2.912
X50.7 Y7.834 Z-2.943
X50.72 Y7.868 Z-2.967
X50.736 Y7.909 Z-2.985
X50.746 Y7.953 Z-2.996
X50.75 Y8 Z-3
G3 X49.25 I-0.75 F50
X50.75 I0.75
G1 X50.743 Y8.031
X50.724 Y8.055
X50.696 Y8.07
X50.664 Y8.071
X50.636 Y8.058
X50.615 Y8.034
X50.51 Y7.843
X50.501 Y7.812
X50.506 Y7.781
X50.524 Y7.755
X50.551 Y7.74
X50.583 Y7.737
X50.612 Y7.748
Z-3.7 F33
X50.615 Y7.75 Z-3.747
X50.624 Y7.756 Z-3.793
X50.639 Y7.767 Z-3.836
X50.657 Y7.783 Z-3.876
X50.678 Y7.805 Z-3.912
X50.7 Y7.834 Z-3.943
X50.72 Y7.868 Z-3.967
X50.736 Y7.909 Z-3.985
X50.746 Y7.953 Z-3.996
X50.75 Y8 Z-4
G3 X49.25 I-0.75 F50
X50.75 I0.75
G1 X50.743 Y8.031
X50.724 Y8.055
X50.696 Y8.07
X50.664 Y8.071
X50.636 Y8.058
X50.615 Y8.034
X50.51 Y7.843
X50.501 Y7.812
X50.506 Y7.781
X50.524 Y7.755
X50.551 Y7.74
X50.583 Y7.737
X50.612 Y7.748
Z-4.7 F33
X50.615 Y7.75 Z-4.747
X50.624 Y7.756 Z-4.793
X50.639 Y7.767 Z-4.836
X50.657 Y7.783 Z-4.876
X50.678 Y7.805 Z-4.912
X50.7 Y7.834 Z-4.943
X50.72 Y7.868 Z-4.967
X50.736 Y7.909 Z-4.985
X50.746 Y7.953 Z-4.996
X50.75 Y8 Z-5
G3 X49.25 I-0.75 F50
X50.75 I0.75
G1 X50.743 Y8.031
X50.724 Y8.055
X50.696 Y8.07
X50.664 Y8.071
X50.636 Y8.058
X50.615 Y8.034
X50.51 Y7.843
X50.501 Y7.812
X50.506 Y7.781
X50.524 Y7.755
X50.551 Y7.74
X50.583 Y7.737
X50.612 Y7.748
Z-5.7 F33
X50.615 Y7.75 Z-5.747
X50.624 Y7.756 Z-5.793
X50.639 Y7.767 Z-5.836
X50.657 Y7.783 Z-5.876
X50.678 Y7.805 Z-5.912
X50.7 Y7.834 Z-5.943
X50.72 Y7.868 Z-5.967
X50.736 Y7.909 Z-5.985
X50.746 Y7.953 Z-5.996
X50.75 Y8 Z-6
G3 X49.25 I-0.75 F50
X50.75 I0.75
G1 X50.743 Y8.031
X50.724 Y8.055
X50.696 Y8.07
X50.664 Y8.071
X50.636 Y8.058
X50.615 Y8.034
X50.51 Y7.843
X50.501 Y7.812
X50.506 Y7.781
X50.524 Y7.755
X50.551 Y7.74
X50.583 Y7.737
X50.612 Y7.748
Z-6.7 F33
X50.615 Y7.75 Z-6.747
X50.624 Y7.756 Z-6.793
X50.639 Y7.767 Z-6.836
X50.657 Y7.783 Z-6.876
X50.678 Y7.805 Z-6.912
X50.7 Y7.834 Z-6.943
X50.72 Y7.868 Z-6.967
X50.736 Y7.909 Z-6.985
X50.746 Y7.953 Z-6.996
X50.75 Y8 Z-7
G3 X49.25 I-0.75 F50
X50.75 I0.75
G1 X50.743 Y8.031
X50.724 Y8.055
X50.696 Y8.07
X50.664 Y8.071
X50.636 Y8.058
X50.615 Y8.034
X50.51 Y7.843
X50.501 Y7.812
X50.506 Y7.781
X50.524 Y7.755
X50.551 Y7.74
X50.583 Y7.737
X50.612 Y7.748
Z-7.7 F33
X50.615 Y7.75 Z-7.747
X50.624 Y7.756 Z-7.793
X50.639 Y7.767 Z-7.836
X50.657 Y7.783 Z-7.876
X50.678 Y7.805 Z-7.912
X50.7 Y7.834 Z-7.943
X50.72 Y7.868 Z-7.967
X50.736 Y7.909 Z-7.985
X50.746 Y7.953 Z-7.996
X50.75 Y8 Z-8
G3 X49.25 I-0.75 F50
X50.75 I0.75
G1 X50.743 Y8.031
X50.724 Y8.055
X50.696 Y8.07
X50.664 Y8.071
X50.636 Y8.058
X50.615 Y8.034
X50.51 Y7.843
X50.501 Y7.812
X50.506 Y7.781
X50.524 Y7.755
X50.551 Y7.74
X50.583 Y7.737
X50.612 Y7.748
Z-8.7 F33
X50.615 Y7.75 Z-8.747
X50.624 Y7.756 Z-8.793
X50.639 Y7.767 Z-8.836
X50.657 Y7.783 Z-8.876
X50.678 Y7.805 Z-8.912
X50.7 Y7.834 Z-8.943
X50.72 Y7.868 Z-8.967
X50.736 Y7.909 Z-8.985
X50.746 Y7.953 Z-8.996
X50.75 Y8 Z-9
G3 X49.25 I-0.75 F50
X50.75 I0.75
G1 X50.746 Y8.047 Z-8.996
X50.736 Y8.091 Z-8.985
X50.72 Y8.132 Z-8.967
X50.7 Y8.166 Z-8.943
X50.678 Y8.195 Z-8.912
X50.657 Y8.217 Z-8.876
X50.639 Y8.233 Z-8.836
X50.624 Y8.244 Z-8.793
X50.615 Y8.25 Z-8.747
X50.612 Y8.252 Z-8.7
G0 Z2
X100.612 Y7.748
G1 Z-0.7 F33
X100.615 Y7.75 Z-0.747
X100.624 Y7.756 Z-0.793
X100.639 Y7.767 Z-0.836
X100.657 Y7.783 Z-0.876
X100.678 Y7.805 Z-0.912
X100.7 Y7.834 Z-0.943
X100.72 Y7.868 Z-0.967
X100.736 Y7.909 Z-0.985
X100.746 Y7.953 Z-0.996
X100.75 Y8 Z-1
G3 X99.25 I-0.75 F50
X100.75 I0.75
G1 X100.743 Y8.031
X100.724 Y8.055
X100.696 Y8.07
X100.664 Y8.071
X100.636 Y8.058
X100.615 Y8.034
X100.51 Y7.843
X100.501 Y7.812
X100.506 Y7.781
X100.524 Y7.755
X100.551 Y7.74
X100.583 Y7.737
X100.612 Y7.748
Z-1.7 F33
X100.615 Y7.75 Z-1.747
X100.624 Y7.756 Z-1.793
X100.639 Y7.767 Z-1.836
X100.657 Y7.783 Z-1.876
X100.678 Y7.805 Z-1.912
X100.7 Y7.834 Z-1.943
X100.72 Y7.868 Z-1.967
X100.736 Y7.909 Z-1.985
X100.746 Y7.953 Z-1.996
X100.75 Y8 Z-2
G3 X99.25 I-0.75 F50
X100.75 I0.75
G1 X100.743 Y8.031
X100.724 Y8.055
X100.696 Y8.07
X100.664 Y8.071
X100.636 Y8.058
X100.615 Y8.034
X100.51 Y7.843
X100.501 Y7.812
X100.506 Y7.781
X100.524 Y7.755
X100.551 Y7.74
X100.583 Y7.737
X100.612 Y7.748
Z-2.7 F33
X100.615 Y7.75 Z-2.747
X100.624 Y7.756 Z-2.793
X100.639 Y7.767 Z-2.836
X100.657 Y7.783 Z-2.876
X100.678 Y7.805 Z-2.912
X100.7 Y7.834 Z-2.943
X100.72 Y7.868 Z-2.967
X100.736 Y7.909 Z-2.985
X100.746 Y7.953 Z-2.996
X100.75 Y8 Z-3
G3 X99.25 I-0.75 F50
X100.75 I0.75
G1 X100.743 Y8.031
X100.724 Y8.055
X100.696 Y8.07
X100.664 Y8.071
X100.636 Y8.058
X100.615 Y8.034
X100.51 Y7.843
X100.501 Y7.812
X100.506 Y7.781
X100.524 Y7.755
X100.551 Y7.74
X100.583 Y7.737
X100.612 Y7.748
Z-3.7 F33
X100.615 Y7.75 Z-3.747
X100.624 Y7.756 Z-3.793
X100.639 Y7.767 Z-3.836
X100.657 Y7.783 Z-3.876
X100.678 Y7.805 Z-3.912
X100.7 Y7.834 Z-3.943
X100.72 Y7.868 Z-3.967
X100.736 Y7.909 Z-3.985
X100.746 Y7.953 Z-3.996
X100.75 Y8 Z-4
G3 X99.25 I-0.75 F50
X100.75 I0.75
G1 X100.743 Y8.031
X100.724 Y8.055
X100.696 Y8.07
X100.664 Y8.071
X100.636 Y8.058
X100.615 Y8.034
X100.51 Y7.843
X100.501 Y7.812
X100.506 Y7.781
X100.524 Y7.755
X100.551 Y7.74
X100.583 Y7.737
X100.612 Y7.748
Z-4.7 F33
X100.615 Y7.75 Z-4.747
X100.624 Y7.756 Z-4.793
X100.639 Y7.767 Z-4.836
X100.657 Y7.783 Z-4.876
X100.678 Y7.805 Z-4.912
X100.7 Y7.834 Z-4.943
X100.72 Y7.868 Z-4.967
X100.736 Y7.909 Z-4.985
X100.746 Y7.953 Z-4.996
X100.75 Y8 Z-5
G3 X99.25 I-0.75 F50
X100.75 I0.75
G1 X100.743 Y8.031
X100.724 Y8.055
X100.696 Y8.07
X100.664 Y8.071
X100.636 Y8.058
X100.615 Y8.034
X100.51 Y7.843
X100.501 Y7.812
X100.506 Y7.781
X100.524 Y7.755
X100.551 Y7.74
X100.583 Y7.737
X100.612 Y7.748
Z-5.7 F33
X100.615 Y7.75 Z-5.747
X100.624 Y7.756 Z-5.793
X100.639 Y7.767 Z-5.836
X100.657 Y7.783 Z-5.876
X100.678 Y7.805 Z-5.912
X100.7 Y7.834 Z-5.943
X100.72 Y7.868 Z-5.967
X100.736 Y7.909 Z-5.985
X100.746 Y7.953 Z-5.996
X100.75 Y8 Z-6
G3 X99.25 I-0.75 F50
X100.75 I0.75
G1 X100.743 Y8.031
X100.724 Y8.055
X100.696 Y8.07
X100.664 Y8.071
X100.636 Y8.058
X100.615 Y8.034
X100.51 Y7.843
X100.501 Y7.812
X100.506 Y7.781
X100.524 Y7.755
X100.551 Y7.74
X100.583 Y7.737
X100.612 Y7.748
Z-6.7 F33
X100.615 Y7.75 Z-6.747
X100.624 Y7.756 Z-6.793
X100.639 Y7.767 Z-6.836
X100.657 Y7.783 Z-6.876
X100.678 Y7.805 Z-6.912
X100.7 Y7.834 Z-6.943
X100.72 Y7.868 Z-6.967
X100.736 Y7.909 Z-6.985
X100.746 Y7.953 Z-6.996
X100.75 Y8 Z-7
G3 X99.25 I-0.75 F50
X100.75 I0.75
G1 X100.743 Y8.031
X100.724 Y8.055
X100.696 Y8.07
X100.664 Y8.071
X100.636 Y8.058
X100.615 Y8.034
X100.51 Y7.843
X100.501 Y7.812
X100.506 Y7.781
X100.524 Y7.755
X100.551 Y7.74
X100.583 Y7.737
X100.612 Y7.748
Z-7.7 F33
X100.615 Y7.75 Z-7.747
X100.624 Y7.756 Z-7.793
X100.639 Y7.767 Z-7.836
X100.657 Y7.783 Z-7.876
X100.678 Y7.805 Z-7.912
X100.7 Y7.834 Z-7.943
X100.72 Y7.868 Z-7.967
X100.736 Y7.909 Z-7.985
X100.746 Y7.953 Z-7.996
X100.75 Y8 Z-8
G3 X99.25 I-0.75 F50
X100.75 I0.75
G1 X100.743 Y8.031
X100.724 Y8.055
X100.696 Y8.07
X100.664 Y8.071
X100.636 Y8.058
X100.615 Y8.034
X100.51 Y7.843
X100.501 Y7.812
X100.506 Y7.781
X100.524 Y7.755
X100.551 Y7.74
X100.583 Y7.737
X100.612 Y7.748
Z-8.7 F33
X100.615 Y7.75 Z-8.747
X100.624 Y7.756 Z-8.793
X100.639 Y7.767 Z-8.836
X100.657 Y7.783 Z-8.876
X100.678 Y7.805 Z-8.912
X100.7 Y7.834 Z-8.943
X100.72 Y7.868 Z-8.967
X100.736 Y7.909 Z-8.985
X100.746 Y7.953 Z-8.996
X100.75 Y8 Z-9
G3 X99.25 I-0.75 F50
X100.75 I0.75
G1 X100.746 Y8.047 Z-8.996
X100.736 Y8.091 Z-8.985
X100.72 Y8.132 Z-8.967
X100.7 Y8.166 Z-8.943
X100.678 Y8.195 Z-8.912
X100.657 Y8.217 Z-8.876
X100.639 Y8.233 Z-8.836
X100.624 Y8.244 Z-8.793
X100.615 Y8.25 Z-8.747
X100.612 Y8.252 Z-8.7
G0 Z2
X132.612 Y7.748
G1 Z-0.7 F33
X132.615 Y7.75 Z-0.747
X132.624 Y7.756 Z-0.793
X132.639 Y7.767 Z-0.836
X132.657 Y7.783 Z-0.876
X132.678 Y7.805 Z-0.912
X132.7 Y7.834 Z-0.943
X132.72 Y7.868 Z-0.967
X132.736 Y7.909 Z-0.985
X132.746 Y7.953 Z-0.996
X132.75 Y8 Z-1
G3 X131.25 I-0.75 F50
X132.75 I0.75
G1 X132.743 Y8.031
X132.724 Y8.055
X132.696 Y8.07
X132.664 Y8.071
X132.636 Y8.058
X132.615 Y8.034
X132.51 Y7.843
X132.501 Y7.812
X132.506 Y7.781
X132.524 Y7.755
X132.551 Y7.74
X132.583 Y7.737
X132.612 Y7.748
Z-1.7 F33
X132.615 Y7.75 Z-1.747
X132.624 Y7.756 Z-1.793
X132.639 Y7.767 Z-1.836
X132.657 Y7.783 Z-1.876
X132.678 Y7.805 Z-1.912
X132.7 Y7.834 Z-1.943
X132.72 Y7.868 Z-1.967
X132.736 Y7.909 Z-1.985
X132.746 Y7.953 Z-1.996
X132.75 Y8 Z-2
G3 X131.25 I-0.75 F50
X132.75 I0.75
G1 X132.743 Y8.031
X132.724 Y8.055
X132.696 Y8.07
X132.664 Y8.071
X132.636 Y8.058
X132.615 Y8.034
X132.51 Y7.843
X132.501 Y7.812
X132.506 Y7.781
X132.524 Y7.755
X132.551 Y7.74
X132.583 Y7.737
X132.612 Y7.748
Z-2.7 F33
X132.615 Y7.75 Z-2.747
X132.624 Y7.756 Z-2.793
X132.639 Y7.767 Z-2.836
X132.657 Y7.783 Z-2.876
X132.678 Y7.805 Z-2.912
X132.7 Y7.834 Z-2.943
X132.72 Y7.868 Z-2.967
X132.736 Y7.909 Z-2.985
X132.746 Y7.953 Z-2.996
X132.75 Y8 Z-3
G3 X131.25 I-0.75 F50
X132.75 I0.75
G1 X132.743 Y8.031
X132.724 Y8.055
X132.696 Y8.07
X132.664 Y8.071
X132.636 Y8.058
X132.615 Y8.034
X132.51 Y7.843
X132.501 Y7.812
X132.506 Y7.781
X132.524 Y7.755
X132.551 Y7.74
X132.583 Y7.737
X132.612 Y7.748
Z-3.7 F33
X132.615 Y7.75 Z-3.747
X132.624 Y7.756 Z-3.793
X132.639 Y7.767 Z-3.836
X132.657 Y7.783 Z-3.876
X132.678 Y7.805 Z-3.912
X132.7 Y7.834 Z-3.943
X132.72 Y7.868 Z-3.967
X132.736 Y7.909 Z-3.985
X132.746 Y7.953 Z-3.996
X132.75 Y8 Z-4
G3 X131.25 I-0.75 F50
X132.75 I0.75
G1 X132.743 Y8.031
X132.724 Y8.055
X132.696 Y8.07
X132.664 Y8.071
X132.636 Y8.058
X132.615 Y8.034
X132.51 Y7.843
X132.501 Y7.812
X132.506 Y7.781
X132.524 Y7.755
X132.551 Y7.74
X132.583 Y7.737
X132.612 Y7.748
Z-4.7 F33
X132.615 Y7.75 Z-4.747
X132.624 Y7.756 Z-4.793
X132.639 Y7.767 Z-4.836
X132.657 Y7.783 Z-4.876
X132.678 Y7.805 Z-4.912
X132.7 Y7.834 Z-4.943
X132.72 Y7.868 Z-4.967
X132.736 Y7.909 Z-4.985
X132.746 Y7.953 Z-4.996
X132.75 Y8 Z-5
G3 X131.25 I-0.75 F50
X132.75 I0.75
G1 X132.743 Y8.031
X132.724 Y8.055
X132.696 Y8.07
X132.664 Y8.071
X132.636 Y8.058
X132.615 Y8.034
X132.51 Y7.843
X132.501 Y7.812
X132.506 Y7.781
X132.524 Y7.755
X132.551 Y7.74
X132.583 Y7.737
X132.612 Y7.748
Z-5.7 F33
X132.615 Y7.75 Z-5.747
X132.624 Y7.756 Z-5.793
X132.639 Y7.767 Z-5.836
X132.657 Y7.783 Z-5.876
X132.678 Y7.805 Z-5.912
X132.7 Y7.834 Z-5.943
X132.72 Y7.868 Z-5.967
X132.736 Y7.909 Z-5.985
X132.746 Y7.953 Z-5.996
X132.75 Y8 Z-6
G3 X131.25 I-0.75 F50
X132.75 I0.75
G1 X132.743 Y8.031
X132.724 Y8.055
X132.696 Y8.07
X132.664 Y8.071
X132.636 Y8.058
X132.615 Y8.034
X132.51 Y7.843
X132.501 Y7.812
X132.506 Y7.781
X132.524 Y7.755
X132.551 Y7.74
X132.583 Y7.737
X132.612 Y7.748
Z-6.7 F33
X132.615 Y7.75 Z-6.747
X132.624 Y7.756 Z-6.793
X132.639 Y7.767 Z-6.836
X132.657 Y7.783 Z-6.876
X132.678 Y7.805 Z-6.912
X132.7 Y7.834 Z-6.943
X132.72 Y7.868 Z-6.967
X132.736 Y7.909 Z-6.985
X132.746 Y7.953 Z-6.996
X132.75 Y8 Z-7
G3 X131.25 I-0.75 F50
X132.75 I0.75
G1 X132.743 Y8.031
X132.724 Y8.055
X132.696 Y8.07
X132.664 Y8.071
X132.636 Y8.058
X132.615 Y8.034
X132.51 Y7.843
X132.501 Y7.812
X132.506 Y7.781
X132.524 Y7.755
X132.551 Y7.74
X132.583 Y7.737
X132.612 Y7.748
Z-7.7 F33
X132.615 Y7.75 Z-7.747
X132.624 Y7.756 Z-7.793
X132.639 Y7.767 Z-7.836
X132.657 Y7.783 Z-7.876
X132.678 Y7.805 Z-7.912
X132.7 Y7.834 Z-7.943
X132.72 Y7.868 Z-7.967
X132.736 Y7.909 Z-7.985
X132.746 Y7.953 Z-7.996
X132.75 Y8 Z-8
G3 X131.25 I-0.75 F50
X132.75 I0.75
G1 X132.743 Y8.031
X132.724 Y8.055
X132.696 Y8.07
X132.664 Y8.071
X132.636 Y8.058
X132.615 Y8.034
X132.51 Y7.843
X132.501 Y7.812
X132.506 Y7.781
X132.524 Y7.755
X132.551 Y7.74
X132.583 Y7.737
X132.612 Y7.748
Z-8.7 F33
X132.615 Y7.75 Z-8.747
X132.624 Y7.756 Z-8.793
X132.639 Y7.767 Z-8.836
X132.657 Y7.783 Z-8.876
X132.678 Y7.805 Z-8.912
X132.7 Y7.834 Z-8.943
X132.72 Y7.868 Z-8.967
X132.736 Y7.909 Z-8.985
X132.746 Y7.953 Z-8.996
X132.75 Y8 Z-9
G3 X131.25 I-0.75 F50
X132.75 I0.75
G1 X132.746 Y8.047 Z-8.996
X132.736 Y8.091 Z-8.985
X132.72 Y8.132 Z-8.967
X132.7 Y8.166 Z-8.943
X132.678 Y8.195 Z-8.912
X132.657 Y8.217 Z-8.876
X132.639 Y8.233 Z-8.836
X132.624 Y8.244 Z-8.793
X132.615 Y8.25 Z-8.747
X132.612 Y8.252 Z-8.7
G0 Z2
X131.748 Y57.388
G1 Z-0.7 F33
X131.75 Y57.385 Z-0.747
X131.756 Y57.376 Z-0.793
X131.767 Y57.361 Z-0.836
X131.783 Y57.343 Z-0.876
X131.805 Y57.322 Z-0.912
X131.834 Y57.3 Z-0.943
X131.868 Y57.28 Z-0.967
X131.909 Y57.264 Z-0.985
X131.953 Y57.254 Z-0.996
X132 Y57.25 Z-1
G3 Y58.75 J0.75 F50
Y57.25 J-0.75
G1 X132.031 Y57.257
X132.055 Y57.276
X132.07 Y57.304
X132.071 Y57.336
X132.058 Y57.364
X132.034 Y57.385
X131.843 Y57.49
X131.812 Y57.499
X131.781 Y57.494
X131.755 Y57.476
X131.74 Y57.449
X131.737 Y57.417
X131.748 Y57.388
Z-1.7 F33
X131.75 Y57.385 Z-1.747
X131.756 Y57.376 Z-1.793
X131.767 Y57.361 Z-1.836
X131.783 Y57.343 Z-1.876
X131.805 Y57.322 Z-1.912
X131.834 Y57.3 Z-1.943
X131.868 Y57.28 Z-1.967
X131.909 Y57.264 Z-1.985
X131.953 Y57.254 Z-1.996
X132 Y57.25 Z-2
G3 Y58.75 J0.75 F50
Y57.25 J-0.75
G1 X132.031 Y57.257
X132.055 Y57.276
X132.07 Y57.304
X132.071 Y57.336
X132.058 Y57.364
X132.034 Y57.385
X131.843 Y57.49
X131.812 Y57.499
X131.781 Y57.494
X131.755 Y57.476
X131.74 Y57.449
X131.737 Y57.417
X131.748 Y57.388
Z-2.7 F33
X131.75 Y57.385 Z-2.747
X131.756 Y57.376 Z-2.793
X131.767 Y57.361 Z-2.836
X131.783 Y57.343 Z-2.876
X131.805 Y57.322 Z-2.912
X131.834 Y57.3 Z-2.943
X131.868 Y57.28 Z-2.967
X131.909 Y57.264 Z-2.985
X131.953 Y57.254 Z-2.996
X132 Y57.25 Z-3
G3 Y58.75 J0.75 F50
Y57.25 J-0.75
G1 X132.031 Y57.257
X132.055 Y57.276
X132.07 Y57.304
X132.071 Y57.336
X132.058 Y57.364
X132.034 Y57.385
X131.843 Y57.49
X131.812 Y57.499
X131.781 Y57.494
X131.755 Y57.476
X131.74 Y57.449
X131.737 Y57.417
X131.748 Y57.388
Z-3.7 F33
X131.75 Y57.385 Z-3.747
X131.756 Y57.376 Z-3.793
X131.767 Y57.361 Z-3.836
X131.783 Y57.343 Z-3.876
X131.805 Y57.322 Z-3.912
X131.834 Y57.3 Z-3.943
X131.868 Y57.28 Z-3.967
X131.909 Y57.264 Z-3.985
X131.953 Y57.254 Z-3.996
X132 Y57.25 Z-4
G3 Y58.75 J0.75 F50
Y57.25 J-0.75
G1 X132.031 Y57.257
X132.055 Y57.276
X132.07 Y57.304
X132.071 Y57.336
X132.058 Y57.364
X132.034 Y57.385
X131.843 Y57.49
X131.812 Y57.499
X131.781 Y57.494
X131.755 Y57.476
X131.74 Y57.449
X131.737 Y57.417
X131.748 Y57.388
Z-4.7 F33
X131.75 Y57.385 Z-4.747
X131.756 Y57.376 Z-4.793
X131.767 Y57.361 Z-4.836
X131.783 Y57.343 Z-4.876
X131.805 Y57.322 Z-4.912
X131.834 Y57.3 Z-4.943
X131.868 Y57.28 Z-4.967
X131.909 Y57.264 Z-4.985
X131.953 Y57.254 Z-4.996
X132 Y57.25 Z-5
G3 Y58.75 J0.75 F50
Y57.25 J-0.75
G1 X132.031 Y57.257
X132.055 Y57.276
X132.07 Y57.304
X132.071 Y57.336
X132.058 Y57.364
X132.034 Y57.385
X131.843 Y57.49
X131.812 Y57.499
X131.781 Y57.494
X131.755 Y57.476
X131.74 Y57.449
X131.737 Y57.417
X131.748 Y57.388
Z-5.7 F33
X131.75 Y57.385 Z-5.747
X131.756 Y57.376 Z-5.793
X131.767 Y57.361 Z-5.836
X131.783 Y57.343 Z-5.876
X131.805 Y57.322 Z-5.912
X131.834 Y57.3 Z-5.943
X131.868 Y57.28 Z-5.967
X131.909 Y57.264 Z-5.985
X131.953 Y57.254 Z-5.996
X132 Y57.25 Z-6
G3 Y58.75 J0.75 F50
Y57.25 J-0.75
G1 X132.031 Y57.257
X132.055 Y57.276
X132.07 Y57.304
X132.071 Y57.336
X132.058 Y57.364
X132.034 Y57.385
X131.843 Y57.49
X131.812 Y57.499
X131.781 Y57.494
X131.755 Y57.476
X131.74 Y57.449
X131.737 Y57.417
X131.748 Y57.388
Z-6.7 F33
X131.75 Y57.385 Z-6.747
X131.756 Y57.376 Z-6.793
X131.767 Y57.361 Z-6.836
X131.783 Y57.343 Z-6.876
X131.805 Y57.322 Z-6.912
X131.834 Y57.3 Z-6.943
X131.868 Y57.28 Z-6.967
X131.909 Y57.264 Z-6.985
X131.953 Y57.254 Z-6.996
X132 Y57.25 Z-7
G3 Y58.75 J0.75 F50
Y57.25 J-0.75
G1 X132.031 Y57.257
X132.055 Y57.276
X132.07 Y57.304
X132.071 Y57.336
X132.058 Y57.364
X132.034 Y57.385
X131.843 Y57.49
X131.812 Y57.499
X131.781 Y57.494
X131.755 Y57.476
X131.74 Y57.449
X131.737 Y57.417
X131.748 Y57.388
Z-7.7 F33
X131.75 Y57.385 Z-7.747
X131.756 Y57.376 Z-7.793
X131.767 Y57.361 Z-7.836
X131.783 Y57.343 Z-7.876
X131.805 Y57.322 Z-7.912
X131.834 Y57.3 Z-7.943
X131.868 Y57.28 Z-7.967
X131.909 Y57.264 Z-7.985
X131.953 Y57.254 Z-7.996
X132 Y57.25 Z-8
G3 Y58.75 J0.75 F50
Y57.25 J-0.75
G1 X132.031 Y57.257
X132.055 Y57.276
X132.07 Y57.304
X132.071 Y57.336
X132.058 Y57.364
X132.034 Y57.385
X131.843 Y57.49
X131.812 Y57.499
X131.781 Y57.494
X131.755 Y57.476
X131.74 Y57.449
X131.737 Y57.417
X131.748 Y57.388
Z-8.7 F33
X131.75 Y57.385 Z-8.747
X131.756 Y57.376 Z-8.793
X131.767 Y57.361 Z-8.836
X131.783 Y57.343 Z-8.876
X131.805 Y57.322 Z-8.912
X131.834 Y57.3 Z-8.943
X131.868 Y57.28 Z-8.967
X131.909 Y57.264 Z-8.985
X131.953 Y57.254 Z-8.996
X132 Y57.25 Z-9
G3 Y58.75 J0.75 F50
Y57.25 J-0.75
G1 X132.047 Y57.254 Z-8.996
X132.091 Y57.264 Z-8.985
X132.132 Y57.28 Z-8.967
X132.166 Y57.3 Z-8.943
X132.195 Y57.322 Z-8.912
X132.217 Y57.343 Z-8.876
X132.233 Y57.361 Z-8.836
X132.244 Y57.376 Z-8.793
X132.25 Y57.385 Z-8.747
X132.252 Y57.388 Z-8.7
G0 Z2
X99.748
G1 Z-0.7 F33
X99.75 Y57.385 Z-0.747
X99.756 Y57.376 Z-0.793
X99.767 Y57.361 Z-0.836
X99.783 Y57.343 Z-0.876
X99.805 Y57.322 Z-0.912
X99.834 Y57.3 Z-0.943
X99.868 Y57.28 Z-0.967
X99.909 Y57.264 Z-0.985
X99.953 Y57.254 Z-0.996
X100 Y57.25 Z-1
G3 Y58.75 J0.75 F50
Y57.25 J-0.75
G1 X100.031 Y57.257
X100.055 Y57.276
X100.07 Y57.304
X100.071 Y57.336
X100.058 Y57.364
X100.034 Y57.385
X99.843 Y57.49
X99.812 Y57.499
X99.781 Y57.494
X99.755 Y57.476
X99.74 Y57.449
X99.737 Y57.417
X99.748 Y57.388
Z-1.7 F33
X99.75 Y57.385 Z-1.747
X99.756 Y57.376 Z-1.793
X99.767 Y57.361 Z-1.836
X99.783 Y57.343 Z-1.876
X99.805 Y57.322 Z-1.912
X99.834 Y57.3 Z-1.943
X99.868 Y57.28 Z-1.967
X99.909 Y57.264 Z-1.985
X99.953 Y57.254 Z-1.996
X100 Y57.25 Z-2
G3 Y58.75 J0.75 F50
Y57.25 J-0.75
G1 X100.031 Y57.257
X100.055 Y57.276
X100.07 Y57.304
X100.071 Y57.336
X100.058 Y57.364
X100.034 Y57.385
X99.843 Y57.49
X99.812 Y57.499
X99.781 Y57.494
X99.755 Y57.476
X99.74 Y57.449
X99.737 Y57.417
X99.748 Y57.388
Z-2.7 F33
X99.75 Y57.385 Z-2.747
X99.756 Y57.376 Z-2.793
X99.767 Y57.361 Z-2.836
X99.783 Y57.343 Z-2.876
X99.805 Y57.322 Z-2.912
X99.834 Y57.3 Z-2.943
X99.868 Y57.28 Z-2.967
X99.909 Y57.264 Z-2.985
X99.953 Y57.254 Z-2.996
X100 Y57.25 Z-3
G3 Y58.75 J0.75 F50
Y57.25 J-0.75
G1 X100.031 Y57.257
X100.055 Y57.276
X100.07 Y57.304
X100.071 Y57.336
X100.058 Y57.364
X100.034 Y57.385
X99.843 Y57.49
X99.812 Y57.499
X99.781 Y57.494
X99.755 Y57.476
X99.74 Y57.449
X99.737 Y57.417
X99.748 Y57.388
Z-3.7 F33
X99.75 Y57.385 Z-3.747
X99.756 Y57.376 Z-3.793
X99.767 Y57.361 Z-3.836
X99.783 Y57.343 Z-3.876
X99.805 Y57.322 Z-3.912
X99.834 Y57.3 Z-3.943
X99.868 Y57.28 Z-3.967
X99.909 Y57.264 Z-3.985
X99.953 Y57.254 Z-3.996
X100 Y57.25 Z-4
G3 Y58.75 J0.75 F50
Y57.25 J-0.75
G1 X100.031 Y57.257
X100.055 Y57.276
X100.07 Y57.304
X100.071 Y57.336
X100.058 Y57.364
X100.034 Y57.385
X99.843 Y57.49
X99.812 Y57.499
X99.781 Y57.494
X99.755 Y57.476
X99.74 Y57.449
X99.737 Y57.417
X99.748 Y57.388
Z-4.7 F33
X99.75 Y57.385 Z-4.747
X99.756 Y57.376 Z-4.793
X99.767 Y57.361 Z-4.836
X99.783 Y57.343 Z-4.876
X99.805 Y57.322 Z-4.912
X99.834 Y57.3 Z-4.943
X99.868 Y57.28 Z-4.967
X99.909 Y57.264 Z-4.985
X99.953 Y57.254 Z-4.996
X100 Y57.25 Z-5
G3 Y58.75 J0.75 F50
Y57.25 J-0.75
G1 X100.031 Y57.257
X100.055 Y57.276
X100.07 Y57.304
X100.071 Y57.336
X100.058 Y57.364
X100.034 Y57.385
X99.843 Y57.49
X99.812 Y57.499
X99.781 Y57.494
X99.755 Y57.476
X99.74 Y57.449
X99.737 Y57.417
X99.748 Y57.388
Z-5.7 F33
X99.75 Y57.385 Z-5.747
X99.756 Y57.376 Z-5.793
X99.767 Y57.361 Z-5.836
X99.783 Y57.343 Z-5.876
X99.805 Y57.322 Z-5.912
X99.834 Y57.3 Z-5.943
X99.868 Y57.28 Z-5.967
X99.909 Y57.264 Z-5.985
X99.953 Y57.254 Z-5.996
X100 Y57.25 Z-6
G3 Y58.75 J0.75 F50
Y57.25 J-0.75
G1 X100.031 Y57.257
X100.055 Y57.276
X100.07 Y57.304
X100.071 Y57.336
X100.058 Y57.364
X100.034 Y57.385
X99.843 Y57.49
X99.812 Y57.499
X99.781 Y57.494
X99.755 Y57.476
X99.74 Y57.449
X99.737 Y57.417
X99.748 Y57.388
Z-6.7 F33
X99.75 Y57.385 Z-6.747
X99.756 Y57.376 Z-6.793
X99.767 Y57.361 Z-6.836
X99.783 Y57.343 Z-6.876
X99.805 Y57.322 Z-6.912
X99.834 Y57.3 Z-6.943
X99.868 Y57.28 Z-6.967
X99.909 Y57.264 Z-6.985
X99.953 Y57.254 Z-6.996
X100 Y57.25 Z-7
G3 Y58.75 J0.75 F50
Y57.25 J-0.75
G1 X100.031 Y57.257
X100.055 Y57.276
X100.07 Y57.304
X100.071 Y57.336
X100.058 Y57.364
X100.034 Y57.385
X99.843 Y57.49
X99.812 Y57.499
X99.781 Y57.494
X99.755 Y57.476
X99.74 Y57.449
X99.737 Y57.417
X99.748 Y57.388
Z-7.7 F33
X99.75 Y57.385 Z-7.747
X99.756 Y57.376 Z-7.793
X99.767 Y57.361 Z-7.836
X99.783 Y57.343 Z-7.876
X99.805 Y57.322 Z-7.912
X99.834 Y57.3 Z-7.943
X99.868 Y57.28 Z-7.967
X99.909 Y57.264 Z-7.985
X99.953 Y57.254 Z-7.996
X100 Y57.25 Z-8
G3 Y58.75 J0.75 F50
Y57.25 J-0.75
G1 X100.031 Y57.257
X100.055 Y57.276
X100.07 Y57.304
X100.071 Y57.336
X100.058 Y57.364
X100.034 Y57.385
X99.843 Y57.49
X99.812 Y57.499
X99.781 Y57.494
X99.755 Y57.476
X99.74 Y57.449
X99.737 Y57.417
X99.748 Y57.388
Z-8.7 F33
X99.75 Y57.385 Z-8.747
X99.756 Y57.376 Z-8.793
X99.767 Y57.361 Z-8.836
X99.783 Y57.343 Z-8.876
X99.805 Y57.322 Z-8.912
X99.834 Y57.3 Z-8.943
X99.868 Y57.28 Z-8.967
X99.909 Y57.264 Z-8.985
X99.953 Y57.254 Z-8.996
X100 Y57.25 Z-9
G3 Y58.75 J0.75 F50
Y57.25 J-0.75
G1 X100.047 Y57.254 Z-8.996
X100.091 Y57.264 Z-8.985
X100.132 Y57.28 Z-8.967
X100.166 Y57.3 Z-8.943
X100.195 Y57.322 Z-8.912
X100.217 Y57.343 Z-8.876
X100.233 Y57.361 Z-8.836
X100.244 Y57.376 Z-8.793
X100.25 Y57.385 Z-8.747
X100.252 Y57.388 Z-8.7
G0 Z5

(2D Contour1)
X148.576 Y-2.4
Z5
Z2
G1 Z-0.7 F33
G19 G3 Y-2.1 Z-1 J0.3
G1 Y-1.8 F30
G17 G3 X148.276 Y-1.5 I-0.3
G1 X0 F60
G2 X-1.5 Y0 J1.5
G1 Y66
G2 X0 Y67.5 I1.5
G1 X150
G2 X151.5 Y66 J-1.5
G1 Y0
G2 X150 Y-1.5 I-1.5
G1 X148.276
G3 X147.976 Y-1.8 J-0.3
G1 Y-2.1
G19 G2 Y-2.4 Z-0.7 K0.3
G1 X148.576
Z-1.7 F33
G3 Y-2.1 Z-2 J0.3
G1 Y-1.8 F30
G17 G3 X148.276 Y-1.5 I-0.3
G1 X0 F60
G2 X-1.5 Y0 J1.5
G1 Y66
G2 X0 Y67.5 I1.5
G1 X150
G2 X151.5 Y66 J-1.5
G1 Y0
G2 X150 Y-1.5 I-1.5
G1 X148.276
G3 X147.976 Y-1.8 J-0.3
G1 Y-2.1
G19 G2 Y-2.4 Z-1.7 K0.3
G1 X148.576
Z-2.7 F33
G3 Y-2.1 Z-3 J0.3
G1 Y-1.8 F30
G17 G3 X148.276 Y-1.5 I-0.3
G1 X0 F60
G2 X-1.5 Y0 J1.5
G1 Y66
G2 X0 Y67.5 I1.5
G1 X150
G2 X151.5 Y66 J-1.5
G1 Y0
G2 X150 Y-1.5 I-1.5
G1 X148.276
G3 X147.976 Y-1.8 J-0.3
G1 Y-2.1
G19 G2 Y-2.4 Z-2.7 K0.3
G1 X148.576
Z-3.7 F33
G3 Y-2.1 Z-4 J0.3
G1 Y-1.8 F30
G17 G3 X148.276 Y-1.5 I-0.3
G1 X0 F60
G2 X-1.5 Y0 J1.5
G1 Y66
G2 X0 Y67.5 I1.5
G1 X150
G2 X151.5 Y66 J-1.5
G1 Y0
G2 X150 Y-1.5 I-1.5
G1 X148.276
G3 X147.976 Y-1.8 J-0.3
G1 Y-2.1
G19 G2 Y-2.4 Z-3.7 K0.3
G1 X148.576
Z-4.7 F33
G3 Y-2.1 Z-5 J0.3
G1 Y-1.8 F30
G17 G3 X148.276 Y-1.5 I-0.3
G1 X0 F60
G2 X-1.5 Y0 J1.5
G1 Y66
G2 X0 Y67.5 I1.5
G1 X150
G2 X151.5 Y66 J-1.5
G1 Y0
G2 X150 Y-1.5 I-1.5
G1 X148.276
G3 X147.976 Y-1.8 J-0.3
G1 Y-2.1
G19 G2 Y-2.4 Z-4.7 K0.3
G1 X148.576
Z-5.7 F33
G3 Y-2.1 Z-6 J0.3
G1 Y-1.8 F30
G17 G3 X148.276 Y-1.5 I-0.3
G1 X0 F60
G2 X-1.5 Y0 J1.5
G1 Y66
G2 X0 Y67.5 I1.5
G1 X150
G2 X151.5 Y66 J-1.5
G1 Y0
G2 X150 Y-1.5 I-1.5
G1 X148.276
G3 X147.976 Y-1.8 J-0.3
G1 Y-2.1
G19 G2 Y-2.4 Z-5.7 K0.3
G1 X148.576
Z-6.7 F33
G3 Y-2.1 Z-7 J0.3
G1 Y-1.8 F30
G17 G3 X148.276 Y-1.5 I-0.3
G1 X0 F60
G2 X-1.5 Y0 J1.5
G1 Y66
G2 X0 Y67.5 I1.5
G1 X150
G2 X151.5 Y66 J-1.5
G1 Y0
G2 X150 Y-1.5 I-1.5
G1 X148.276
G3 X147.976 Y-1.8 J-0.3
G1 Y-2.1
G19 G2 Y-2.4 Z-6.7 K0.3
G1 X148.576
Z-7.7 F33
G3 Y-2.1 Z-8 J0.3
G1 Y-1.8 F30
G17 G3 X148.276 Y-1.5 I-0.3
G1 X0 F60
G2 X-1.5 Y0 J1.5
G1 Y66
G2 X0 Y67.5 I1.5
G1 X150
G2 X151.5 Y66 J-1.5
G1 Y0
G2 X150 Y-1.5 I-1.5
G1 X148.276
G3 X147.976 Y-1.8 J-0.3
G1 Y-2.1
G19 G2 Y-2.4 Z-7.7 K0.3
G1 X148.576
Z-8.7 F33
G3 Y-2.1 Z-9 J0.3
G1 Y-1.8 F30
G17 G3 X148.276 Y-1.5 I-0.3
G1 X0 F60
G2 X-1.5 Y0 J1.5
G1 Y66
G2 X0 Y67.5 I1.5
G1 X150
G2 X151.5 Y66 J-1.5
G1 Y0
G2 X150 Y-1.5 I-1.5
G1 X148.276
G3 X147.976 Y-1.8 J-0.3
G1 Y-2.1
G19 G2 Y-2.4 Z-8.7 K0.3
G0 Z5
G17
M9
G28 G91 Z0
G90
G28 G91 X0 Y0
G90
M30
%
