%
(1001)
(T1  D=3 CR=0.75 - ZMIN=-17 - bullnose end mill)
G90 G94
G17
G21
G28 G91 Z0.5
G90

(2D Contour1)
M9
T1 M6
S1000 M3
G54
M8
G0 X3 Y-0.3
Z2
G1 Z-0.7 F33
G18 G2 X3.3 Z-1 I0.3
G1 X3.6 F30
G17 G3 X3.9 Y0 J0.3
X-3.9 I-3.9 F50
X3.9 I3.9
X3.6 Y0.3 I-0.3 F100
G1 X3.3
G18 G3 X3 Z-0.7 K0.3
G1 Y-0.3 F50
Z-1.7 F33
G2 X3.3 Z-2 I0.3
G1 X3.6 F30
G17 G3 X3.9 Y0 J0.3
X-3.9 I-3.9 F50
X3.9 I3.9
X3.6 Y0.3 I-0.3 F100
G1 X3.3
G18 G3 X3 Z-1.7 K0.3
G1 Y-0.3 F50
Z-2.7 F33
G2 X3.3 Z-3 I0.3
G1 X3.6 F30
G17 G3 X3.9 Y0 J0.3
X-3.9 I-3.9 F50
X3.9 I3.9
X3.6 Y0.3 I-0.3 F100
G1 X3.3
G18 G3 X3 Z-2.7 K0.3
G1 Y-0.3 F50
Z-3.7 F33
G2 X3.3 Z-4 I0.3
G1 X3.6 F30
G17 G3 X3.9 Y0 J0.3
X-3.9 I-3.9 F50
X3.9 I3.9
X3.6 Y0.3 I-0.3 F100
G1 X3.3
G18 G3 X3 Z-3.7 K0.3
G1 Y-0.3 F50
Z-4.7 F33
G2 X3.3 Z-5 I0.3
G1 X3.6 F30
G17 G3 X3.9 Y0 J0.3
X-3.9 I-3.9 F50
X3.9 I3.9
X3.6 Y0.3 I-0.3 F100
G1 X3.3
G18 G3 X3 Z-4.7 K0.3
G1 Y-0.3 F50
Z-5.7 F33
G2 X3.3 Z-6 I0.3
G1 X3.6 F30
G17 G3 X3.9 Y0 J0.3
X-3.9 I-3.9 F50
X3.9 I3.9
X3.6 Y0.3 I-0.3 F100
G1 X3.3
G18 G3 X3 Z-5.7 K0.3
G1 Y-0.3 F50
Z-6.7 F33
G2 X3.3 Z-7 I0.3
G1 X3.6 F30
G17 G3 X3.9 Y0 J0.3
X-3.9 I-3.9 F50
X3.9 I3.9
X3.6 Y0.3 I-0.3 F100
G1 X3.3
G18 G3 X3 Z-6.7 K0.3
G1 Y-0.3 F50
Z-7.7 F33
G2 X3.3 Z-8 I0.3
G1 X3.6 F30
G17 G3 X3.9 Y0 J0.3
X-3.9 I-3.9 F50
X3.9 I3.9
X3.6 Y0.3 I-0.3 F100
G1 X3.3
G18 G3 X3 Z-7.7 K0.3
G1 Y-0.3 F50
Z-8.7 F33
G2 X3.3 Z-9 I0.3
G1 X3.6 F30
G17 G3 X3.9 Y0 J0.3
X-3.9 I-3.9 F50
X3.9 I3.9
X3.6 Y0.3 I-0.3 F100
G1 X3.3
G18 G3 X3 Z-8.7 K0.3
G1 Y-0.3 F50
Z-9.7 F33
G2 X3.3 Z-10 I0.3
G1 X3.6 F30
G17 G3 X3.9 Y0 J0.3
X-3.9 I-3.9 F50
X3.9 I3.9
X3.6 Y0.3 I-0.3 F100
G1 X3.3
G18 G3 X3 Z-9.7 K0.3
G1 Y-0.3 F50
Z-10.7 F33
G2 X3.3 Z-11 I0.3
G1 X3.6 F30
G17 G3 X3.9 Y0 J0.3
X-3.9 I-3.9 F50
X3.9 I3.9
X3.6 Y0.3 I-0.3 F100
G1 X3.3
G18 G3 X3 Z-10.7 K0.3
G1 Y-0.3 F50
Z-11.7 F33
G2 X3.3 Z-12 I0.3
G1 X3.6 F30
G17 G3 X3.9 Y0 J0.3
X-3.9 I-3.9 F50
X3.9 I3.9
X3.6 Y0.3 I-0.3 F100
G1 X3.3
G18 G3 X3 Z-11.7 K0.3
G1 Y-0.3 F50
Z-12.7 F33
G2 X3.3 Z-13 I0.3
G1 X3.6 F30
G17 G3 X3.9 Y0 J0.3
X-3.9 I-3.9 F50
X3.9 I3.9
X3.6 Y0.3 I-0.3 F100
G1 X3.3
G18 G3 X3 Z-12.7 K0.3
G1 Y-0.3 F50
Z-13.7 F33
G2 X3.3 Z-14 I0.3
G1 X3.6 F30
G17 G3 X3.9 Y0 J0.3
X-3.9 I-3.9 F50
X3.9 I3.9
X3.6 Y0.3 I-0.3 F100
G1 X3.3
G18 G3 X3 Z-13.7 K0.3
G1 Y-0.3 F50
Z-14.7 F33
G2 X3.3 Z-15 I0.3
G1 X3.6 F30
G17 G3 X3.9 Y0 J0.3
X-3.9 I-3.9 F50
X3.9 I3.9
X3.6 Y0.3 I-0.3 F100
G1 X3.3
G18 G3 X3 Z-14.7 K0.3
G1 Y-0.3 F50
Z-15.7 F33
G2 X3.3 Z-16 I0.3
G1 X3.6 F30
G17 G3 X3.9 Y0 J0.3
X-3.9 I-3.9 F50
X3.9 I3.9
X3.6 Y0.3 I-0.3 F100
G1 X3.3
G18 G3 X3 Z-15.7 K0.3
G1 Y-0.3 F50
Z-16.7 F33
G2 X3.3 Z-17 I0.3
G1 X3.6 F30
G17 G3 X3.9 Y0 J0.3
X-3.9 I-3.9 F50
X3.9 I3.9
X3.6 Y0.3 I-0.3 F100
G1 X3.3
G18 G3 X3 Z-16.7 K0.3
G0 Z1.7
G17
M9
G28 G91 Z0
G90
G28 G91 X0 Y0
G90
M30
%
