%
(1001)
(T1  D=3 CR=0.75 - ZMIN=-19 - bullnose end mill)
G90 G94
G17
G21
G28 G91 Z0.5
G90

(2D Pocket1)
M9
T1 M6
S1000 M3
G54
M8
G0 X5.175 Y7.3
Z2
G1 Z-0.7 F33
G19 G2 Y7 Z-1 J-0.3
G17 G3 X6.25 I0.537 F50
X3.75 I-1.25
X6.25 I1.25
G1 X6.243 Y7.044
X6.224 Y7.085
X6.193 Y7.118
X6.154 Y7.14
X5.379 Y7.44
X5.332 Y7.45
X5.284 Y7.444
X5.24 Y7.424
X5.205 Y7.39
X5.183 Y7.348
X5.175 Y7.3
Z-1.7 F33
G19 G2 Y7 Z-2 J-0.3
G17 G3 X6.25 I0.537 F50
X3.75 I-1.25
X6.25 I1.25
G1 X6.243 Y7.044
X6.224 Y7.085
X6.193 Y7.118
X6.154 Y7.14
X5.379 Y7.44
X5.332 Y7.45
X5.284 Y7.444
X5.24 Y7.424
X5.205 Y7.39
X5.183 Y7.348
X5.175 Y7.3
Z-2.7 F33
G19 G2 Y7 Z-3 J-0.3
G17 G3 X6.25 I0.537 F50
X3.75 I-1.25
X6.25 I1.25
G1 X6.243 Y7.044
X6.224 Y7.085
X6.193 Y7.118
X6.154 Y7.14
X5.379 Y7.44
X5.332 Y7.45
X5.284 Y7.444
X5.24 Y7.424
X5.205 Y7.39
X5.183 Y7.348
X5.175 Y7.3
Z-3.7 F33
G19 G2 Y7 Z-4 J-0.3
G17 G3 X6.25 I0.537 F50
X3.75 I-1.25
X6.25 I1.25
G1 X6.243 Y7.044
X6.224 Y7.085
X6.193 Y7.118
X6.154 Y7.14
X5.379 Y7.44
X5.332 Y7.45
X5.284 Y7.444
X5.24 Y7.424
X5.205 Y7.39
X5.183 Y7.348
X5.175 Y7.3
Z-4.7 F33
G19 G2 Y7 Z-5 J-0.3
G17 G3 X6.25 I0.537 F50
X3.75 I-1.25
X6.25 I1.25
G1 X6.243 Y7.044
X6.224 Y7.085
X6.193 Y7.118
X6.154 Y7.14
X5.379 Y7.44
X5.332 Y7.45
X5.284 Y7.444
X5.24 Y7.424
X5.205 Y7.39
X5.183 Y7.348
X5.175 Y7.3
Z-5.7 F33
G19 G2 Y7 Z-6 J-0.3
G17 G3 X6.25 I0.537 F50
X3.75 I-1.25
X6.25 I1.25
G1 X6.243 Y7.044
X6.224 Y7.085
X6.193 Y7.118
X6.154 Y7.14
X5.379 Y7.44
X5.332 Y7.45
X5.284 Y7.444
X5.24 Y7.424
X5.205 Y7.39
X5.183 Y7.348
X5.175 Y7.3
Z-6.7 F33
G19 G2 Y7 Z-7 J-0.3
G17 G3 X6.25 I0.537 F50
X3.75 I-1.25
X6.25 I1.25
G1 X6.243 Y7.044
X6.224 Y7.085
X6.193 Y7.118
X6.154 Y7.14
X5.379 Y7.44
X5.332 Y7.45
X5.284 Y7.444
X5.24 Y7.424
X5.205 Y7.39
X5.183 Y7.348
X5.175 Y7.3
Z-7.7 F33
G19 G2 Y7 Z-8 J-0.3
G17 G3 X6.25 I0.537 F50
X3.75 I-1.25
X6.25 I1.25
G1 X6.243 Y7.044
X6.224 Y7.085
X6.193 Y7.118
X6.154 Y7.14
X5.379 Y7.44
X5.332 Y7.45
X5.284 Y7.444
X5.24 Y7.424
X5.205 Y7.39
X5.183 Y7.348
X5.175 Y7.3
Z-8.7 F33
G19 G2 Y7 Z-9 J-0.3
G17 G3 X6.25 I0.537 F50
X3.75 I-1.25
X6.25 I1.25
G1 X6.243 Y7.044
X6.224 Y7.085
X6.193 Y7.118
X6.154 Y7.14
X5.379 Y7.44
X5.332 Y7.45
X5.284 Y7.444
X5.24 Y7.424
X5.205 Y7.39
X5.183 Y7.348
X5.175 Y7.3
Z-9.7 F33
G19 G2 Y7 Z-10 J-0.3
G17 G3 X6.25 I0.537 F50
X3.75 I-1.25
X6.25 I1.25
G1 X6.243 Y7.044
X6.224 Y7.085
X6.193 Y7.118
X6.154 Y7.14
X5.379 Y7.44
X5.332 Y7.45
X5.284 Y7.444
X5.24 Y7.424
X5.205 Y7.39
X5.183 Y7.348
X5.175 Y7.3
Z-10.7 F33
G19 G2 Y7 Z-11 J-0.3
G17 G3 X6.25 I0.537 F50
X3.75 I-1.25
X6.25 I1.25
G1 X6.243 Y7.044
X6.224 Y7.085
X6.193 Y7.118
X6.154 Y7.14
X5.379 Y7.44
X5.332 Y7.45
X5.284 Y7.444
X5.24 Y7.424
X5.205 Y7.39
X5.183 Y7.348
X5.175 Y7.3
Z-11.7 F33
G19 G2 Y7 Z-12 J-0.3
G17 G3 X6.25 I0.537 F50
X3.75 I-1.25
X6.25 I1.25
G1 X6.243 Y7.044
X6.224 Y7.085
X6.193 Y7.118
X6.154 Y7.14
X5.379 Y7.44
X5.332 Y7.45
X5.284 Y7.444
X5.24 Y7.424
X5.205 Y7.39
X5.183 Y7.348
X5.175 Y7.3
Z-12.7 F33
G19 G2 Y7 Z-13 J-0.3
G17 G3 X6.25 I0.537 F50
X3.75 I-1.25
X6.25 I1.25
G1 X6.243 Y7.044
X6.224 Y7.085
X6.193 Y7.118
X6.154 Y7.14
X5.379 Y7.44
X5.332 Y7.45
X5.284 Y7.444
X5.24 Y7.424
X5.205 Y7.39
X5.183 Y7.348
X5.175 Y7.3
Z-13.7 F33
G19 G2 Y7 Z-14 J-0.3
G17 G3 X6.25 I0.537 F50
X3.75 I-1.25
X6.25 I1.25
G1 X6.243 Y7.044
X6.224 Y7.085
X6.193 Y7.118
X6.154 Y7.14
X5.379 Y7.44
X5.332 Y7.45
X5.284 Y7.444
X5.24 Y7.424
X5.205 Y7.39
X5.183 Y7.348
X5.175 Y7.3
Z-14.7 F33
G19 G2 Y7 Z-15 J-0.3
G17 G3 X6.25 I0.537 F50
X3.75 I-1.25
X6.25 I1.25
G1 X6.243 Y7.044
X6.224 Y7.085
X6.193 Y7.118
X6.154 Y7.14
X5.379 Y7.44
X5.332 Y7.45
X5.284 Y7.444
X5.24 Y7.424
X5.205 Y7.39
X5.183 Y7.348
X5.175 Y7.3
Z-15.7 F33
G19 G2 Y7 Z-16 J-0.3
G17 G3 X6.25 I0.537 F50
X3.75 I-1.25
X6.25 I1.25
G1 X6.243 Y7.044
X6.224 Y7.085
X6.193 Y7.118
X6.154 Y7.14
X5.379 Y7.44
X5.332 Y7.45
X5.284 Y7.444
X5.24 Y7.424
X5.205 Y7.39
X5.183 Y7.348
X5.175 Y7.3
Z-16.7 F33
G19 G2 Y7 Z-17 J-0.3
G17 G3 X6.25 I0.537 F50
X3.75 I-1.25
X6.25 I1.25
G1 X6.243 Y7.044
X6.224 Y7.085
X6.193 Y7.118
X6.154 Y7.14
X5.379 Y7.44
X5.332 Y7.45
X5.284 Y7.444
X5.24 Y7.424
X5.205 Y7.39
X5.183 Y7.348
X5.175 Y7.3
Z-17.7 F33
G19 G2 Y7 Z-18 J-0.3
G17 G3 X6.25 I0.537 F50
X3.75 I-1.25
X6.25 I1.25
G1 X6.243 Y7.044
X6.224 Y7.085
X6.193 Y7.118
X6.154 Y7.14
X5.379 Y7.44
X5.332 Y7.45
X5.284 Y7.444
X5.24 Y7.424
X5.205 Y7.39
X5.183 Y7.348
X5.175 Y7.3
Z-18.7 F33
G19 G2 Y7 Z-19 J-0.3
G17 G3 X6.25 I0.537 F50
X3.75 I-1.25
X6.25 I1.25
G1 X6.246 Y7.047 Z-18.996 F100
X6.236 Y7.091 Z-18.985
X6.22 Y7.132 Z-18.967
X6.2 Y7.166 Z-18.943
X6.178 Y7.195 Z-18.912
X6.157 Y7.217 Z-18.876
X6.139 Y7.233 Z-18.836
X6.124 Y7.244 Z-18.793
X6.115 Y7.25 Z-18.747
X6.112 Y7.252 Z-18.7
G0 Z2
X5.175 Y23.3
G1 Z-0.7 F33
G19 G2 Y23 Z-1 J-0.3
G17 G3 X6.25 I0.537 F50
X3.75 I-1.25
X6.25 I1.25
G1 X6.243 Y23.044
X6.224 Y23.085
X6.193 Y23.118
X6.154 Y23.14
X5.379 Y23.44
X5.332 Y23.45
X5.284 Y23.444
X5.24 Y23.424
X5.205 Y23.39
X5.183 Y23.348
X5.175 Y23.3
Z-1.7 F33
G19 G2 Y23 Z-2 J-0.3
G17 G3 X6.25 I0.537 F50
X3.75 I-1.25
X6.25 I1.25
G1 X6.243 Y23.044
X6.224 Y23.085
X6.193 Y23.118
X6.154 Y23.14
X5.379 Y23.44
X5.332 Y23.45
X5.284 Y23.444
X5.24 Y23.424
X5.205 Y23.39
X5.183 Y23.348
X5.175 Y23.3
Z-2.7 F33
G19 G2 Y23 Z-3 J-0.3
G17 G3 X6.25 I0.537 F50
X3.75 I-1.25
X6.25 I1.25
G1 X6.243 Y23.044
X6.224 Y23.085
X6.193 Y23.118
X6.154 Y23.14
X5.379 Y23.44
X5.332 Y23.45
X5.284 Y23.444
X5.24 Y23.424
X5.205 Y23.39
X5.183 Y23.348
X5.175 Y23.3
Z-3.7 F33
G19 G2 Y23 Z-4 J-0.3
G17 G3 X6.25 I0.537 F50
X3.75 I-1.25
X6.25 I1.25
G1 X6.243 Y23.044
X6.224 Y23.085
X6.193 Y23.118
X6.154 Y23.14
X5.379 Y23.44
X5.332 Y23.45
X5.284 Y23.444
X5.24 Y23.424
X5.205 Y23.39
X5.183 Y23.348
X5.175 Y23.3
Z-4.7 F33
G19 G2 Y23 Z-5 J-0.3
G17 G3 X6.25 I0.537 F50
X3.75 I-1.25
X6.25 I1.25
G1 X6.243 Y23.044
X6.224 Y23.085
X6.193 Y23.118
X6.154 Y23.14
X5.379 Y23.44
X5.332 Y23.45
X5.284 Y23.444
X5.24 Y23.424
X5.205 Y23.39
X5.183 Y23.348
X5.175 Y23.3
Z-5.7 F33
G19 G2 Y23 Z-6 J-0.3
G17 G3 X6.25 I0.537 F50
X3.75 I-1.25
X6.25 I1.25
G1 X6.243 Y23.044
X6.224 Y23.085
X6.193 Y23.118
X6.154 Y23.14
X5.379 Y23.44
X5.332 Y23.45
X5.284 Y23.444
X5.24 Y23.424
X5.205 Y23.39
X5.183 Y23.348
X5.175 Y23.3
Z-6.7 F33
G19 G2 Y23 Z-7 J-0.3
G17 G3 X6.25 I0.537 F50
X3.75 I-1.25
X6.25 I1.25
G1 X6.243 Y23.044
X6.224 Y23.085
X6.193 Y23.118
X6.154 Y23.14
X5.379 Y23.44
X5.332 Y23.45
X5.284 Y23.444
X5.24 Y23.424
X5.205 Y23.39
X5.183 Y23.348
X5.175 Y23.3
Z-7.7 F33
G19 G2 Y23 Z-8 J-0.3
G17 G3 X6.25 I0.537 F50
X3.75 I-1.25
X6.25 I1.25
G1 X6.243 Y23.044
X6.224 Y23.085
X6.193 Y23.118
X6.154 Y23.14
X5.379 Y23.44
X5.332 Y23.45
X5.284 Y23.444
X5.24 Y23.424
X5.205 Y23.39
X5.183 Y23.348
X5.175 Y23.3
Z-8.7 F33
G19 G2 Y23 Z-9 J-0.3
G17 G3 X6.25 I0.537 F50
X3.75 I-1.25
X6.25 I1.25
G1 X6.243 Y23.044
X6.224 Y23.085
X6.193 Y23.118
X6.154 Y23.14
X5.379 Y23.44
X5.332 Y23.45
X5.284 Y23.444
X5.24 Y23.424
X5.205 Y23.39
X5.183 Y23.348
X5.175 Y23.3
Z-9.7 F33
G19 G2 Y23 Z-10 J-0.3
G17 G3 X6.25 I0.537 F50
X3.75 I-1.25
X6.25 I1.25
G1 X6.243 Y23.044
X6.224 Y23.085
X6.193 Y23.118
X6.154 Y23.14
X5.379 Y23.44
X5.332 Y23.45
X5.284 Y23.444
X5.24 Y23.424
X5.205 Y23.39
X5.183 Y23.348
X5.175 Y23.3
Z-10.7 F33
G19 G2 Y23 Z-11 J-0.3
G17 G3 X6.25 I0.537 F50
X3.75 I-1.25
X6.25 I1.25
G1 X6.243 Y23.044
X6.224 Y23.085
X6.193 Y23.118
X6.154 Y23.14
X5.379 Y23.44
X5.332 Y23.45
X5.284 Y23.444
X5.24 Y23.424
X5.205 Y23.39
X5.183 Y23.348
X5.175 Y23.3
Z-11.7 F33
G19 G2 Y23 Z-12 J-0.3
G17 G3 X6.25 I0.537 F50
X3.75 I-1.25
X6.25 I1.25
G1 X6.243 Y23.044
X6.224 Y23.085
X6.193 Y23.118
X6.154 Y23.14
X5.379 Y23.44
X5.332 Y23.45
X5.284 Y23.444
X5.24 Y23.424
X5.205 Y23.39
X5.183 Y23.348
X5.175 Y23.3
Z-12.7 F33
G19 G2 Y23 Z-13 J-0.3
G17 G3 X6.25 I0.537 F50
X3.75 I-1.25
X6.25 I1.25
G1 X6.243 Y23.044
X6.224 Y23.085
X6.193 Y23.118
X6.154 Y23.14
X5.379 Y23.44
X5.332 Y23.45
X5.284 Y23.444
X5.24 Y23.424
X5.205 Y23.39
X5.183 Y23.348
X5.175 Y23.3
Z-13.7 F33
G19 G2 Y23 Z-14 J-0.3
G17 G3 X6.25 I0.537 F50
X3.75 I-1.25
X6.25 I1.25
G1 X6.243 Y23.044
X6.224 Y23.085
X6.193 Y23.118
X6.154 Y23.14
X5.379 Y23.44
X5.332 Y23.45
X5.284 Y23.444
X5.24 Y23.424
X5.205 Y23.39
X5.183 Y23.348
X5.175 Y23.3
Z-14.7 F33
G19 G2 Y23 Z-15 J-0.3
G17 G3 X6.25 I0.537 F50
X3.75 I-1.25
X6.25 I1.25
G1 X6.243 Y23.044
X6.224 Y23.085
X6.193 Y23.118
X6.154 Y23.14
X5.379 Y23.44
X5.332 Y23.45
X5.284 Y23.444
X5.24 Y23.424
X5.205 Y23.39
X5.183 Y23.348
X5.175 Y23.3
Z-15.7 F33
G19 G2 Y23 Z-16 J-0.3
G17 G3 X6.25 I0.537 F50
X3.75 I-1.25
X6.25 I1.25
G1 X6.243 Y23.044
X6.224 Y23.085
X6.193 Y23.118
X6.154 Y23.14
X5.379 Y23.44
X5.332 Y23.45
X5.284 Y23.444
X5.24 Y23.424
X5.205 Y23.39
X5.183 Y23.348
X5.175 Y23.3
Z-16.7 F33
G19 G2 Y23 Z-17 J-0.3
G17 G3 X6.25 I0.537 F50
X3.75 I-1.25
X6.25 I1.25
G1 X6.243 Y23.044
X6.224 Y23.085
X6.193 Y23.118
X6.154 Y23.14
X5.379 Y23.44
X5.332 Y23.45
X5.284 Y23.444
X5.24 Y23.424
X5.205 Y23.39
X5.183 Y23.348
X5.175 Y23.3
Z-17.7 F33
G19 G2 Y23 Z-18 J-0.3
G17 G3 X6.25 I0.537 F50
X3.75 I-1.25
X6.25 I1.25
G1 X6.243 Y23.044
X6.224 Y23.085
X6.193 Y23.118
X6.154 Y23.14
X5.379 Y23.44
X5.332 Y23.45
X5.284 Y23.444
X5.24 Y23.424
X5.205 Y23.39
X5.183 Y23.348
X5.175 Y23.3
Z-18.7 F33
G19 G2 Y23 Z-19 J-0.3
G17 G3 X6.25 I0.537 F50
X3.75 I-1.25
X6.25 I1.25
G1 X6.246 Y23.047 Z-18.996 F100
X6.236 Y23.091 Z-18.985
X6.22 Y23.132 Z-18.967
X6.2 Y23.166 Z-18.943
X6.178 Y23.195 Z-18.912
X6.157 Y23.217 Z-18.876
X6.139 Y23.233 Z-18.836
X6.124 Y23.244 Z-18.793
X6.115 Y23.25 Z-18.747
X6.112 Y23.252 Z-18.7
G0 Z2
X40.175 Y23.3
G1 Z-0.7 F33
G19 G2 Y23 Z-1 J-0.3
G17 G3 X41.25 I0.538 F50
X38.75 I-1.25
X41.25 I1.25
G1 X41.243 Y23.044
X41.224 Y23.085
X41.193 Y23.118
X41.154 Y23.14
X40.379 Y23.44
X40.332 Y23.45
X40.284 Y23.444
X40.24 Y23.424
X40.205 Y23.39
X40.183 Y23.348
X40.175 Y23.3
Z-1.7 F33
G19 G2 Y23 Z-2 J-0.3
G17 G3 X41.25 I0.538 F50
X38.75 I-1.25
X41.25 I1.25
G1 X41.243 Y23.044
X41.224 Y23.085
X41.193 Y23.118
X41.154 Y23.14
X40.379 Y23.44
X40.332 Y23.45
X40.284 Y23.444
X40.24 Y23.424
X40.205 Y23.39
X40.183 Y23.348
X40.175 Y23.3
Z-2.7 F33
G19 G2 Y23 Z-3 J-0.3
G17 G3 X41.25 I0.538 F50
X38.75 I-1.25
X41.25 I1.25
G1 X41.243 Y23.044
X41.224 Y23.085
X41.193 Y23.118
X41.154 Y23.14
X40.379 Y23.44
X40.332 Y23.45
X40.284 Y23.444
X40.24 Y23.424
X40.205 Y23.39
X40.183 Y23.348
X40.175 Y23.3
Z-3.7 F33
G19 G2 Y23 Z-4 J-0.3
G17 G3 X41.25 I0.538 F50
X38.75 I-1.25
X41.25 I1.25
G1 X41.243 Y23.044
X41.224 Y23.085
X41.193 Y23.118
X41.154 Y23.14
X40.379 Y23.44
X40.332 Y23.45
X40.284 Y23.444
X40.24 Y23.424
X40.205 Y23.39
X40.183 Y23.348
X40.175 Y23.3
Z-4.7 F33
G19 G2 Y23 Z-5 J-0.3
G17 G3 X41.25 I0.538 F50
X38.75 I-1.25
X41.25 I1.25
G1 X41.243 Y23.044
X41.224 Y23.085
X41.193 Y23.118
X41.154 Y23.14
X40.379 Y23.44
X40.332 Y23.45
X40.284 Y23.444
X40.24 Y23.424
X40.205 Y23.39
X40.183 Y23.348
X40.175 Y23.3
Z-5.7 F33
G19 G2 Y23 Z-6 J-0.3
G17 G3 X41.25 I0.538 F50
X38.75 I-1.25
X41.25 I1.25
G1 X41.243 Y23.044
X41.224 Y23.085
X41.193 Y23.118
X41.154 Y23.14
X40.379 Y23.44
X40.332 Y23.45
X40.284 Y23.444
X40.24 Y23.424
X40.205 Y23.39
X40.183 Y23.348
X40.175 Y23.3
Z-6.7 F33
G19 G2 Y23 Z-7 J-0.3
G17 G3 X41.25 I0.538 F50
X38.75 I-1.25
X41.25 I1.25
G1 X41.243 Y23.044
X41.224 Y23.085
X41.193 Y23.118
X41.154 Y23.14
X40.379 Y23.44
X40.332 Y23.45
X40.284 Y23.444
X40.24 Y23.424
X40.205 Y23.39
X40.183 Y23.348
X40.175 Y23.3
Z-7.7 F33
G19 G2 Y23 Z-8 J-0.3
G17 G3 X41.25 I0.538 F50
X38.75 I-1.25
X41.25 I1.25
G1 X41.243 Y23.044
X41.224 Y23.085
X41.193 Y23.118
X41.154 Y23.14
X40.379 Y23.44
X40.332 Y23.45
X40.284 Y23.444
X40.24 Y23.424
X40.205 Y23.39
X40.183 Y23.348
X40.175 Y23.3
Z-8.7 F33
G19 G2 Y23 Z-9 J-0.3
G17 G3 X41.25 I0.538 F50
X38.75 I-1.25
X41.25 I1.25
G1 X41.243 Y23.044
X41.224 Y23.085
X41.193 Y23.118
X41.154 Y23.14
X40.379 Y23.44
X40.332 Y23.45
X40.284 Y23.444
X40.24 Y23.424
X40.205 Y23.39
X40.183 Y23.348
X40.175 Y23.3
Z-9.7 F33
G19 G2 Y23 Z-10 J-0.3
G17 G3 X41.25 I0.538 F50
X38.75 I-1.25
X41.25 I1.25
G1 X41.243 Y23.044
X41.224 Y23.085
X41.193 Y23.118
X41.154 Y23.14
X40.379 Y23.44
X40.332 Y23.45
X40.284 Y23.444
X40.24 Y23.424
X40.205 Y23.39
X40.183 Y23.348
X40.175 Y23.3
Z-10.7 F33
G19 G2 Y23 Z-11 J-0.3
G17 G3 X41.25 I0.538 F50
X38.75 I-1.25
X41.25 I1.25
G1 X41.243 Y23.044
X41.224 Y23.085
X41.193 Y23.118
X41.154 Y23.14
X40.379 Y23.44
X40.332 Y23.45
X40.284 Y23.444
X40.24 Y23.424
X40.205 Y23.39
X40.183 Y23.348
X40.175 Y23.3
Z-11.7 F33
G19 G2 Y23 Z-12 J-0.3
G17 G3 X41.25 I0.538 F50
X38.75 I-1.25
X41.25 I1.25
G1 X41.243 Y23.044
X41.224 Y23.085
X41.193 Y23.118
X41.154 Y23.14
X40.379 Y23.44
X40.332 Y23.45
X40.284 Y23.444
X40.24 Y23.424
X40.205 Y23.39
X40.183 Y23.348
X40.175 Y23.3
Z-12.7 F33
G19 G2 Y23 Z-13 J-0.3
G17 G3 X41.25 I0.538 F50
X38.75 I-1.25
X41.25 I1.25
G1 X41.243 Y23.044
X41.224 Y23.085
X41.193 Y23.118
X41.154 Y23.14
X40.379 Y23.44
X40.332 Y23.45
X40.284 Y23.444
X40.24 Y23.424
X40.205 Y23.39
X40.183 Y23.348
X40.175 Y23.3
Z-13.7 F33
G19 G2 Y23 Z-14 J-0.3
G17 G3 X41.25 I0.538 F50
X38.75 I-1.25
X41.25 I1.25
G1 X41.243 Y23.044
X41.224 Y23.085
X41.193 Y23.118
X41.154 Y23.14
X40.379 Y23.44
X40.332 Y23.45
X40.284 Y23.444
X40.24 Y23.424
X40.205 Y23.39
X40.183 Y23.348
X40.175 Y23.3
Z-14.7 F33
G19 G2 Y23 Z-15 J-0.3
G17 G3 X41.25 I0.538 F50
X38.75 I-1.25
X41.25 I1.25
G1 X41.243 Y23.044
X41.224 Y23.085
X41.193 Y23.118
X41.154 Y23.14
X40.379 Y23.44
X40.332 Y23.45
X40.284 Y23.444
X40.24 Y23.424
X40.205 Y23.39
X40.183 Y23.348
X40.175 Y23.3
Z-15.7 F33
G19 G2 Y23 Z-16 J-0.3
G17 G3 X41.25 I0.538 F50
X38.75 I-1.25
X41.25 I1.25
G1 X41.243 Y23.044
X41.224 Y23.085
X41.193 Y23.118
X41.154 Y23.14
X40.379 Y23.44
X40.332 Y23.45
X40.284 Y23.444
X40.24 Y23.424
X40.205 Y23.39
X40.183 Y23.348
X40.175 Y23.3
Z-16.7 F33
G19 G2 Y23 Z-17 J-0.3
G17 G3 X41.25 I0.538 F50
X38.75 I-1.25
X41.25 I1.25
G1 X41.243 Y23.044
X41.224 Y23.085
X41.193 Y23.118
X41.154 Y23.14
X40.379 Y23.44
X40.332 Y23.45
X40.284 Y23.444
X40.24 Y23.424
X40.205 Y23.39
X40.183 Y23.348
X40.175 Y23.3
Z-17.7 F33
G19 G2 Y23 Z-18 J-0.3
G17 G3 X41.25 I0.538 F50
X38.75 I-1.25
X41.25 I1.25
G1 X41.243 Y23.044
X41.224 Y23.085
X41.193 Y23.118
X41.154 Y23.14
X40.379 Y23.44
X40.332 Y23.45
X40.284 Y23.444
X40.24 Y23.424
X40.205 Y23.39
X40.183 Y23.348
X40.175 Y23.3
Z-18.7 F33
G19 G2 Y23 Z-19 J-0.3
G17 G3 X41.25 I0.538 F50
X38.75 I-1.25
X41.25 I1.25
G1 X41.246 Y23.047 Z-18.996 F100
X41.236 Y23.091 Z-18.985
X41.22 Y23.132 Z-18.967
X41.2 Y23.166 Z-18.943
X41.178 Y23.195 Z-18.912
X41.157 Y23.217 Z-18.876
X41.139 Y23.233 Z-18.836
X41.124 Y23.244 Z-18.793
X41.115 Y23.25 Z-18.747
X41.112 Y23.252 Z-18.7
G0 Z2
X40.175 Y7.3
G1 Z-0.7 F33
G19 G2 Y7 Z-1 J-0.3
G17 G3 X41.25 I0.538 F50
X38.75 I-1.25
X41.25 I1.25
G1 X41.243 Y7.044
X41.224 Y7.085
X41.193 Y7.118
X41.154 Y7.14
X40.379 Y7.44
X40.332 Y7.45
X40.284 Y7.444
X40.24 Y7.424
X40.205 Y7.39
X40.183 Y7.348
X40.175 Y7.3
Z-1.7 F33
G19 G2 Y7 Z-2 J-0.3
G17 G3 X41.25 I0.538 F50
X38.75 I-1.25
X41.25 I1.25
G1 X41.243 Y7.044
X41.224 Y7.085
X41.193 Y7.118
X41.154 Y7.14
X40.379 Y7.44
X40.332 Y7.45
X40.284 Y7.444
X40.24 Y7.424
X40.205 Y7.39
X40.183 Y7.348
X40.175 Y7.3
Z-2.7 F33
G19 G2 Y7 Z-3 J-0.3
G17 G3 X41.25 I0.538 F50
X38.75 I-1.25
X41.25 I1.25
G1 X41.243 Y7.044
X41.224 Y7.085
X41.193 Y7.118
X41.154 Y7.14
X40.379 Y7.44
X40.332 Y7.45
X40.284 Y7.444
X40.24 Y7.424
X40.205 Y7.39
X40.183 Y7.348
X40.175 Y7.3
Z-3.7 F33
G19 G2 Y7 Z-4 J-0.3
G17 G3 X41.25 I0.538 F50
X38.75 I-1.25
X41.25 I1.25
G1 X41.243 Y7.044
X41.224 Y7.085
X41.193 Y7.118
X41.154 Y7.14
X40.379 Y7.44
X40.332 Y7.45
X40.284 Y7.444
X40.24 Y7.424
X40.205 Y7.39
X40.183 Y7.348
X40.175 Y7.3
Z-4.7 F33
G19 G2 Y7 Z-5 J-0.3
G17 G3 X41.25 I0.538 F50
X38.75 I-1.25
X41.25 I1.25
G1 X41.243 Y7.044
X41.224 Y7.085
X41.193 Y7.118
X41.154 Y7.14
X40.379 Y7.44
X40.332 Y7.45
X40.284 Y7.444
X40.24 Y7.424
X40.205 Y7.39
X40.183 Y7.348
X40.175 Y7.3
Z-5.7 F33
G19 G2 Y7 Z-6 J-0.3
G17 G3 X41.25 I0.538 F50
X38.75 I-1.25
X41.25 I1.25
G1 X41.243 Y7.044
X41.224 Y7.085
X41.193 Y7.118
X41.154 Y7.14
X40.379 Y7.44
X40.332 Y7.45
X40.284 Y7.444
X40.24 Y7.424
X40.205 Y7.39
X40.183 Y7.348
X40.175 Y7.3
Z-6.7 F33
G19 G2 Y7 Z-7 J-0.3
G17 G3 X41.25 I0.538 F50
X38.75 I-1.25
X41.25 I1.25
G1 X41.243 Y7.044
X41.224 Y7.085
X41.193 Y7.118
X41.154 Y7.14
X40.379 Y7.44
X40.332 Y7.45
X40.284 Y7.444
X40.24 Y7.424
X40.205 Y7.39
X40.183 Y7.348
X40.175 Y7.3
Z-7.7 F33
G19 G2 Y7 Z-8 J-0.3
G17 G3 X41.25 I0.538 F50
X38.75 I-1.25
X41.25 I1.25
G1 X41.243 Y7.044
X41.224 Y7.085
X41.193 Y7.118
X41.154 Y7.14
X40.379 Y7.44
X40.332 Y7.45
X40.284 Y7.444
X40.24 Y7.424
X40.205 Y7.39
X40.183 Y7.348
X40.175 Y7.3
Z-8.7 F33
G19 G2 Y7 Z-9 J-0.3
G17 G3 X41.25 I0.538 F50
X38.75 I-1.25
X41.25 I1.25
G1 X41.243 Y7.044
X41.224 Y7.085
X41.193 Y7.118
X41.154 Y7.14
X40.379 Y7.44
X40.332 Y7.45
X40.284 Y7.444
X40.24 Y7.424
X40.205 Y7.39
X40.183 Y7.348
X40.175 Y7.3
Z-9.7 F33
G19 G2 Y7 Z-10 J-0.3
G17 G3 X41.25 I0.538 F50
X38.75 I-1.25
X41.25 I1.25
G1 X41.243 Y7.044
X41.224 Y7.085
X41.193 Y7.118
X41.154 Y7.14
X40.379 Y7.44
X40.332 Y7.45
X40.284 Y7.444
X40.24 Y7.424
X40.205 Y7.39
X40.183 Y7.348
X40.175 Y7.3
Z-10.7 F33
G19 G2 Y7 Z-11 J-0.3
G17 G3 X41.25 I0.538 F50
X38.75 I-1.25
X41.25 I1.25
G1 X41.243 Y7.044
X41.224 Y7.085
X41.193 Y7.118
X41.154 Y7.14
X40.379 Y7.44
X40.332 Y7.45
X40.284 Y7.444
X40.24 Y7.424
X40.205 Y7.39
X40.183 Y7.348
X40.175 Y7.3
Z-11.7 F33
G19 G2 Y7 Z-12 J-0.3
G17 G3 X41.25 I0.538 F50
X38.75 I-1.25
X41.25 I1.25
G1 X41.243 Y7.044
X41.224 Y7.085
X41.193 Y7.118
X41.154 Y7.14
X40.379 Y7.44
X40.332 Y7.45
X40.284 Y7.444
X40.24 Y7.424
X40.205 Y7.39
X40.183 Y7.348
X40.175 Y7.3
Z-12.7 F33
G19 G2 Y7 Z-13 J-0.3
G17 G3 X41.25 I0.538 F50
X38.75 I-1.25
X41.25 I1.25
G1 X41.243 Y7.044
X41.224 Y7.085
X41.193 Y7.118
X41.154 Y7.14
X40.379 Y7.44
X40.332 Y7.45
X40.284 Y7.444
X40.24 Y7.424
X40.205 Y7.39
X40.183 Y7.348
X40.175 Y7.3
Z-13.7 F33
G19 G2 Y7 Z-14 J-0.3
G17 G3 X41.25 I0.538 F50
X38.75 I-1.25
X41.25 I1.25
G1 X41.243 Y7.044
X41.224 Y7.085
X41.193 Y7.118
X41.154 Y7.14
X40.379 Y7.44
X40.332 Y7.45
X40.284 Y7.444
X40.24 Y7.424
X40.205 Y7.39
X40.183 Y7.348
X40.175 Y7.3
Z-14.7 F33
G19 G2 Y7 Z-15 J-0.3
G17 G3 X41.25 I0.538 F50
X38.75 I-1.25
X41.25 I1.25
G1 X41.243 Y7.044
X41.224 Y7.085
X41.193 Y7.118
X41.154 Y7.14
X40.379 Y7.44
X40.332 Y7.45
X40.284 Y7.444
X40.24 Y7.424
X40.205 Y7.39
X40.183 Y7.348
X40.175 Y7.3
Z-15.7 F33
G19 G2 Y7 Z-16 J-0.3
G17 G3 X41.25 I0.538 F50
X38.75 I-1.25
X41.25 I1.25
G1 X41.243 Y7.044
X41.224 Y7.085
X41.193 Y7.118
X41.154 Y7.14
X40.379 Y7.44
X40.332 Y7.45
X40.284 Y7.444
X40.24 Y7.424
X40.205 Y7.39
X40.183 Y7.348
X40.175 Y7.3
Z-16.7 F33
G19 G2 Y7 Z-17 J-0.3
G17 G3 X41.25 I0.538 F50
X38.75 I-1.25
X41.25 I1.25
G1 X41.243 Y7.044
X41.224 Y7.085
X41.193 Y7.118
X41.154 Y7.14
X40.379 Y7.44
X40.332 Y7.45
X40.284 Y7.444
X40.24 Y7.424
X40.205 Y7.39
X40.183 Y7.348
X40.175 Y7.3
Z-17.7 F33
G19 G2 Y7 Z-18 J-0.3
G17 G3 X41.25 I0.538 F50
X38.75 I-1.25
X41.25 I1.25
G1 X41.243 Y7.044
X41.224 Y7.085
X41.193 Y7.118
X41.154 Y7.14
X40.379 Y7.44
X40.332 Y7.45
X40.284 Y7.444
X40.24 Y7.424
X40.205 Y7.39
X40.183 Y7.348
X40.175 Y7.3
Z-18.7 F33
G19 G2 Y7 Z-19 J-0.3
G17 G3 X41.25 I0.538 F50
X38.75 I-1.25
X41.25 I1.25
G1 X41.246 Y7.047 Z-18.996 F100
X41.236 Y7.091 Z-18.985
X41.22 Y7.132 Z-18.967
X41.2 Y7.166 Z-18.943
X41.178 Y7.195 Z-18.912
X41.157 Y7.217 Z-18.876
X41.139 Y7.233 Z-18.836
X41.124 Y7.244 Z-18.793
X41.115 Y7.25 Z-18.747
X41.112 Y7.252 Z-18.7
G0 Z2

(2D Contour1)
X0.323 Y32.4
G1 Z2 F33
Z-0.7
G19 G2 Y32.1 Z-1 J-0.3
G1 Y31.8 F30
G17 G3 X0.623 Y31.5 I0.3
G1 X45 F60
G2 X46.5 Y30 J-1.5
G1 Y0
G2 X45 Y-1.5 I-1.5
G1 X0
G2 X-1.5 Y0 J1.5
G1 Y30
G2 X0 Y31.5 I1.5
G1 X0.623
G3 X0.923 Y31.8 J0.3 F100
G1 Y32.1
G19 G3 Y32.4 Z-0.7 K0.3
G1 X0.323 F60
Z-1.7 F33
G2 Y32.1 Z-2 J-0.3
G1 Y31.8 F30
G17 G3 X0.623 Y31.5 I0.3
G1 X45 F60
G2 X46.5 Y30 J-1.5
G1 Y0
G2 X45 Y-1.5 I-1.5
G1 X0
G2 X-1.5 Y0 J1.5
G1 Y30
G2 X0 Y31.5 I1.5
G1 X0.623
G3 X0.923 Y31.8 J0.3 F100
G1 Y32.1
G19 G3 Y32.4 Z-1.7 K0.3
G1 X0.323 F60
Z-2.7 F33
G2 Y32.1 Z-3 J-0.3
G1 Y31.8 F30
G17 G3 X0.623 Y31.5 I0.3
G1 X45 F60
G2 X46.5 Y30 J-1.5
G1 Y0
G2 X45 Y-1.5 I-1.5
G1 X0
G2 X-1.5 Y0 J1.5
G1 Y30
G2 X0 Y31.5 I1.5
G1 X0.623
G3 X0.923 Y31.8 J0.3 F100
G1 Y32.1
G19 G3 Y32.4 Z-2.7 K0.3
G1 X0.323 F60
Z-3.7 F33
G2 Y32.1 Z-4 J-0.3
G1 Y31.8 F30
G17 G3 X0.623 Y31.5 I0.3
G1 X45 F60
G2 X46.5 Y30 J-1.5
G1 Y0
G2 X45 Y-1.5 I-1.5
G1 X0
G2 X-1.5 Y0 J1.5
G1 Y30
G2 X0 Y31.5 I1.5
G1 X0.623
G3 X0.923 Y31.8 J0.3 F100
G1 Y32.1
G19 G3 Y32.4 Z-3.7 K0.3
G1 X0.323 F60
Z-4.7 F33
G2 Y32.1 Z-5 J-0.3
G1 Y31.8 F30
G17 G3 X0.623 Y31.5 I0.3
G1 X45 F60
G2 X46.5 Y30 J-1.5
G1 Y0
G2 X45 Y-1.5 I-1.5
G1 X0
G2 X-1.5 Y0 J1.5
G1 Y30
G2 X0 Y31.5 I1.5
G1 X0.623
G3 X0.923 Y31.8 J0.3 F100
G1 Y32.1
G19 G3 Y32.4 Z-4.7 K0.3
G1 X0.323 F60
Z-5.7 F33
G2 Y32.1 Z-6 J-0.3
G1 Y31.8 F30
G17 G3 X0.623 Y31.5 I0.3
G1 X45 F60
G2 X46.5 Y30 J-1.5
G1 Y0
G2 X45 Y-1.5 I-1.5
G1 X0
G2 X-1.5 Y0 J1.5
G1 Y30
G2 X0 Y31.5 I1.5
G1 X0.623
G3 X0.923 Y31.8 J0.3 F100
G1 Y32.1
G19 G3 Y32.4 Z-5.7 K0.3
G1 X0.323 F60
Z-6.7 F33
G2 Y32.1 Z-7 J-0.3
G1 Y31.8 F30
G17 G3 X0.623 Y31.5 I0.3
G1 X45 F60
G2 X46.5 Y30 J-1.5
G1 Y0
G2 X45 Y-1.5 I-1.5
G1 X0
G2 X-1.5 Y0 J1.5
G1 Y30
G2 X0 Y31.5 I1.5
G1 X0.623
G3 X0.923 Y31.8 J0.3 F100
G1 Y32.1
G19 G3 Y32.4 Z-6.7 K0.3
G1 X0.323 F60
Z-7.7 F33
G2 Y32.1 Z-8 J-0.3
G1 Y31.8 F30
G17 G3 X0.623 Y31.5 I0.3
G1 X45 F60
G2 X46.5 Y30 J-1.5
G1 Y0
G2 X45 Y-1.5 I-1.5
G1 X0
G2 X-1.5 Y0 J1.5
G1 Y30
G2 X0 Y31.5 I1.5
G1 X0.623
G3 X0.923 Y31.8 J0.3 F100
G1 Y32.1
G19 G3 Y32.4 Z-7.7 K0.3
G1 X0.323 F60
Z-8.7 F33
G2 Y32.1 Z-9 J-0.3
G1 Y31.8 F30
G17 G3 X0.623 Y31.5 I0.3
G1 X45 F60
G2 X46.5 Y30 J-1.5
G1 Y0
G2 X45 Y-1.5 I-1.5
G1 X0
G2 X-1.5 Y0 J1.5
G1 Y30
G2 X0 Y31.5 I1.5
G1 X0.623
G3 X0.923 Y31.8 J0.3 F100
G1 Y32.1
G19 G3 Y32.4 Z-8.7 K0.3
G1 X0.323 F60
Z-9.7 F33
G2 Y32.1 Z-10 J-0.3
G1 Y31.8 F30
G17 G3 X0.623 Y31.5 I0.3
G1 X45 F60
G2 X46.5 Y30 J-1.5
G1 Y0
G2 X45 Y-1.5 I-1.5
G1 X0
G2 X-1.5 Y0 J1.5
G1 Y30
G2 X0 Y31.5 I1.5
G1 X0.623
G3 X0.923 Y31.8 J0.3 F100
G1 Y32.1
G19 G3 Y32.4 Z-9.7 K0.3
G1 X0.323 F60
Z-10.7 F33
G2 Y32.1 Z-11 J-0.3
G1 Y31.8 F30
G17 G3 X0.623 Y31.5 I0.3
G1 X45 F60
G2 X46.5 Y30 J-1.5
G1 Y0
G2 X45 Y-1.5 I-1.5
G1 X0
G2 X-1.5 Y0 J1.5
G1 Y30
G2 X0 Y31.5 I1.5
G1 X0.623
G3 X0.923 Y31.8 J0.3 F100
G1 Y32.1
G19 G3 Y32.4 Z-10.7 K0.3
G1 X0.323 F60
Z-11.7 F33
G2 Y32.1 Z-12 J-0.3
G1 Y31.8 F30
G17 G3 X0.623 Y31.5 I0.3
G1 X45 F60
G2 X46.5 Y30 J-1.5
G1 Y0
G2 X45 Y-1.5 I-1.5
G1 X0
G2 X-1.5 Y0 J1.5
G1 Y30
G2 X0 Y31.5 I1.5
G1 X0.623
G3 X0.923 Y31.8 J0.3 F100
G1 Y32.1
G19 G3 Y32.4 Z-11.7 K0.3
G1 X0.323 F60
Z-12.7 F33
G2 Y32.1 Z-13 J-0.3
G1 Y31.8 F30
G17 G3 X0.623 Y31.5 I0.3
G1 X45 F60
G2 X46.5 Y30 J-1.5
G1 Y0
G2 X45 Y-1.5 I-1.5
G1 X0
G2 X-1.5 Y0 J1.5
G1 Y30
G2 X0 Y31.5 I1.5
G1 X0.623
G3 X0.923 Y31.8 J0.3 F100
G1 Y32.1
G19 G3 Y32.4 Z-12.7 K0.3
G1 X0.323 F60
Z-13.7 F33
G2 Y32.1 Z-14 J-0.3
G1 Y31.8 F30
G17 G3 X0.623 Y31.5 I0.3
G1 X45 F60
G2 X46.5 Y30 J-1.5
G1 Y0
G2 X45 Y-1.5 I-1.5
G1 X0
G2 X-1.5 Y0 J1.5
G1 Y30
G2 X0 Y31.5 I1.5
G1 X0.623
G3 X0.923 Y31.8 J0.3 F100
G1 Y32.1
G19 G3 Y32.4 Z-13.7 K0.3
G1 X0.323 F60
Z-14.7 F33
G2 Y32.1 Z-15 J-0.3
G1 Y31.8 F30
G17 G3 X0.623 Y31.5 I0.3
G1 X45 F60
G2 X46.5 Y30 J-1.5
G1 Y0
G2 X45 Y-1.5 I-1.5
G1 X0
G2 X-1.5 Y0 J1.5
G1 Y30
G2 X0 Y31.5 I1.5
G1 X0.623
G3 X0.923 Y31.8 J0.3 F100
G1 Y32.1
G19 G3 Y32.4 Z-14.7 K0.3
G1 X0.323 F60
Z-15.7 F33
G2 Y32.1 Z-16 J-0.3
G1 Y31.8 F30
G17 G3 X0.623 Y31.5 I0.3
G1 X45 F60
G2 X46.5 Y30 J-1.5
G1 Y0
G2 X45 Y-1.5 I-1.5
G1 X0
G2 X-1.5 Y0 J1.5
G1 Y30
G2 X0 Y31.5 I1.5
G1 X0.623
G3 X0.923 Y31.8 J0.3 F100
G1 Y32.1
G19 G3 Y32.4 Z-15.7 K0.3
G1 X0.323 F60
Z-16.7 F33
G2 Y32.1 Z-17 J-0.3
G1 Y31.8 F30
G17 G3 X0.623 Y31.5 I0.3
G1 X45 F60
G2 X46.5 Y30 J-1.5
G1 Y0
G2 X45 Y-1.5 I-1.5
G1 X0
G2 X-1.5 Y0 J1.5
G1 Y30
G2 X0 Y31.5 I1.5
G1 X0.623
G3 X0.923 Y31.8 J0.3 F100
G1 Y32.1
G19 G3 Y32.4 Z-16.7 K0.3
G1 X0.323 F60
Z-17.7 F33
G2 Y32.1 Z-18 J-0.3
G1 Y31.8 F30
G17 G3 X0.623 Y31.5 I0.3
G1 X45 F60
G2 X46.5 Y30 J-1.5
G1 Y0
G2 X45 Y-1.5 I-1.5
G1 X0
G2 X-1.5 Y0 J1.5
G1 Y30
G2 X0 Y31.5 I1.5
G1 X0.623
G3 X0.923 Y31.8 J0.3 F100
G1 Y32.1
G19 G3 Y32.4 Z-17.7 K0.3
G1 X0.323 F60
Z-18.7 F33
G2 Y32.1 Z-19 J-0.3
G1 Y31.8 F30
G17 G3 X0.623 Y31.5 I0.3
G1 X45 F60
G2 X46.5 Y30 J-1.5
G1 Y0
G2 X45 Y-1.5 I-1.5
G1 X0
G2 X-1.5 Y0 J1.5
G1 Y30
G2 X0 Y31.5 I1.5
G1 X0.623
G3 X0.923 Y31.8 J0.3 F100
G1 Y32.1
G19 G3 Y32.4 Z-18.7 K0.3
G0 Z1.8
G17
M9
G28 G91 Z0
G90
G28 G91 X0 Y0
G90
M30
%
