%
(1001)
(T1  D=3 CR=0.75 - ZMIN=-9 - bullnose end mill)
G90 G94
G17
G21
G28 G91 Z6
G90

(2D Pocket1)
M9
T1 M6
S1000 M3
G54
M8
G0 X3.748 Y33.638
Z5
Z2
G1 Z-0.7 F33
X3.75 Y33.635 Z-0.747
X3.756 Y33.626 Z-0.793
X3.767 Y33.611 Z-0.836
X3.783 Y33.593 Z-0.876
X3.805 Y33.572 Z-0.912
X3.834 Y33.55 Z-0.943
X3.868 Y33.53 Z-0.967
X3.909 Y33.514 Z-0.985
X3.953 Y33.504 Z-0.996
X4 Y33.5 Z-1
G3 Y34.5 J0.5 F50
Y33.5 J-0.5
G1 X4.031 Y33.507
X4.055 Y33.526
X4.07 Y33.554
X4.071 Y33.586
X4.058 Y33.614
X4.034 Y33.635
X3.843 Y33.74
X3.812 Y33.749
X3.781 Y33.744
X3.755 Y33.726
X3.74 Y33.699
X3.737 Y33.667
X3.748 Y33.638
Z-1.7 F33
X3.75 Y33.635 Z-1.747
X3.756 Y33.626 Z-1.793
X3.767 Y33.611 Z-1.836
X3.783 Y33.593 Z-1.876
X3.805 Y33.572 Z-1.912
X3.834 Y33.55 Z-1.943
X3.868 Y33.53 Z-1.967
X3.909 Y33.514 Z-1.985
X3.953 Y33.504 Z-1.996
X4 Y33.5 Z-2
G3 Y34.5 J0.5 F50
Y33.5 J-0.5
G1 X4.031 Y33.507
X4.055 Y33.526
X4.07 Y33.554
X4.071 Y33.586
X4.058 Y33.614
X4.034 Y33.635
X3.843 Y33.74
X3.812 Y33.749
X3.781 Y33.744
X3.755 Y33.726
X3.74 Y33.699
X3.737 Y33.667
X3.748 Y33.638
Z-2.7 F33
X3.75 Y33.635 Z-2.747
X3.756 Y33.626 Z-2.793
X3.767 Y33.611 Z-2.836
X3.783 Y33.593 Z-2.876
X3.805 Y33.572 Z-2.912
X3.834 Y33.55 Z-2.943
X3.868 Y33.53 Z-2.967
X3.909 Y33.514 Z-2.985
X3.953 Y33.504 Z-2.996
X4 Y33.5 Z-3
G3 Y34.5 J0.5 F50
Y33.5 J-0.5
G1 X4.031 Y33.507
X4.055 Y33.526
X4.07 Y33.554
X4.071 Y33.586
X4.058 Y33.614
X4.034 Y33.635
X3.843 Y33.74
X3.812 Y33.749
X3.781 Y33.744
X3.755 Y33.726
X3.74 Y33.699
X3.737 Y33.667
X3.748 Y33.638
Z-3.7 F33
X3.75 Y33.635 Z-3.747
X3.756 Y33.626 Z-3.793
X3.767 Y33.611 Z-3.836
X3.783 Y33.593 Z-3.876
X3.805 Y33.572 Z-3.912
X3.834 Y33.55 Z-3.943
X3.868 Y33.53 Z-3.967
X3.909 Y33.514 Z-3.985
X3.953 Y33.504 Z-3.996
X4 Y33.5 Z-4
G3 Y34.5 J0.5 F50
Y33.5 J-0.5
G1 X4.031 Y33.507
X4.055 Y33.526
X4.07 Y33.554
X4.071 Y33.586
X4.058 Y33.614
X4.034 Y33.635
X3.843 Y33.74
X3.812 Y33.749
X3.781 Y33.744
X3.755 Y33.726
X3.74 Y33.699
X3.737 Y33.667
X3.748 Y33.638
Z-4.7 F33
X3.75 Y33.635 Z-4.747
X3.756 Y33.626 Z-4.793
X3.767 Y33.611 Z-4.836
X3.783 Y33.593 Z-4.876
X3.805 Y33.572 Z-4.912
X3.834 Y33.55 Z-4.943
X3.868 Y33.53 Z-4.967
X3.909 Y33.514 Z-4.985
X3.953 Y33.504 Z-4.996
X4 Y33.5 Z-5
G3 Y34.5 J0.5 F50
Y33.5 J-0.5
G1 X4.031 Y33.507
X4.055 Y33.526
X4.07 Y33.554
X4.071 Y33.586
X4.058 Y33.614
X4.034 Y33.635
X3.843 Y33.74
X3.812 Y33.749
X3.781 Y33.744
X3.755 Y33.726
X3.74 Y33.699
X3.737 Y33.667
X3.748 Y33.638
Z-5.7 F33
X3.75 Y33.635 Z-5.747
X3.756 Y33.626 Z-5.793
X3.767 Y33.611 Z-5.836
X3.783 Y33.593 Z-5.876
X3.805 Y33.572 Z-5.912
X3.834 Y33.55 Z-5.943
X3.868 Y33.53 Z-5.967
X3.909 Y33.514 Z-5.985
X3.953 Y33.504 Z-5.996
X4 Y33.5 Z-6
G3 Y34.5 J0.5 F50
Y33.5 J-0.5
G1 X4.031 Y33.507
X4.055 Y33.526
X4.07 Y33.554
X4.071 Y33.586
X4.058 Y33.614
X4.034 Y33.635
X3.843 Y33.74
X3.812 Y33.749
X3.781 Y33.744
X3.755 Y33.726
X3.74 Y33.699
X3.737 Y33.667
X3.748 Y33.638
Z-6.7 F33
X3.75 Y33.635 Z-6.747
X3.756 Y33.626 Z-6.793
X3.767 Y33.611 Z-6.836
X3.783 Y33.593 Z-6.876
X3.805 Y33.572 Z-6.912
X3.834 Y33.55 Z-6.943
X3.868 Y33.53 Z-6.967
X3.909 Y33.514 Z-6.985
X3.953 Y33.504 Z-6.996
X4 Y33.5 Z-7
G3 Y34.5 J0.5 F50
Y33.5 J-0.5
G1 X4.031 Y33.507
X4.055 Y33.526
X4.07 Y33.554
X4.071 Y33.586
X4.058 Y33.614
X4.034 Y33.635
X3.843 Y33.74
X3.812 Y33.749
X3.781 Y33.744
X3.755 Y33.726
X3.74 Y33.699
X3.737 Y33.667
X3.748 Y33.638
Z-7.7 F33
X3.75 Y33.635 Z-7.747
X3.756 Y33.626 Z-7.793
X3.767 Y33.611 Z-7.836
X3.783 Y33.593 Z-7.876
X3.805 Y33.572 Z-7.912
X3.834 Y33.55 Z-7.943
X3.868 Y33.53 Z-7.967
X3.909 Y33.514 Z-7.985
X3.953 Y33.504 Z-7.996
X4 Y33.5 Z-8
G3 Y34.5 J0.5 F50
Y33.5 J-0.5
G1 X4.031 Y33.507
X4.055 Y33.526
X4.07 Y33.554
X4.071 Y33.586
X4.058 Y33.614
X4.034 Y33.635
X3.843 Y33.74
X3.812 Y33.749
X3.781 Y33.744
X3.755 Y33.726
X3.74 Y33.699
X3.737 Y33.667
X3.748 Y33.638
Z-8.7 F33
X3.75 Y33.635 Z-8.747
X3.756 Y33.626 Z-8.793
X3.767 Y33.611 Z-8.836
X3.783 Y33.593 Z-8.876
X3.805 Y33.572 Z-8.912
X3.834 Y33.55 Z-8.943
X3.868 Y33.53 Z-8.967
X3.909 Y33.514 Z-8.985
X3.953 Y33.504 Z-8.996
X4 Y33.5 Z-9
G3 Y34.5 J0.5 F50
Y33.5 J-0.5
G1 X4.047 Y33.504 Z-8.996 F100
X4.091 Y33.514 Z-8.985
X4.132 Y33.53 Z-8.967
X4.166 Y33.55 Z-8.943
X4.195 Y33.572 Z-8.912
X4.217 Y33.593 Z-8.876
X4.233 Y33.611 Z-8.836
X4.244 Y33.626 Z-8.793
X4.25 Y33.635 Z-8.747
X4.252 Y33.638 Z-8.7
G0 Z2
X61.638 Y34.252
G1 Z-0.7 F33
X61.635 Y34.25 Z-0.747
X61.626 Y34.244 Z-0.793
X61.611 Y34.233 Z-0.836
X61.593 Y34.217 Z-0.876
X61.572 Y34.195 Z-0.912
X61.55 Y34.166 Z-0.943
X61.53 Y34.132 Z-0.967
X61.514 Y34.091 Z-0.985
X61.504 Y34.047 Z-0.996
X61.5 Y34 Z-1
G3 X62.5 I0.5 F50
X61.5 I-0.5
G1 X61.507 Y33.969
X61.526 Y33.945
X61.554 Y33.93
X61.586 Y33.929
X61.614 Y33.942
X61.635 Y33.966
X61.74 Y34.157
X61.749 Y34.188
X61.744 Y34.219
X61.726 Y34.245
X61.699 Y34.26
X61.667 Y34.263
X61.638 Y34.252
Z-1.7 F33
X61.635 Y34.25 Z-1.747
X61.626 Y34.244 Z-1.793
X61.611 Y34.233 Z-1.836
X61.593 Y34.217 Z-1.876
X61.572 Y34.195 Z-1.912
X61.55 Y34.166 Z-1.943
X61.53 Y34.132 Z-1.967
X61.514 Y34.091 Z-1.985
X61.504 Y34.047 Z-1.996
X61.5 Y34 Z-2
G3 X62.5 I0.5 F50
X61.5 I-0.5
G1 X61.507 Y33.969
X61.526 Y33.945
X61.554 Y33.93
X61.586 Y33.929
X61.614 Y33.942
X61.635 Y33.966
X61.74 Y34.157
X61.749 Y34.188
X61.744 Y34.219
X61.726 Y34.245
X61.699 Y34.26
X61.667 Y34.263
X61.638 Y34.252
Z-2.7 F33
X61.635 Y34.25 Z-2.747
X61.626 Y34.244 Z-2.793
X61.611 Y34.233 Z-2.836
X61.593 Y34.217 Z-2.876
X61.572 Y34.195 Z-2.912
X61.55 Y34.166 Z-2.943
X61.53 Y34.132 Z-2.967
X61.514 Y34.091 Z-2.985
X61.504 Y34.047 Z-2.996
X61.5 Y34 Z-3
G3 X62.5 I0.5 F50
X61.5 I-0.5
G1 X61.507 Y33.969
X61.526 Y33.945
X61.554 Y33.93
X61.586 Y33.929
X61.614 Y33.942
X61.635 Y33.966
X61.74 Y34.157
X61.749 Y34.188
X61.744 Y34.219
X61.726 Y34.245
X61.699 Y34.26
X61.667 Y34.263
X61.638 Y34.252
Z-3.7 F33
X61.635 Y34.25 Z-3.747
X61.626 Y34.244 Z-3.793
X61.611 Y34.233 Z-3.836
X61.593 Y34.217 Z-3.876
X61.572 Y34.195 Z-3.912
X61.55 Y34.166 Z-3.943
X61.53 Y34.132 Z-3.967
X61.514 Y34.091 Z-3.985
X61.504 Y34.047 Z-3.996
X61.5 Y34 Z-4
G3 X62.5 I0.5 F50
X61.5 I-0.5
G1 X61.507 Y33.969
X61.526 Y33.945
X61.554 Y33.93
X61.586 Y33.929
X61.614 Y33.942
X61.635 Y33.966
X61.74 Y34.157
X61.749 Y34.188
X61.744 Y34.219
X61.726 Y34.245
X61.699 Y34.26
X61.667 Y34.263
X61.638 Y34.252
Z-4.7 F33
X61.635 Y34.25 Z-4.747
X61.626 Y34.244 Z-4.793
X61.611 Y34.233 Z-4.836
X61.593 Y34.217 Z-4.876
X61.572 Y34.195 Z-4.912
X61.55 Y34.166 Z-4.943
X61.53 Y34.132 Z-4.967
X61.514 Y34.091 Z-4.985
X61.504 Y34.047 Z-4.996
X61.5 Y34 Z-5
G3 X62.5 I0.5 F50
X61.5 I-0.5
G1 X61.507 Y33.969
X61.526 Y33.945
X61.554 Y33.93
X61.586 Y33.929
X61.614 Y33.942
X61.635 Y33.966
X61.74 Y34.157
X61.749 Y34.188
X61.744 Y34.219
X61.726 Y34.245
X61.699 Y34.26
X61.667 Y34.263
X61.638 Y34.252
Z-5.7 F33
X61.635 Y34.25 Z-5.747
X61.626 Y34.244 Z-5.793
X61.611 Y34.233 Z-5.836
X61.593 Y34.217 Z-5.876
X61.572 Y34.195 Z-5.912
X61.55 Y34.166 Z-5.943
X61.53 Y34.132 Z-5.967
X61.514 Y34.091 Z-5.985
X61.504 Y34.047 Z-5.996
X61.5 Y34 Z-6
G3 X62.5 I0.5 F50
X61.5 I-0.5
G1 X61.507 Y33.969
X61.526 Y33.945
X61.554 Y33.93
X61.586 Y33.929
X61.614 Y33.942
X61.635 Y33.966
X61.74 Y34.157
X61.749 Y34.188
X61.744 Y34.219
X61.726 Y34.245
X61.699 Y34.26
X61.667 Y34.263
X61.638 Y34.252
Z-6.7 F33
X61.635 Y34.25 Z-6.747
X61.626 Y34.244 Z-6.793
X61.611 Y34.233 Z-6.836
X61.593 Y34.217 Z-6.876
X61.572 Y34.195 Z-6.912
X61.55 Y34.166 Z-6.943
X61.53 Y34.132 Z-6.967
X61.514 Y34.091 Z-6.985
X61.504 Y34.047 Z-6.996
X61.5 Y34 Z-7
G3 X62.5 I0.5 F50
X61.5 I-0.5
G1 X61.507 Y33.969
X61.526 Y33.945
X61.554 Y33.93
X61.586 Y33.929
X61.614 Y33.942
X61.635 Y33.966
X61.74 Y34.157
X61.749 Y34.188
X61.744 Y34.219
X61.726 Y34.245
X61.699 Y34.26
X61.667 Y34.263
X61.638 Y34.252
Z-7.7 F33
X61.635 Y34.25 Z-7.747
X61.626 Y34.244 Z-7.793
X61.611 Y34.233 Z-7.836
X61.593 Y34.217 Z-7.876
X61.572 Y34.195 Z-7.912
X61.55 Y34.166 Z-7.943
X61.53 Y34.132 Z-7.967
X61.514 Y34.091 Z-7.985
X61.504 Y34.047 Z-7.996
X61.5 Y34 Z-8
G3 X62.5 I0.5 F50
X61.5 I-0.5
G1 X61.507 Y33.969
X61.526 Y33.945
X61.554 Y33.93
X61.586 Y33.929
X61.614 Y33.942
X61.635 Y33.966
X61.74 Y34.157
X61.749 Y34.188
X61.744 Y34.219
X61.726 Y34.245
X61.699 Y34.26
X61.667 Y34.263
X61.638 Y34.252
Z-8.7 F33
X61.635 Y34.25 Z-8.747
X61.626 Y34.244 Z-8.793
X61.611 Y34.233 Z-8.836
X61.593 Y34.217 Z-8.876
X61.572 Y34.195 Z-8.912
X61.55 Y34.166 Z-8.943
X61.53 Y34.132 Z-8.967
X61.514 Y34.091 Z-8.985
X61.504 Y34.047 Z-8.996
X61.5 Y34 Z-9
G3 X62.5 I0.5 F50
X61.5 I-0.5
G1 X61.504 Y33.953 Z-8.996 F100
X61.514 Y33.909 Z-8.985
X61.53 Y33.868 Z-8.967
X61.55 Y33.834 Z-8.943
X61.572 Y33.805 Z-8.912
X61.593 Y33.783 Z-8.876
X61.611 Y33.767 Z-8.836
X61.626 Y33.756 Z-8.793
X61.635 Y33.75 Z-8.747
X61.638 Y33.748 Z-8.7
G0 Z5

(2D Contour1)
X66.3 Y-2.4
Z5
Z2
G1 Z-0.7 F33
G19 G3 Y-2.1 Z-1 J0.3
G1 Y-1.8 F30
G17 G3 X66 Y-1.5 I-0.3
G1 X0 F60
G2 X-1.5 Y0 J1.5
G1 Y42
G2 X0 Y43.5 I1.5
G1 X66
G2 X67.5 Y42 J-1.5
G1 Y0
G2 X66 Y-1.5 I-1.5
G3 X65.7 Y-1.8 J-0.3 F100
G1 Y-2.1
G19 G2 Y-2.4 Z-0.7 K0.3
G1 X66.3 F60
Z-1.7 F33
G3 Y-2.1 Z-2 J0.3
G1 Y-1.8 F30
G17 G3 X66 Y-1.5 I-0.3
G1 X0 F60
G2 X-1.5 Y0 J1.5
G1 Y42
G2 X0 Y43.5 I1.5
G1 X66
G2 X67.5 Y42 J-1.5
G1 Y0
G2 X66 Y-1.5 I-1.5
G3 X65.7 Y-1.8 J-0.3 F100
G1 Y-2.1
G19 G2 Y-2.4 Z-1.7 K0.3
G1 X66.3 F60
Z-2.7 F33
G3 Y-2.1 Z-3 J0.3
G1 Y-1.8 F30
G17 G3 X66 Y-1.5 I-0.3
G1 X0 F60
G2 X-1.5 Y0 J1.5
G1 Y42
G2 X0 Y43.5 I1.5
G1 X66
G2 X67.5 Y42 J-1.5
G1 Y0
G2 X66 Y-1.5 I-1.5
G3 X65.7 Y-1.8 J-0.3 F100
G1 Y-2.1
G19 G2 Y-2.4 Z-2.7 K0.3
G1 X66.3 F60
Z-3.7 F33
G3 Y-2.1 Z-4 J0.3
G1 Y-1.8 F30
G17 G3 X66 Y-1.5 I-0.3
G1 X0 F60
G2 X-1.5 Y0 J1.5
G1 Y42
G2 X0 Y43.5 I1.5
G1 X66
G2 X67.5 Y42 J-1.5
G1 Y0
G2 X66 Y-1.5 I-1.5
G3 X65.7 Y-1.8 J-0.3 F100
G1 Y-2.1
G19 G2 Y-2.4 Z-3.7 K0.3
G1 X66.3 F60
Z-4.7 F33
G3 Y-2.1 Z-5 J0.3
G1 Y-1.8 F30
G17 G3 X66 Y-1.5 I-0.3
G1 X0 F60
G2 X-1.5 Y0 J1.5
G1 Y42
G2 X0 Y43.5 I1.5
G1 X66
G2 X67.5 Y42 J-1.5
G1 Y0
G2 X66 Y-1.5 I-1.5
G3 X65.7 Y-1.8 J-0.3 F100
G1 Y-2.1
G19 G2 Y-2.4 Z-4.7 K0.3
G1 X66.3 F60
Z-5.7 F33
G3 Y-2.1 Z-6 J0.3
G1 Y-1.8 F30
G17 G3 X66 Y-1.5 I-0.3
G1 X0 F60
G2 X-1.5 Y0 J1.5
G1 Y42
G2 X0 Y43.5 I1.5
G1 X66
G2 X67.5 Y42 J-1.5
G1 Y0
G2 X66 Y-1.5 I-1.5
G3 X65.7 Y-1.8 J-0.3 F100
G1 Y-2.1
G19 G2 Y-2.4 Z-5.7 K0.3
G1 X66.3 F60
Z-6.7 F33
G3 Y-2.1 Z-7 J0.3
G1 Y-1.8 F30
G17 G3 X66 Y-1.5 I-0.3
G1 X0 F60
G2 X-1.5 Y0 J1.5
G1 Y42
G2 X0 Y43.5 I1.5
G1 X66
G2 X67.5 Y42 J-1.5
G1 Y0
G2 X66 Y-1.5 I-1.5
G3 X65.7 Y-1.8 J-0.3 F100
G1 Y-2.1
G19 G2 Y-2.4 Z-6.7 K0.3
G1 X66.3 F60
Z-7.7 F33
G3 Y-2.1 Z-8 J0.3
G1 Y-1.8 F30
G17 G3 X66 Y-1.5 I-0.3
G1 X0 F60
G2 X-1.5 Y0 J1.5
G1 Y42
G2 X0 Y43.5 I1.5
G1 X66
G2 X67.5 Y42 J-1.5
G1 Y0
G2 X66 Y-1.5 I-1.5
G3 X65.7 Y-1.8 J-0.3 F100
G1 Y-2.1
G19 G2 Y-2.4 Z-7.7 K0.3
G1 X66.3 F60
Z-8.7 F33
G3 Y-2.1 Z-9 J0.3
G1 Y-1.8 F30
G17 G3 X66 Y-1.5 I-0.3
G1 X0 F60
G2 X-1.5 Y0 J1.5
G1 Y42
G2 X0 Y43.5 I1.5
G1 X66
G2 X67.5 Y42 J-1.5
G1 Y0
G2 X66 Y-1.5 I-1.5
G3 X65.7 Y-1.8 J-0.3 F100
G1 Y-2.1
G19 G2 Y-2.4 Z-8.7 K0.3
G0 Z5
G17
M9
G28 G91 Z0
G90
G28 G91 X0 Y0
G90
M30
%
