%
(1001)
(T1  D=3 CR=0.75 - ZMIN=-16 - bullnose end mill)
G90 G94
G17
G21
G28 G91 Z0.5
G90

(2D Pocket1)
M9
T1 M6
S1000 M3
G54
M8
G0 X-0.371 Y18.49
Z2.8
G1 Z-0.7 F30
G19 G2 Y18.19 Z-1 J-0.3
G1 Y16.49
Y-16.489 F60
X-0.364 Y-16.536
X-0.342 Y-16.577
X-0.309 Y-16.611
X-0.267 Y-16.632
X-0.221 Y-16.639
X0.221 Y-16.64
X0.267 Y-16.632
X0.309 Y-16.611
X0.342 Y-16.578
X0.364 Y-16.536
X0.371 Y-16.49
Y16.489
X0.364 Y16.536
X0.342 Y16.577
X0.309 Y16.611
X0.267 Y16.632
X0.221 Y16.639
X-0.984
X-1.031 Y16.632
X-1.073 Y16.61
X-1.106 Y16.577
X-1.127 Y16.535
X-1.134 Y16.489
Y-16.488
X-1.127 Y-16.535
X-1.106 Y-16.576
X-1.073 Y-16.61
X-1.031 Y-16.631
X-0.984 Y-16.638
X0.984 Y-16.639
X1.031 Y-16.632
X1.072 Y-16.61
X1.106 Y-16.577
X1.127 Y-16.535
X1.134 Y-16.489
Y16.488
X1.127 Y16.535
X1.106 Y16.576
X1.073 Y16.61
X1.031 Y16.631
X0.984 Y16.638
X-2.165
X-2.211 Y16.631
X-2.253 Y16.61
X-2.286 Y16.577
X-2.307 Y16.535
X-2.315 Y16.488
Y-16.489
X-2.307 Y-16.535
X-2.286 Y-16.577
X-2.253 Y-16.61
X-2.211 Y-16.632
X-2.165 Y-16.639
X2.165 Y-16.638
X2.211 Y-16.631
X2.253 Y-16.61
X2.286 Y-16.577
X2.307 Y-16.535
X2.315 Y-16.488
Y16.489
X2.307 Y16.535
X2.286 Y16.577
X2.253 Y16.61
X2.211 Y16.632
X2.165 Y16.639
X-3.35 Y16.64
X-3.396 Y16.632
X-3.438 Y16.611
X-3.471 Y16.578
X-3.493 Y16.536
X-3.5 Y16.49
Y-15
Y-16.489
X-3.493 Y-16.536
X-3.471 Y-16.578
X-3.438 Y-16.611
X-3.396 Y-16.632
X-3.35 Y-16.639
X3.35 Y-16.64
X3.396 Y-16.632
X3.438 Y-16.611
X3.471 Y-16.578
X3.493 Y-16.536
X3.5 Y-16.49
Y15
Y16.489
X3.494 Y16.531
X3.477 Y16.569
X3.45 Y16.601
X3.415 Y16.624
X3.375 Y16.637
X-0.196 Y17.249
X-0.239 Y17.25
X-0.281 Y17.239
X-0.318 Y17.216
X-0.346 Y17.184
X-0.365 Y17.144
X-0.371 Y17.101
G3 Y16.801 Z-1.3 K-0.3 F30
G1 Z-1.7
G2 Y16.501 Z-2 J-0.3
G1 Y16.49
Y-16.489 F60
X-0.364 Y-16.536
X-0.342 Y-16.577
X-0.309 Y-16.611
X-0.267 Y-16.632
X-0.221 Y-16.639
X0.221 Y-16.64
X0.267 Y-16.632
X0.309 Y-16.611
X0.342 Y-16.578
X0.364 Y-16.536
X0.371 Y-16.49
Y16.489
X0.364 Y16.536
X0.342 Y16.577
X0.309 Y16.611
X0.267 Y16.632
X0.221 Y16.639
X-0.984
X-1.031 Y16.632
X-1.073 Y16.61
X-1.106 Y16.577
X-1.127 Y16.535
X-1.134 Y16.489
Y-16.488
X-1.127 Y-16.535
X-1.106 Y-16.576
X-1.073 Y-16.61
X-1.031 Y-16.631
X-0.984 Y-16.638
X0.984 Y-16.639
X1.031 Y-16.632
X1.072 Y-16.61
X1.106 Y-16.577
X1.127 Y-16.535
X1.134 Y-16.489
Y16.488
X1.127 Y16.535
X1.106 Y16.576
X1.073 Y16.61
X1.031 Y16.631
X0.984 Y16.638
X-2.165
X-2.211 Y16.631
X-2.253 Y16.61
X-2.286 Y16.577
X-2.307 Y16.535
X-2.315 Y16.488
Y-16.489
X-2.307 Y-16.535
X-2.286 Y-16.577
X-2.253 Y-16.61
X-2.211 Y-16.632
X-2.165 Y-16.639
X2.165 Y-16.638
X2.211 Y-16.631
X2.253 Y-16.61
X2.286 Y-16.577
X2.307 Y-16.535
X2.315 Y-16.488
Y16.489
X2.307 Y16.535
X2.286 Y16.577
X2.253 Y16.61
X2.211 Y16.632
X2.165 Y16.639
X-3.35 Y16.64
X-3.396 Y16.632
X-3.438 Y16.611
X-3.471 Y16.578
X-3.493 Y16.536
X-3.5 Y16.49
Y-15
Y-16.489
X-3.493 Y-16.536
X-3.471 Y-16.578
X-3.438 Y-16.611
X-3.396 Y-16.632
X-3.35 Y-16.639
X3.35 Y-16.64
X3.396 Y-16.632
X3.438 Y-16.611
X3.471 Y-16.578
X3.493 Y-16.536
X3.5 Y-16.49
Y15
Y16.489
X3.494 Y16.531
X3.477 Y16.569
X3.45 Y16.601
X3.415 Y16.624
X3.375 Y16.637
X-0.196 Y17.249
X-0.239 Y17.25
X-0.281 Y17.239
X-0.318 Y17.216
X-0.346 Y17.184
X-0.365 Y17.144
X-0.371 Y17.101
G3 Y16.801 Z-2.3 K-0.3 F30
G1 Z-2.7
G2 Y16.501 Z-3 J-0.3
G1 Y16.49
Y-16.489 F60
X-0.364 Y-16.536
X-0.342 Y-16.577
X-0.309 Y-16.611
X-0.267 Y-16.632
X-0.221 Y-16.639
X0.221 Y-16.64
X0.267 Y-16.632
X0.309 Y-16.611
X0.342 Y-16.578
X0.364 Y-16.536
X0.371 Y-16.49
Y16.489
X0.364 Y16.536
X0.342 Y16.577
X0.309 Y16.611
X0.267 Y16.632
X0.221 Y16.639
X-0.984
X-1.031 Y16.632
X-1.073 Y16.61
X-1.106 Y16.577
X-1.127 Y16.535
X-1.134 Y16.489
Y-16.488
X-1.127 Y-16.535
X-1.106 Y-16.576
X-1.073 Y-16.61
X-1.031 Y-16.631
X-0.984 Y-16.638
X0.984 Y-16.639
X1.031 Y-16.632
X1.072 Y-16.61
X1.106 Y-16.577
X1.127 Y-16.535
X1.134 Y-16.489
Y16.488
X1.127 Y16.535
X1.106 Y16.576
X1.073 Y16.61
X1.031 Y16.631
X0.984 Y16.638
X-2.165
X-2.211 Y16.631
X-2.253 Y16.61
X-2.286 Y16.577
X-2.307 Y16.535
X-2.315 Y16.488
Y-16.489
X-2.307 Y-16.535
X-2.286 Y-16.577
X-2.253 Y-16.61
X-2.211 Y-16.632
X-2.165 Y-16.639
X2.165 Y-16.638
X2.211 Y-16.631
X2.253 Y-16.61
X2.286 Y-16.577
X2.307 Y-16.535
X2.315 Y-16.488
Y16.489
X2.307 Y16.535
X2.286 Y16.577
X2.253 Y16.61
X2.211 Y16.632
X2.165 Y16.639
X-3.35 Y16.64
X-3.396 Y16.632
X-3.438 Y16.611
X-3.471 Y16.578
X-3.493 Y16.536
X-3.5 Y16.49
Y-15
Y-16.489
X-3.493 Y-16.536
X-3.471 Y-16.578
X-3.438 Y-16.611
X-3.396 Y-16.632
X-3.35 Y-16.639
X3.35 Y-16.64
X3.396 Y-16.632
X3.438 Y-16.611
X3.471 Y-16.578
X3.493 Y-16.536
X3.5 Y-16.49
Y15
Y16.489
X3.494 Y16.531
X3.477 Y16.569
X3.45 Y16.601
X3.415 Y16.624
X3.375 Y16.637
X-0.196 Y17.249
X-0.239 Y17.25
X-0.281 Y17.239
X-0.318 Y17.216
X-0.346 Y17.184
X-0.365 Y17.144
X-0.371 Y17.101
G3 Y16.801 Z-3.3 K-0.3 F30
G1 Z-3.7
G2 Y16.501 Z-4 J-0.3
G1 Y16.49
Y-16.489 F60
X-0.364 Y-16.536
X-0.342 Y-16.577
X-0.309 Y-16.611
X-0.267 Y-16.632
X-0.221 Y-16.639
X0.221 Y-16.64
X0.267 Y-16.632
X0.309 Y-16.611
X0.342 Y-16.578
X0.364 Y-16.536
X0.371 Y-16.49
Y16.489
X0.364 Y16.536
X0.342 Y16.577
X0.309 Y16.611
X0.267 Y16.632
X0.221 Y16.639
X-0.984
X-1.031 Y16.632
X-1.073 Y16.61
X-1.106 Y16.577
X-1.127 Y16.535
X-1.134 Y16.489
Y-16.488
X-1.127 Y-16.535
X-1.106 Y-16.576
X-1.073 Y-16.61
X-1.031 Y-16.631
X-0.984 Y-16.638
X0.984 Y-16.639
X1.031 Y-16.632
X1.072 Y-16.61
X1.106 Y-16.577
X1.127 Y-16.535
X1.134 Y-16.489
Y16.488
X1.127 Y16.535
X1.106 Y16.576
X1.073 Y16.61
X1.031 Y16.631
X0.984 Y16.638
X-2.165
X-2.211 Y16.631
X-2.253 Y16.61
X-2.286 Y16.577
X-2.307 Y16.535
X-2.315 Y16.488
Y-16.489
X-2.307 Y-16.535
X-2.286 Y-16.577
X-2.253 Y-16.61
X-2.211 Y-16.632
X-2.165 Y-16.639
X2.165 Y-16.638
X2.211 Y-16.631
X2.253 Y-16.61
X2.286 Y-16.577
X2.307 Y-16.535
X2.315 Y-16.488
Y16.489
X2.307 Y16.535
X2.286 Y16.577
X2.253 Y16.61
X2.211 Y16.632
X2.165 Y16.639
X-3.35 Y16.64
X-3.396 Y16.632
X-3.438 Y16.611
X-3.471 Y16.578
X-3.493 Y16.536
X-3.5 Y16.49
Y-15
Y-16.489
X-3.493 Y-16.536
X-3.471 Y-16.578
X-3.438 Y-16.611
X-3.396 Y-16.632
X-3.35 Y-16.639
X3.35 Y-16.64
X3.396 Y-16.632
X3.438 Y-16.611
X3.471 Y-16.578
X3.493 Y-16.536
X3.5 Y-16.49
Y15
Y16.489
X3.494 Y16.531
X3.477 Y16.569
X3.45 Y16.601
X3.415 Y16.624
X3.375 Y16.637
X-0.196 Y17.249
X-0.239 Y17.25
X-0.281 Y17.239
X-0.318 Y17.216
X-0.346 Y17.184
X-0.365 Y17.144
X-0.371 Y17.101
G3 Y16.801 Z-4.3 K-0.3 F30
G1 Z-4.7
G2 Y16.501 Z-5 J-0.3
G1 Y16.49
Y-16.489 F60
X-0.364 Y-16.536
X-0.342 Y-16.577
X-0.309 Y-16.611
X-0.267 Y-16.632
X-0.221 Y-16.639
X0.221 Y-16.64
X0.267 Y-16.632
X0.309 Y-16.611
X0.342 Y-16.578
X0.364 Y-16.536
X0.371 Y-16.49
Y16.489
X0.364 Y16.536
X0.342 Y16.577
X0.309 Y16.611
X0.267 Y16.632
X0.221 Y16.639
X-0.984
X-1.031 Y16.632
X-1.073 Y16.61
X-1.106 Y16.577
X-1.127 Y16.535
X-1.134 Y16.489
Y-16.488
X-1.127 Y-16.535
X-1.106 Y-16.576
X-1.073 Y-16.61
X-1.031 Y-16.631
X-0.984 Y-16.638
X0.984 Y-16.639
X1.031 Y-16.632
X1.072 Y-16.61
X1.106 Y-16.577
X1.127 Y-16.535
X1.134 Y-16.489
Y16.488
X1.127 Y16.535
X1.106 Y16.576
X1.073 Y16.61
X1.031 Y16.631
X0.984 Y16.638
X-2.165
X-2.211 Y16.631
X-2.253 Y16.61
X-2.286 Y16.577
X-2.307 Y16.535
X-2.315 Y16.488
Y-16.489
X-2.307 Y-16.535
X-2.286 Y-16.577
X-2.253 Y-16.61
X-2.211 Y-16.632
X-2.165 Y-16.639
X2.165 Y-16.638
X2.211 Y-16.631
X2.253 Y-16.61
X2.286 Y-16.577
X2.307 Y-16.535
X2.315 Y-16.488
Y16.489
X2.307 Y16.535
X2.286 Y16.577
X2.253 Y16.61
X2.211 Y16.632
X2.165 Y16.639
X-3.35 Y16.64
X-3.396 Y16.632
X-3.438 Y16.611
X-3.471 Y16.578
X-3.493 Y16.536
X-3.5 Y16.49
Y-15
Y-16.489
X-3.493 Y-16.536
X-3.471 Y-16.578
X-3.438 Y-16.611
X-3.396 Y-16.632
X-3.35 Y-16.639
X3.35 Y-16.64
X3.396 Y-16.632
X3.438 Y-16.611
X3.471 Y-16.578
X3.493 Y-16.536
X3.5 Y-16.49
Y15
Y16.489
X3.494 Y16.531
X3.477 Y16.569
X3.45 Y16.601
X3.415 Y16.624
X3.375 Y16.637
X-0.196 Y17.249
X-0.239 Y17.25
X-0.281 Y17.239
X-0.318 Y17.216
X-0.346 Y17.184
X-0.365 Y17.144
X-0.371 Y17.101
G3 Y16.801 Z-5.3 K-0.3 F30
G1 Z-5.7
G2 Y16.501 Z-6 J-0.3
G1 Y16.49
Y-16.489 F60
X-0.364 Y-16.536
X-0.342 Y-16.577
X-0.309 Y-16.611
X-0.267 Y-16.632
X-0.221 Y-16.639
X0.221 Y-16.64
X0.267 Y-16.632
X0.309 Y-16.611
X0.342 Y-16.578
X0.364 Y-16.536
X0.371 Y-16.49
Y16.489
X0.364 Y16.536
X0.342 Y16.577
X0.309 Y16.611
X0.267 Y16.632
X0.221 Y16.639
X-0.984
X-1.031 Y16.632
X-1.073 Y16.61
X-1.106 Y16.577
X-1.127 Y16.535
X-1.134 Y16.489
Y-16.488
X-1.127 Y-16.535
X-1.106 Y-16.576
X-1.073 Y-16.61
X-1.031 Y-16.631
X-0.984 Y-16.638
X0.984 Y-16.639
X1.031 Y-16.632
X1.072 Y-16.61
X1.106 Y-16.577
X1.127 Y-16.535
X1.134 Y-16.489
Y16.488
X1.127 Y16.535
X1.106 Y16.576
X1.073 Y16.61
X1.031 Y16.631
X0.984 Y16.638
X-2.165
X-2.211 Y16.631
X-2.253 Y16.61
X-2.286 Y16.577
X-2.307 Y16.535
X-2.315 Y16.488
Y-16.489
X-2.307 Y-16.535
X-2.286 Y-16.577
X-2.253 Y-16.61
X-2.211 Y-16.632
X-2.165 Y-16.639
X2.165 Y-16.638
X2.211 Y-16.631
X2.253 Y-16.61
X2.286 Y-16.577
X2.307 Y-16.535
X2.315 Y-16.488
Y16.489
X2.307 Y16.535
X2.286 Y16.577
X2.253 Y16.61
X2.211 Y16.632
X2.165 Y16.639
X-3.35 Y16.64
X-3.396 Y16.632
X-3.438 Y16.611
X-3.471 Y16.578
X-3.493 Y16.536
X-3.5 Y16.49
Y-15
Y-16.489
X-3.493 Y-16.536
X-3.471 Y-16.578
X-3.438 Y-16.611
X-3.396 Y-16.632
X-3.35 Y-16.639
X3.35 Y-16.64
X3.396 Y-16.632
X3.438 Y-16.611
X3.471 Y-16.578
X3.493 Y-16.536
X3.5 Y-16.49
Y15
Y16.489
X3.494 Y16.531
X3.477 Y16.569
X3.45 Y16.601
X3.415 Y16.624
X3.375 Y16.637
X-0.196 Y17.249
X-0.239 Y17.25
X-0.281 Y17.239
X-0.318 Y17.216
X-0.346 Y17.184
X-0.365 Y17.144
X-0.371 Y17.101
G3 Y16.801 Z-6.3 K-0.3 F30
G1 Z-6.7
G2 Y16.501 Z-7 J-0.3
G1 Y16.49
Y-16.489 F60
X-0.364 Y-16.536
X-0.342 Y-16.577
X-0.309 Y-16.611
X-0.267 Y-16.632
X-0.221 Y-16.639
X0.221 Y-16.64
X0.267 Y-16.632
X0.309 Y-16.611
X0.342 Y-16.578
X0.364 Y-16.536
X0.371 Y-16.49
Y16.489
X0.364 Y16.536
X0.342 Y16.577
X0.309 Y16.611
X0.267 Y16.632
X0.221 Y16.639
X-0.984
X-1.031 Y16.632
X-1.073 Y16.61
X-1.106 Y16.577
X-1.127 Y16.535
X-1.134 Y16.489
Y-16.488
X-1.127 Y-16.535
X-1.106 Y-16.576
X-1.073 Y-16.61
X-1.031 Y-16.631
X-0.984 Y-16.638
X0.984 Y-16.639
X1.031 Y-16.632
X1.072 Y-16.61
X1.106 Y-16.577
X1.127 Y-16.535
X1.134 Y-16.489
Y16.488
X1.127 Y16.535
X1.106 Y16.576
X1.073 Y16.61
X1.031 Y16.631
X0.984 Y16.638
X-2.165
X-2.211 Y16.631
X-2.253 Y16.61
X-2.286 Y16.577
X-2.307 Y16.535
X-2.315 Y16.488
Y-16.489
X-2.307 Y-16.535
X-2.286 Y-16.577
X-2.253 Y-16.61
X-2.211 Y-16.632
X-2.165 Y-16.639
X2.165 Y-16.638
X2.211 Y-16.631
X2.253 Y-16.61
X2.286 Y-16.577
X2.307 Y-16.535
X2.315 Y-16.488
Y16.489
X2.307 Y16.535
X2.286 Y16.577
X2.253 Y16.61
X2.211 Y16.632
X2.165 Y16.639
X-3.35 Y16.64
X-3.396 Y16.632
X-3.438 Y16.611
X-3.471 Y16.578
X-3.493 Y16.536
X-3.5 Y16.49
Y-15
Y-16.489
X-3.493 Y-16.536
X-3.471 Y-16.578
X-3.438 Y-16.611
X-3.396 Y-16.632
X-3.35 Y-16.639
X3.35 Y-16.64
X3.396 Y-16.632
X3.438 Y-16.611
X3.471 Y-16.578
X3.493 Y-16.536
X3.5 Y-16.49
Y15
Y16.489
X3.494 Y16.531
X3.477 Y16.569
X3.45 Y16.601
X3.415 Y16.624
X3.375 Y16.637
X-0.196 Y17.249
X-0.239 Y17.25
X-0.281 Y17.239
X-0.318 Y17.216
X-0.346 Y17.184
X-0.365 Y17.144
X-0.371 Y17.101
G3 Y16.801 Z-7.3 K-0.3 F30
G1 Z-7.7
G2 Y16.501 Z-8 J-0.3
G1 Y16.49
Y-16.489 F60
X-0.364 Y-16.536
X-0.342 Y-16.577
X-0.309 Y-16.611
X-0.267 Y-16.632
X-0.221 Y-16.639
X0.221 Y-16.64
X0.267 Y-16.632
X0.309 Y-16.611
X0.342 Y-16.578
X0.364 Y-16.536
X0.371 Y-16.49
Y16.489
X0.364 Y16.536
X0.342 Y16.577
X0.309 Y16.611
X0.267 Y16.632
X0.221 Y16.639
X-0.984
X-1.031 Y16.632
X-1.073 Y16.61
X-1.106 Y16.577
X-1.127 Y16.535
X-1.134 Y16.489
Y-16.488
X-1.127 Y-16.535
X-1.106 Y-16.576
X-1.073 Y-16.61
X-1.031 Y-16.631
X-0.984 Y-16.638
X0.984 Y-16.639
X1.031 Y-16.632
X1.072 Y-16.61
X1.106 Y-16.577
X1.127 Y-16.535
X1.134 Y-16.489
Y16.488
X1.127 Y16.535
X1.106 Y16.576
X1.073 Y16.61
X1.031 Y16.631
X0.984 Y16.638
X-2.165
X-2.211 Y16.631
X-2.253 Y16.61
X-2.286 Y16.577
X-2.307 Y16.535
X-2.315 Y16.488
Y-16.489
X-2.307 Y-16.535
X-2.286 Y-16.577
X-2.253 Y-16.61
X-2.211 Y-16.632
X-2.165 Y-16.639
X2.165 Y-16.638
X2.211 Y-16.631
X2.253 Y-16.61
X2.286 Y-16.577
X2.307 Y-16.535
X2.315 Y-16.488
Y16.489
X2.307 Y16.535
X2.286 Y16.577
X2.253 Y16.61
X2.211 Y16.632
X2.165 Y16.639
X-3.35 Y16.64
X-3.396 Y16.632
X-3.438 Y16.611
X-3.471 Y16.578
X-3.493 Y16.536
X-3.5 Y16.49
Y-15
Y-16.489
X-3.493 Y-16.536
X-3.471 Y-16.578
X-3.438 Y-16.611
X-3.396 Y-16.632
X-3.35 Y-16.639
X3.35 Y-16.64
X3.396 Y-16.632
X3.438 Y-16.611
X3.471 Y-16.578
X3.493 Y-16.536
X3.5 Y-16.49
Y15
Y16.489
X3.494 Y16.531
X3.477 Y16.569
X3.45 Y16.601
X3.415 Y16.624
X3.375 Y16.637
X-0.196 Y17.249
X-0.239 Y17.25
X-0.281 Y17.239
X-0.318 Y17.216
X-0.346 Y17.184
X-0.365 Y17.144
X-0.371 Y17.101
G3 Y16.801 Z-8.3 K-0.3 F30
G1 Z-8.7
G2 Y16.501 Z-9 J-0.3
G1 Y16.49
Y-16.489 F60
X-0.364 Y-16.536
X-0.342 Y-16.577
X-0.309 Y-16.611
X-0.267 Y-16.632
X-0.221 Y-16.639
X0.221 Y-16.64
X0.267 Y-16.632
X0.309 Y-16.611
X0.342 Y-16.578
X0.364 Y-16.536
X0.371 Y-16.49
Y16.489
X0.364 Y16.536
X0.342 Y16.577
X0.309 Y16.611
X0.267 Y16.632
X0.221 Y16.639
X-0.984
X-1.031 Y16.632
X-1.073 Y16.61
X-1.106 Y16.577
X-1.127 Y16.535
X-1.134 Y16.489
Y-16.488
X-1.127 Y-16.535
X-1.106 Y-16.576
X-1.073 Y-16.61
X-1.031 Y-16.631
X-0.984 Y-16.638
X0.984 Y-16.639
X1.031 Y-16.632
X1.072 Y-16.61
X1.106 Y-16.577
X1.127 Y-16.535
X1.134 Y-16.489
Y16.488
X1.127 Y16.535
X1.106 Y16.576
X1.073 Y16.61
X1.031 Y16.631
X0.984 Y16.638
X-2.165
X-2.211 Y16.631
X-2.253 Y16.61
X-2.286 Y16.577
X-2.307 Y16.535
X-2.315 Y16.488
Y-16.489
X-2.307 Y-16.535
X-2.286 Y-16.577
X-2.253 Y-16.61
X-2.211 Y-16.632
X-2.165 Y-16.639
X2.165 Y-16.638
X2.211 Y-16.631
X2.253 Y-16.61
X2.286 Y-16.577
X2.307 Y-16.535
X2.315 Y-16.488
Y16.489
X2.307 Y16.535
X2.286 Y16.577
X2.253 Y16.61
X2.211 Y16.632
X2.165 Y16.639
X-3.35 Y16.64
X-3.396 Y16.632
X-3.438 Y16.611
X-3.471 Y16.578
X-3.493 Y16.536
X-3.5 Y16.49
Y-15
Y-16.489
X-3.493 Y-16.536
X-3.471 Y-16.578
X-3.438 Y-16.611
X-3.396 Y-16.632
X-3.35 Y-16.639
X3.35 Y-16.64
X3.396 Y-16.632
X3.438 Y-16.611
X3.471 Y-16.578
X3.493 Y-16.536
X3.5 Y-16.49
Y15
Y16.489
X3.494 Y16.531
X3.477 Y16.569
X3.45 Y16.601
X3.415 Y16.624
X3.375 Y16.637
X-0.196 Y17.249
X-0.239 Y17.25
X-0.281 Y17.239
X-0.318 Y17.216
X-0.346 Y17.184
X-0.365 Y17.144
X-0.371 Y17.101
G3 Y16.801 Z-9.3 K-0.3 F30
G1 Z-9.7
G2 Y16.501 Z-10 J-0.3
G1 Y16.49
Y-16.489 F60
X-0.364 Y-16.536
X-0.342 Y-16.577
X-0.309 Y-16.611
X-0.267 Y-16.632
X-0.221 Y-16.639
X0.221 Y-16.64
X0.267 Y-16.632
X0.309 Y-16.611
X0.342 Y-16.578
X0.364 Y-16.536
X0.371 Y-16.49
Y16.489
X0.364 Y16.536
X0.342 Y16.577
X0.309 Y16.611
X0.267 Y16.632
X0.221 Y16.639
X-0.984
X-1.031 Y16.632
X-1.073 Y16.61
X-1.106 Y16.577
X-1.127 Y16.535
X-1.134 Y16.489
Y-16.488
X-1.127 Y-16.535
X-1.106 Y-16.576
X-1.073 Y-16.61
X-1.031 Y-16.631
X-0.984 Y-16.638
X0.984 Y-16.639
X1.031 Y-16.632
X1.072 Y-16.61
X1.106 Y-16.577
X1.127 Y-16.535
X1.134 Y-16.489
Y16.488
X1.127 Y16.535
X1.106 Y16.576
X1.073 Y16.61
X1.031 Y16.631
X0.984 Y16.638
X-2.165
X-2.211 Y16.631
X-2.253 Y16.61
X-2.286 Y16.577
X-2.307 Y16.535
X-2.315 Y16.488
Y-16.489
X-2.307 Y-16.535
X-2.286 Y-16.577
X-2.253 Y-16.61
X-2.211 Y-16.632
X-2.165 Y-16.639
X2.165 Y-16.638
X2.211 Y-16.631
X2.253 Y-16.61
X2.286 Y-16.577
X2.307 Y-16.535
X2.315 Y-16.488
Y16.489
X2.307 Y16.535
X2.286 Y16.577
X2.253 Y16.61
X2.211 Y16.632
X2.165 Y16.639
X-3.35 Y16.64
X-3.396 Y16.632
X-3.438 Y16.611
X-3.471 Y16.578
X-3.493 Y16.536
X-3.5 Y16.49
Y-15
Y-16.489
X-3.493 Y-16.536
X-3.471 Y-16.578
X-3.438 Y-16.611
X-3.396 Y-16.632
X-3.35 Y-16.639
X3.35 Y-16.64
X3.396 Y-16.632
X3.438 Y-16.611
X3.471 Y-16.578
X3.493 Y-16.536
X3.5 Y-16.49
Y15
Y16.489
X3.494 Y16.531
X3.477 Y16.569
X3.45 Y16.601
X3.415 Y16.624
X3.375 Y16.637
X-0.196 Y17.249
X-0.239 Y17.25
X-0.281 Y17.239
X-0.318 Y17.216
X-0.346 Y17.184
X-0.365 Y17.144
X-0.371 Y17.101
G3 Y16.801 Z-10.3 K-0.3 F30
G1 Z-10.7
G2 Y16.501 Z-11 J-0.3
G1 Y16.49
Y-16.489 F60
X-0.364 Y-16.536
X-0.342 Y-16.577
X-0.309 Y-16.611
X-0.267 Y-16.632
X-0.221 Y-16.639
X0.221 Y-16.64
X0.267 Y-16.632
X0.309 Y-16.611
X0.342 Y-16.578
X0.364 Y-16.536
X0.371 Y-16.49
Y16.489
X0.364 Y16.536
X0.342 Y16.577
X0.309 Y16.611
X0.267 Y16.632
X0.221 Y16.639
X-0.984
X-1.031 Y16.632
X-1.073 Y16.61
X-1.106 Y16.577
X-1.127 Y16.535
X-1.134 Y16.489
Y-16.488
X-1.127 Y-16.535
X-1.106 Y-16.576
X-1.073 Y-16.61
X-1.031 Y-16.631
X-0.984 Y-16.638
X0.984 Y-16.639
X1.031 Y-16.632
X1.072 Y-16.61
X1.106 Y-16.577
X1.127 Y-16.535
X1.134 Y-16.489
Y16.488
X1.127 Y16.535
X1.106 Y16.576
X1.073 Y16.61
X1.031 Y16.631
X0.984 Y16.638
X-2.165
X-2.211 Y16.631
X-2.253 Y16.61
X-2.286 Y16.577
X-2.307 Y16.535
X-2.315 Y16.488
Y-16.489
X-2.307 Y-16.535
X-2.286 Y-16.577
X-2.253 Y-16.61
X-2.211 Y-16.632
X-2.165 Y-16.639
X2.165 Y-16.638
X2.211 Y-16.631
X2.253 Y-16.61
X2.286 Y-16.577
X2.307 Y-16.535
X2.315 Y-16.488
Y16.489
X2.307 Y16.535
X2.286 Y16.577
X2.253 Y16.61
X2.211 Y16.632
X2.165 Y16.639
X-3.35 Y16.64
X-3.396 Y16.632
X-3.438 Y16.611
X-3.471 Y16.578
X-3.493 Y16.536
X-3.5 Y16.49
Y-15
Y-16.489
X-3.493 Y-16.536
X-3.471 Y-16.578
X-3.438 Y-16.611
X-3.396 Y-16.632
X-3.35 Y-16.639
X3.35 Y-16.64
X3.396 Y-16.632
X3.438 Y-16.611
X3.471 Y-16.578
X3.493 Y-16.536
X3.5 Y-16.49
Y15
Y16.489
X3.494 Y16.531
X3.477 Y16.569
X3.45 Y16.601
X3.415 Y16.624
X3.375 Y16.637
X-0.196 Y17.249
X-0.239 Y17.25
X-0.281 Y17.239
X-0.318 Y17.216
X-0.346 Y17.184
X-0.365 Y17.144
X-0.371 Y17.101
G3 Y16.801 Z-11.3 K-0.3 F30
G1 Z-11.7
G2 Y16.501 Z-12 J-0.3
G1 Y16.49
Y-16.489 F60
X-0.364 Y-16.536
X-0.342 Y-16.577
X-0.309 Y-16.611
X-0.267 Y-16.632
X-0.221 Y-16.639
X0.221 Y-16.64
X0.267 Y-16.632
X0.309 Y-16.611
X0.342 Y-16.578
X0.364 Y-16.536
X0.371 Y-16.49
Y16.489
X0.364 Y16.536
X0.342 Y16.577
X0.309 Y16.611
X0.267 Y16.632
X0.221 Y16.639
X-0.984
X-1.031 Y16.632
X-1.073 Y16.61
X-1.106 Y16.577
X-1.127 Y16.535
X-1.134 Y16.489
Y-16.488
X-1.127 Y-16.535
X-1.106 Y-16.576
X-1.073 Y-16.61
X-1.031 Y-16.631
X-0.984 Y-16.638
X0.984 Y-16.639
X1.031 Y-16.632
X1.072 Y-16.61
X1.106 Y-16.577
X1.127 Y-16.535
X1.134 Y-16.489
Y16.488
X1.127 Y16.535
X1.106 Y16.576
X1.073 Y16.61
X1.031 Y16.631
X0.984 Y16.638
X-2.165
X-2.211 Y16.631
X-2.253 Y16.61
X-2.286 Y16.577
X-2.307 Y16.535
X-2.315 Y16.488
Y-16.489
X-2.307 Y-16.535
X-2.286 Y-16.577
X-2.253 Y-16.61
X-2.211 Y-16.632
X-2.165 Y-16.639
X2.165 Y-16.638
X2.211 Y-16.631
X2.253 Y-16.61
X2.286 Y-16.577
X2.307 Y-16.535
X2.315 Y-16.488
Y16.489
X2.307 Y16.535
X2.286 Y16.577
X2.253 Y16.61
X2.211 Y16.632
X2.165 Y16.639
X-3.35 Y16.64
X-3.396 Y16.632
X-3.438 Y16.611
X-3.471 Y16.578
X-3.493 Y16.536
X-3.5 Y16.49
Y-15
Y-16.489
X-3.493 Y-16.536
X-3.471 Y-16.578
X-3.438 Y-16.611
X-3.396 Y-16.632
X-3.35 Y-16.639
X3.35 Y-16.64
X3.396 Y-16.632
X3.438 Y-16.611
X3.471 Y-16.578
X3.493 Y-16.536
X3.5 Y-16.49
Y15
Y16.489
X3.494 Y16.531
X3.477 Y16.569
X3.45 Y16.601
X3.415 Y16.624
X3.375 Y16.637
X-0.196 Y17.249
X-0.239 Y17.25
X-0.281 Y17.239
X-0.318 Y17.216
X-0.346 Y17.184
X-0.365 Y17.144
X-0.371 Y17.101
G3 Y16.801 Z-12.3 K-0.3 F30
G1 Z-12.7
G2 Y16.501 Z-13 J-0.3
G1 Y16.49
Y-16.489 F60
X-0.364 Y-16.536
X-0.342 Y-16.577
X-0.309 Y-16.611
X-0.267 Y-16.632
X-0.221 Y-16.639
X0.221 Y-16.64
X0.267 Y-16.632
X0.309 Y-16.611
X0.342 Y-16.578
X0.364 Y-16.536
X0.371 Y-16.49
Y16.489
X0.364 Y16.536
X0.342 Y16.577
X0.309 Y16.611
X0.267 Y16.632
X0.221 Y16.639
X-0.984
X-1.031 Y16.632
X-1.073 Y16.61
X-1.106 Y16.577
X-1.127 Y16.535
X-1.134 Y16.489
Y-16.488
X-1.127 Y-16.535
X-1.106 Y-16.576
X-1.073 Y-16.61
X-1.031 Y-16.631
X-0.984 Y-16.638
X0.984 Y-16.639
X1.031 Y-16.632
X1.072 Y-16.61
X1.106 Y-16.577
X1.127 Y-16.535
X1.134 Y-16.489
Y16.488
X1.127 Y16.535
X1.106 Y16.576
X1.073 Y16.61
X1.031 Y16.631
X0.984 Y16.638
X-2.165
X-2.211 Y16.631
X-2.253 Y16.61
X-2.286 Y16.577
X-2.307 Y16.535
X-2.315 Y16.488
Y-16.489
X-2.307 Y-16.535
X-2.286 Y-16.577
X-2.253 Y-16.61
X-2.211 Y-16.632
X-2.165 Y-16.639
X2.165 Y-16.638
X2.211 Y-16.631
X2.253 Y-16.61
X2.286 Y-16.577
X2.307 Y-16.535
X2.315 Y-16.488
Y16.489
X2.307 Y16.535
X2.286 Y16.577
X2.253 Y16.61
X2.211 Y16.632
X2.165 Y16.639
X-3.35 Y16.64
X-3.396 Y16.632
X-3.438 Y16.611
X-3.471 Y16.578
X-3.493 Y16.536
X-3.5 Y16.49
Y-15
Y-16.489
X-3.493 Y-16.536
X-3.471 Y-16.578
X-3.438 Y-16.611
X-3.396 Y-16.632
X-3.35 Y-16.639
X3.35 Y-16.64
X3.396 Y-16.632
X3.438 Y-16.611
X3.471 Y-16.578
X3.493 Y-16.536
X3.5 Y-16.49
Y15
Y16.489
X3.494 Y16.531
X3.477 Y16.569
X3.45 Y16.601
X3.415 Y16.624
X3.375 Y16.637
X-0.196 Y17.249
X-0.239 Y17.25
X-0.281 Y17.239
X-0.318 Y17.216
X-0.346 Y17.184
X-0.365 Y17.144
X-0.371 Y17.101
G3 Y16.801 Z-13.3 K-0.3 F30
G1 Z-13.7
G2 Y16.501 Z-14 J-0.3
G1 Y16.49
Y-16.489 F60
X-0.364 Y-16.536
X-0.342 Y-16.577
X-0.309 Y-16.611
X-0.267 Y-16.632
X-0.221 Y-16.639
X0.221 Y-16.64
X0.267 Y-16.632
X0.309 Y-16.611
X0.342 Y-16.578
X0.364 Y-16.536
X0.371 Y-16.49
Y16.489
X0.364 Y16.536
X0.342 Y16.577
X0.309 Y16.611
X0.267 Y16.632
X0.221 Y16.639
X-0.984
X-1.031 Y16.632
X-1.073 Y16.61
X-1.106 Y16.577
X-1.127 Y16.535
X-1.134 Y16.489
Y-16.488
X-1.127 Y-16.535
X-1.106 Y-16.576
X-1.073 Y-16.61
X-1.031 Y-16.631
X-0.984 Y-16.638
X0.984 Y-16.639
X1.031 Y-16.632
X1.072 Y-16.61
X1.106 Y-16.577
X1.127 Y-16.535
X1.134 Y-16.489
Y16.488
X1.127 Y16.535
X1.106 Y16.576
X1.073 Y16.61
X1.031 Y16.631
X0.984 Y16.638
X-2.165
X-2.211 Y16.631
X-2.253 Y16.61
X-2.286 Y16.577
X-2.307 Y16.535
X-2.315 Y16.488
Y-16.489
X-2.307 Y-16.535
X-2.286 Y-16.577
X-2.253 Y-16.61
X-2.211 Y-16.632
X-2.165 Y-16.639
X2.165 Y-16.638
X2.211 Y-16.631
X2.253 Y-16.61
X2.286 Y-16.577
X2.307 Y-16.535
X2.315 Y-16.488
Y16.489
X2.307 Y16.535
X2.286 Y16.577
X2.253 Y16.61
X2.211 Y16.632
X2.165 Y16.639
X-3.35 Y16.64
X-3.396 Y16.632
X-3.438 Y16.611
X-3.471 Y16.578
X-3.493 Y16.536
X-3.5 Y16.49
Y-15
Y-16.489
X-3.493 Y-16.536
X-3.471 Y-16.578
X-3.438 Y-16.611
X-3.396 Y-16.632
X-3.35 Y-16.639
X3.35 Y-16.64
X3.396 Y-16.632
X3.438 Y-16.611
X3.471 Y-16.578
X3.493 Y-16.536
X3.5 Y-16.49
Y15
Y16.489
X3.494 Y16.531
X3.477 Y16.569
X3.45 Y16.601
X3.415 Y16.624
X3.375 Y16.637
X-0.196 Y17.249
X-0.239 Y17.25
X-0.281 Y17.239
X-0.318 Y17.216
X-0.346 Y17.184
X-0.365 Y17.144
X-0.371 Y17.101
G3 Y16.801 Z-14.3 K-0.3 F30
G1 Z-14.7
G2 Y16.501 Z-15 J-0.3
G1 Y16.49
Y-16.489 F60
X-0.364 Y-16.536
X-0.342 Y-16.577
X-0.309 Y-16.611
X-0.267 Y-16.632
X-0.221 Y-16.639
X0.221 Y-16.64
X0.267 Y-16.632
X0.309 Y-16.611
X0.342 Y-16.578
X0.364 Y-16.536
X0.371 Y-16.49
Y16.489
X0.364 Y16.536
X0.342 Y16.577
X0.309 Y16.611
X0.267 Y16.632
X0.221 Y16.639
X-0.984
X-1.031 Y16.632
X-1.073 Y16.61
X-1.106 Y16.577
X-1.127 Y16.535
X-1.134 Y16.489
Y-16.488
X-1.127 Y-16.535
X-1.106 Y-16.576
X-1.073 Y-16.61
X-1.031 Y-16.631
X-0.984 Y-16.638
X0.984 Y-16.639
X1.031 Y-16.632
X1.072 Y-16.61
X1.106 Y-16.577
X1.127 Y-16.535
X1.134 Y-16.489
Y16.488
X1.127 Y16.535
X1.106 Y16.576
X1.073 Y16.61
X1.031 Y16.631
X0.984 Y16.638
X-2.165
X-2.211 Y16.631
X-2.253 Y16.61
X-2.286 Y16.577
X-2.307 Y16.535
X-2.315 Y16.488
Y-16.489
X-2.307 Y-16.535
X-2.286 Y-16.577
X-2.253 Y-16.61
X-2.211 Y-16.632
X-2.165 Y-16.639
X2.165 Y-16.638
X2.211 Y-16.631
X2.253 Y-16.61
X2.286 Y-16.577
X2.307 Y-16.535
X2.315 Y-16.488
Y16.489
X2.307 Y16.535
X2.286 Y16.577
X2.253 Y16.61
X2.211 Y16.632
X2.165 Y16.639
X-3.35 Y16.64
X-3.396 Y16.632
X-3.438 Y16.611
X-3.471 Y16.578
X-3.493 Y16.536
X-3.5 Y16.49
Y-15
Y-16.489
X-3.493 Y-16.536
X-3.471 Y-16.578
X-3.438 Y-16.611
X-3.396 Y-16.632
X-3.35 Y-16.639
X3.35 Y-16.64
X3.396 Y-16.632
X3.438 Y-16.611
X3.471 Y-16.578
X3.493 Y-16.536
X3.5 Y-16.49
Y15
Y16.489
X3.494 Y16.531
X3.477 Y16.569
X3.45 Y16.601
X3.415 Y16.624
X3.375 Y16.637
X-0.196 Y17.249
X-0.239 Y17.25
X-0.281 Y17.239
X-0.318 Y17.216
X-0.346 Y17.184
X-0.365 Y17.144
X-0.371 Y17.101
G3 Y16.801 Z-15.3 K-0.3 F30
G1 Z-15.7
G2 Y16.501 Z-16 J-0.3
G1 Y16.49
Y-16.489 F60
X-0.364 Y-16.536
X-0.342 Y-16.577
X-0.309 Y-16.611
X-0.267 Y-16.632
X-0.221 Y-16.639
X0.221 Y-16.64
X0.267 Y-16.632
X0.309 Y-16.611
X0.342 Y-16.578
X0.364 Y-16.536
X0.371 Y-16.49
Y16.489
X0.364 Y16.536
X0.342 Y16.577
X0.309 Y16.611
X0.267 Y16.632
X0.221 Y16.639
X-0.984
X-1.031 Y16.632
X-1.073 Y16.61
X-1.106 Y16.577
X-1.127 Y16.535
X-1.134 Y16.489
Y-16.488
X-1.127 Y-16.535
X-1.106 Y-16.576
X-1.073 Y-16.61
X-1.031 Y-16.631
X-0.984 Y-16.638
X0.984 Y-16.639
X1.031 Y-16.632
X1.072 Y-16.61
X1.106 Y-16.577
X1.127 Y-16.535
X1.134 Y-16.489
Y16.488
X1.127 Y16.535
X1.106 Y16.576
X1.073 Y16.61
X1.031 Y16.631
X0.984 Y16.638
X-2.165
X-2.211 Y16.631
X-2.253 Y16.61
X-2.286 Y16.577
X-2.307 Y16.535
X-2.315 Y16.488
Y-16.489
X-2.307 Y-16.535
X-2.286 Y-16.577
X-2.253 Y-16.61
X-2.211 Y-16.632
X-2.165 Y-16.639
X2.165 Y-16.638
X2.211 Y-16.631
X2.253 Y-16.61
X2.286 Y-16.577
X2.307 Y-16.535
X2.315 Y-16.488
Y16.489
X2.307 Y16.535
X2.286 Y16.577
X2.253 Y16.61
X2.211 Y16.632
X2.165 Y16.639
X-3.35 Y16.64
X-3.396 Y16.632
X-3.438 Y16.611
X-3.471 Y16.578
X-3.493 Y16.536
X-3.5 Y16.49
Y-15
Y-16.489
X-3.493 Y-16.536
X-3.471 Y-16.578
X-3.438 Y-16.611
X-3.396 Y-16.632
X-3.35 Y-16.639
X3.35 Y-16.64
X3.396 Y-16.632
X3.438 Y-16.611
X3.471 Y-16.578
X3.493 Y-16.536
X3.5 Y-16.49
Y15
Y16.489
X3.496 Y16.536 F100
X3.262 Y18.018
X3.251 Y18.084 Z-15.992
X3.241 Y18.146 Z-15.97
X3.232 Y18.203 Z-15.935
X3.225 Y18.249 Z-15.887
X3.219 Y18.285 Z-15.83
X3.216 Y18.307 Z-15.767
X3.215 Y18.314 Z-15.7
G0 Z2.8
G17
M9
G28 G91 Z0
G90
G28 G91 X0 Y0
G90
M30
%
