%
(1001)
(T1  D=3 CR=0.75 - ZMIN=-9 - bullnose end mill)
G90 G94
G17
G21
G28 G91 Z6
G90

(2D Pocket2)
M9
T1 M6
S1000 M3
G54
M8
G0 X40.248 Y3.138
Z5
Z2
G1 Z-0.7 F33
X40.25 Y3.135 Z-0.747
X40.256 Y3.126 Z-0.793
X40.267 Y3.111 Z-0.836
X40.283 Y3.093 Z-0.876
X40.305 Y3.072 Z-0.912
X40.334 Y3.05 Z-0.943
X40.368 Y3.03 Z-0.967
X40.409 Y3.014 Z-0.985
X40.453 Y3.004 Z-0.996
X40.5 Y3 Z-1
G3 Y4 J0.5 F50
Y3 J-0.5
G1 X40.531 Y3.007
X40.555 Y3.026
X40.57 Y3.054
X40.571 Y3.086
X40.558 Y3.114
X40.534 Y3.135
X40.343 Y3.24
X40.312 Y3.249
X40.281 Y3.244
X40.255 Y3.226
X40.24 Y3.199
X40.237 Y3.167
X40.248 Y3.138
Z-1.7 F33
X40.25 Y3.135 Z-1.747
X40.256 Y3.126 Z-1.793
X40.267 Y3.111 Z-1.836
X40.283 Y3.093 Z-1.876
X40.305 Y3.072 Z-1.912
X40.334 Y3.05 Z-1.943
X40.368 Y3.03 Z-1.967
X40.409 Y3.014 Z-1.985
X40.453 Y3.004 Z-1.996
X40.5 Y3 Z-2
G3 Y4 J0.5 F50
Y3 J-0.5
G1 X40.531 Y3.007
X40.555 Y3.026
X40.57 Y3.054
X40.571 Y3.086
X40.558 Y3.114
X40.534 Y3.135
X40.343 Y3.24
X40.312 Y3.249
X40.281 Y3.244
X40.255 Y3.226
X40.24 Y3.199
X40.237 Y3.167
X40.248 Y3.138
Z-2.7 F33
X40.25 Y3.135 Z-2.747
X40.256 Y3.126 Z-2.793
X40.267 Y3.111 Z-2.836
X40.283 Y3.093 Z-2.876
X40.305 Y3.072 Z-2.912
X40.334 Y3.05 Z-2.943
X40.368 Y3.03 Z-2.967
X40.409 Y3.014 Z-2.985
X40.453 Y3.004 Z-2.996
X40.5 Y3 Z-3
G3 Y4 J0.5 F50
Y3 J-0.5
G1 X40.531 Y3.007
X40.555 Y3.026
X40.57 Y3.054
X40.571 Y3.086
X40.558 Y3.114
X40.534 Y3.135
X40.343 Y3.24
X40.312 Y3.249
X40.281 Y3.244
X40.255 Y3.226
X40.24 Y3.199
X40.237 Y3.167
X40.248 Y3.138
Z-3.7 F33
X40.25 Y3.135 Z-3.747
X40.256 Y3.126 Z-3.793
X40.267 Y3.111 Z-3.836
X40.283 Y3.093 Z-3.876
X40.305 Y3.072 Z-3.912
X40.334 Y3.05 Z-3.943
X40.368 Y3.03 Z-3.967
X40.409 Y3.014 Z-3.985
X40.453 Y3.004 Z-3.996
X40.5 Y3 Z-4
G3 Y4 J0.5 F50
Y3 J-0.5
G1 X40.531 Y3.007
X40.555 Y3.026
X40.57 Y3.054
X40.571 Y3.086
X40.558 Y3.114
X40.534 Y3.135
X40.343 Y3.24
X40.312 Y3.249
X40.281 Y3.244
X40.255 Y3.226
X40.24 Y3.199
X40.237 Y3.167
X40.248 Y3.138
Z-4.7 F33
X40.25 Y3.135 Z-4.747
X40.256 Y3.126 Z-4.793
X40.267 Y3.111 Z-4.836
X40.283 Y3.093 Z-4.876
X40.305 Y3.072 Z-4.912
X40.334 Y3.05 Z-4.943
X40.368 Y3.03 Z-4.967
X40.409 Y3.014 Z-4.985
X40.453 Y3.004 Z-4.996
X40.5 Y3 Z-5
G3 Y4 J0.5 F50
Y3 J-0.5
G1 X40.531 Y3.007
X40.555 Y3.026
X40.57 Y3.054
X40.571 Y3.086
X40.558 Y3.114
X40.534 Y3.135
X40.343 Y3.24
X40.312 Y3.249
X40.281 Y3.244
X40.255 Y3.226
X40.24 Y3.199
X40.237 Y3.167
X40.248 Y3.138
Z-5.7 F33
X40.25 Y3.135 Z-5.747
X40.256 Y3.126 Z-5.793
X40.267 Y3.111 Z-5.836
X40.283 Y3.093 Z-5.876
X40.305 Y3.072 Z-5.912
X40.334 Y3.05 Z-5.943
X40.368 Y3.03 Z-5.967
X40.409 Y3.014 Z-5.985
X40.453 Y3.004 Z-5.996
X40.5 Y3 Z-6
G3 Y4 J0.5 F50
Y3 J-0.5
G1 X40.531 Y3.007
X40.555 Y3.026
X40.57 Y3.054
X40.571 Y3.086
X40.558 Y3.114
X40.534 Y3.135
X40.343 Y3.24
X40.312 Y3.249
X40.281 Y3.244
X40.255 Y3.226
X40.24 Y3.199
X40.237 Y3.167
X40.248 Y3.138
Z-6.7 F33
X40.25 Y3.135 Z-6.747
X40.256 Y3.126 Z-6.793
X40.267 Y3.111 Z-6.836
X40.283 Y3.093 Z-6.876
X40.305 Y3.072 Z-6.912
X40.334 Y3.05 Z-6.943
X40.368 Y3.03 Z-6.967
X40.409 Y3.014 Z-6.985
X40.453 Y3.004 Z-6.996
X40.5 Y3 Z-7
G3 Y4 J0.5 F50
Y3 J-0.5
G1 X40.531 Y3.007
X40.555 Y3.026
X40.57 Y3.054
X40.571 Y3.086
X40.558 Y3.114
X40.534 Y3.135
X40.343 Y3.24
X40.312 Y3.249
X40.281 Y3.244
X40.255 Y3.226
X40.24 Y3.199
X40.237 Y3.167
X40.248 Y3.138
Z-7.7 F33
X40.25 Y3.135 Z-7.747
X40.256 Y3.126 Z-7.793
X40.267 Y3.111 Z-7.836
X40.283 Y3.093 Z-7.876
X40.305 Y3.072 Z-7.912
X40.334 Y3.05 Z-7.943
X40.368 Y3.03 Z-7.967
X40.409 Y3.014 Z-7.985
X40.453 Y3.004 Z-7.996
X40.5 Y3 Z-8
G3 Y4 J0.5 F50
Y3 J-0.5
G1 X40.531 Y3.007
X40.555 Y3.026
X40.57 Y3.054
X40.571 Y3.086
X40.558 Y3.114
X40.534 Y3.135
X40.343 Y3.24
X40.312 Y3.249
X40.281 Y3.244
X40.255 Y3.226
X40.24 Y3.199
X40.237 Y3.167
X40.248 Y3.138
Z-8.7 F33
X40.25 Y3.135 Z-8.747
X40.256 Y3.126 Z-8.793
X40.267 Y3.111 Z-8.836
X40.283 Y3.093 Z-8.876
X40.305 Y3.072 Z-8.912
X40.334 Y3.05 Z-8.943
X40.368 Y3.03 Z-8.967
X40.409 Y3.014 Z-8.985
X40.453 Y3.004 Z-8.996
X40.5 Y3 Z-9
G3 Y4 J0.5 F50
Y3 J-0.5
G1 X40.547 Y3.004 Z-8.996 F100
X40.591 Y3.014 Z-8.985
X40.632 Y3.03 Z-8.967
X40.666 Y3.05 Z-8.943
X40.695 Y3.072 Z-8.912
X40.717 Y3.093 Z-8.876
X40.733 Y3.111 Z-8.836
X40.744 Y3.126 Z-8.793
X40.75 Y3.135 Z-8.747
X40.752 Y3.138 Z-8.7
G0 Z2
X9.752 Y3.862
G1 Z-0.7 F33
X9.75 Y3.865 Z-0.747
X9.744 Y3.874 Z-0.793
X9.733 Y3.889 Z-0.836
X9.717 Y3.907 Z-0.876
X9.695 Y3.928 Z-0.912
X9.666 Y3.95 Z-0.943
X9.632 Y3.97 Z-0.967
X9.591 Y3.986 Z-0.985
X9.547 Y3.996 Z-0.996
X9.5 Y4 Z-1
G3 Y3 J-0.5 F50
Y4 J0.5
G1 X9.469 Y3.993
X9.445 Y3.974
X9.43 Y3.946
X9.429 Y3.914
X9.442 Y3.886
X9.466 Y3.865
X9.657 Y3.76
X9.688 Y3.751
X9.719 Y3.756
X9.745 Y3.774
X9.76 Y3.801
X9.763 Y3.833
X9.752 Y3.862
Z-1.7 F33
X9.75 Y3.865 Z-1.747
X9.744 Y3.874 Z-1.793
X9.733 Y3.889 Z-1.836
X9.717 Y3.907 Z-1.876
X9.695 Y3.928 Z-1.912
X9.666 Y3.95 Z-1.943
X9.632 Y3.97 Z-1.967
X9.591 Y3.986 Z-1.985
X9.547 Y3.996 Z-1.996
X9.5 Y4 Z-2
G3 Y3 J-0.5 F50
Y4 J0.5
G1 X9.469 Y3.993
X9.445 Y3.974
X9.43 Y3.946
X9.429 Y3.914
X9.442 Y3.886
X9.466 Y3.865
X9.657 Y3.76
X9.688 Y3.751
X9.719 Y3.756
X9.745 Y3.774
X9.76 Y3.801
X9.763 Y3.833
X9.752 Y3.862
Z-2.7 F33
X9.75 Y3.865 Z-2.747
X9.744 Y3.874 Z-2.793
X9.733 Y3.889 Z-2.836
X9.717 Y3.907 Z-2.876
X9.695 Y3.928 Z-2.912
X9.666 Y3.95 Z-2.943
X9.632 Y3.97 Z-2.967
X9.591 Y3.986 Z-2.985
X9.547 Y3.996 Z-2.996
X9.5 Y4 Z-3
G3 Y3 J-0.5 F50
Y4 J0.5
G1 X9.469 Y3.993
X9.445 Y3.974
X9.43 Y3.946
X9.429 Y3.914
X9.442 Y3.886
X9.466 Y3.865
X9.657 Y3.76
X9.688 Y3.751
X9.719 Y3.756
X9.745 Y3.774
X9.76 Y3.801
X9.763 Y3.833
X9.752 Y3.862
Z-3.7 F33
X9.75 Y3.865 Z-3.747
X9.744 Y3.874 Z-3.793
X9.733 Y3.889 Z-3.836
X9.717 Y3.907 Z-3.876
X9.695 Y3.928 Z-3.912
X9.666 Y3.95 Z-3.943
X9.632 Y3.97 Z-3.967
X9.591 Y3.986 Z-3.985
X9.547 Y3.996 Z-3.996
X9.5 Y4 Z-4
G3 Y3 J-0.5 F50
Y4 J0.5
G1 X9.469 Y3.993
X9.445 Y3.974
X9.43 Y3.946
X9.429 Y3.914
X9.442 Y3.886
X9.466 Y3.865
X9.657 Y3.76
X9.688 Y3.751
X9.719 Y3.756
X9.745 Y3.774
X9.76 Y3.801
X9.763 Y3.833
X9.752 Y3.862
Z-4.7 F33
X9.75 Y3.865 Z-4.747
X9.744 Y3.874 Z-4.793
X9.733 Y3.889 Z-4.836
X9.717 Y3.907 Z-4.876
X9.695 Y3.928 Z-4.912
X9.666 Y3.95 Z-4.943
X9.632 Y3.97 Z-4.967
X9.591 Y3.986 Z-4.985
X9.547 Y3.996 Z-4.996
X9.5 Y4 Z-5
G3 Y3 J-0.5 F50
Y4 J0.5
G1 X9.469 Y3.993
X9.445 Y3.974
X9.43 Y3.946
X9.429 Y3.914
X9.442 Y3.886
X9.466 Y3.865
X9.657 Y3.76
X9.688 Y3.751
X9.719 Y3.756
X9.745 Y3.774
X9.76 Y3.801
X9.763 Y3.833
X9.752 Y3.862
Z-5.7 F33
X9.75 Y3.865 Z-5.747
X9.744 Y3.874 Z-5.793
X9.733 Y3.889 Z-5.836
X9.717 Y3.907 Z-5.876
X9.695 Y3.928 Z-5.912
X9.666 Y3.95 Z-5.943
X9.632 Y3.97 Z-5.967
X9.591 Y3.986 Z-5.985
X9.547 Y3.996 Z-5.996
X9.5 Y4 Z-6
G3 Y3 J-0.5 F50
Y4 J0.5
G1 X9.469 Y3.993
X9.445 Y3.974
X9.43 Y3.946
X9.429 Y3.914
X9.442 Y3.886
X9.466 Y3.865
X9.657 Y3.76
X9.688 Y3.751
X9.719 Y3.756
X9.745 Y3.774
X9.76 Y3.801
X9.763 Y3.833
X9.752 Y3.862
Z-6.7 F33
X9.75 Y3.865 Z-6.747
X9.744 Y3.874 Z-6.793
X9.733 Y3.889 Z-6.836
X9.717 Y3.907 Z-6.876
X9.695 Y3.928 Z-6.912
X9.666 Y3.95 Z-6.943
X9.632 Y3.97 Z-6.967
X9.591 Y3.986 Z-6.985
X9.547 Y3.996 Z-6.996
X9.5 Y4 Z-7
G3 Y3 J-0.5 F50
Y4 J0.5
G1 X9.469 Y3.993
X9.445 Y3.974
X9.43 Y3.946
X9.429 Y3.914
X9.442 Y3.886
X9.466 Y3.865
X9.657 Y3.76
X9.688 Y3.751
X9.719 Y3.756
X9.745 Y3.774
X9.76 Y3.801
X9.763 Y3.833
X9.752 Y3.862
Z-7.7 F33
X9.75 Y3.865 Z-7.747
X9.744 Y3.874 Z-7.793
X9.733 Y3.889 Z-7.836
X9.717 Y3.907 Z-7.876
X9.695 Y3.928 Z-7.912
X9.666 Y3.95 Z-7.943
X9.632 Y3.97 Z-7.967
X9.591 Y3.986 Z-7.985
X9.547 Y3.996 Z-7.996
X9.5 Y4 Z-8
G3 Y3 J-0.5 F50
Y4 J0.5
G1 X9.469 Y3.993
X9.445 Y3.974
X9.43 Y3.946
X9.429 Y3.914
X9.442 Y3.886
X9.466 Y3.865
X9.657 Y3.76
X9.688 Y3.751
X9.719 Y3.756
X9.745 Y3.774
X9.76 Y3.801
X9.763 Y3.833
X9.752 Y3.862
Z-8.7 F33
X9.75 Y3.865 Z-8.747
X9.744 Y3.874 Z-8.793
X9.733 Y3.889 Z-8.836
X9.717 Y3.907 Z-8.876
X9.695 Y3.928 Z-8.912
X9.666 Y3.95 Z-8.943
X9.632 Y3.97 Z-8.967
X9.591 Y3.986 Z-8.985
X9.547 Y3.996 Z-8.996
X9.5 Y4 Z-9
G3 Y3 J-0.5 F50
Y4 J0.5
G1 X9.453 Y3.996 Z-8.996 F100
X9.409 Y3.986 Z-8.985
X9.368 Y3.97 Z-8.967
X9.334 Y3.95 Z-8.943
X9.305 Y3.928 Z-8.912
X9.283 Y3.907 Z-8.876
X9.267 Y3.889 Z-8.836
X9.256 Y3.874 Z-8.793
X9.25 Y3.865 Z-8.747
X9.248 Y3.862 Z-8.7
G0 Z2
Y34.138
G1 Z-0.7 F33
X9.25 Y34.135 Z-0.747
X9.256 Y34.126 Z-0.793
X9.267 Y34.111 Z-0.836
X9.283 Y34.093 Z-0.876
X9.305 Y34.072 Z-0.912
X9.334 Y34.05 Z-0.943
X9.368 Y34.03 Z-0.967
X9.409 Y34.014 Z-0.985
X9.453 Y34.004 Z-0.996
X9.5 Y34 Z-1
G3 Y35 J0.5 F50
Y34 J-0.5
G1 X9.531 Y34.007
X9.555 Y34.026
X9.57 Y34.054
X9.571 Y34.086
X9.558 Y34.114
X9.534 Y34.135
X9.343 Y34.24
X9.312 Y34.249
X9.281 Y34.244
X9.255 Y34.226
X9.24 Y34.199
X9.237 Y34.167
X9.248 Y34.138
Z-1.7 F33
X9.25 Y34.135 Z-1.747
X9.256 Y34.126 Z-1.793
X9.267 Y34.111 Z-1.836
X9.283 Y34.093 Z-1.876
X9.305 Y34.072 Z-1.912
X9.334 Y34.05 Z-1.943
X9.368 Y34.03 Z-1.967
X9.409 Y34.014 Z-1.985
X9.453 Y34.004 Z-1.996
X9.5 Y34 Z-2
G3 Y35 J0.5 F50
Y34 J-0.5
G1 X9.531 Y34.007
X9.555 Y34.026
X9.57 Y34.054
X9.571 Y34.086
X9.558 Y34.114
X9.534 Y34.135
X9.343 Y34.24
X9.312 Y34.249
X9.281 Y34.244
X9.255 Y34.226
X9.24 Y34.199
X9.237 Y34.167
X9.248 Y34.138
Z-2.7 F33
X9.25 Y34.135 Z-2.747
X9.256 Y34.126 Z-2.793
X9.267 Y34.111 Z-2.836
X9.283 Y34.093 Z-2.876
X9.305 Y34.072 Z-2.912
X9.334 Y34.05 Z-2.943
X9.368 Y34.03 Z-2.967
X9.409 Y34.014 Z-2.985
X9.453 Y34.004 Z-2.996
X9.5 Y34 Z-3
G3 Y35 J0.5 F50
Y34 J-0.5
G1 X9.531 Y34.007
X9.555 Y34.026
X9.57 Y34.054
X9.571 Y34.086
X9.558 Y34.114
X9.534 Y34.135
X9.343 Y34.24
X9.312 Y34.249
X9.281 Y34.244
X9.255 Y34.226
X9.24 Y34.199
X9.237 Y34.167
X9.248 Y34.138
Z-3.7 F33
X9.25 Y34.135 Z-3.747
X9.256 Y34.126 Z-3.793
X9.267 Y34.111 Z-3.836
X9.283 Y34.093 Z-3.876
X9.305 Y34.072 Z-3.912
X9.334 Y34.05 Z-3.943
X9.368 Y34.03 Z-3.967
X9.409 Y34.014 Z-3.985
X9.453 Y34.004 Z-3.996
X9.5 Y34 Z-4
G3 Y35 J0.5 F50
Y34 J-0.5
G1 X9.531 Y34.007
X9.555 Y34.026
X9.57 Y34.054
X9.571 Y34.086
X9.558 Y34.114
X9.534 Y34.135
X9.343 Y34.24
X9.312 Y34.249
X9.281 Y34.244
X9.255 Y34.226
X9.24 Y34.199
X9.237 Y34.167
X9.248 Y34.138
Z-4.7 F33
X9.25 Y34.135 Z-4.747
X9.256 Y34.126 Z-4.793
X9.267 Y34.111 Z-4.836
X9.283 Y34.093 Z-4.876
X9.305 Y34.072 Z-4.912
X9.334 Y34.05 Z-4.943
X9.368 Y34.03 Z-4.967
X9.409 Y34.014 Z-4.985
X9.453 Y34.004 Z-4.996
X9.5 Y34 Z-5
G3 Y35 J0.5 F50
Y34 J-0.5
G1 X9.531 Y34.007
X9.555 Y34.026
X9.57 Y34.054
X9.571 Y34.086
X9.558 Y34.114
X9.534 Y34.135
X9.343 Y34.24
X9.312 Y34.249
X9.281 Y34.244
X9.255 Y34.226
X9.24 Y34.199
X9.237 Y34.167
X9.248 Y34.138
Z-5.7 F33
X9.25 Y34.135 Z-5.747
X9.256 Y34.126 Z-5.793
X9.267 Y34.111 Z-5.836
X9.283 Y34.093 Z-5.876
X9.305 Y34.072 Z-5.912
X9.334 Y34.05 Z-5.943
X9.368 Y34.03 Z-5.967
X9.409 Y34.014 Z-5.985
X9.453 Y34.004 Z-5.996
X9.5 Y34 Z-6
G3 Y35 J0.5 F50
Y34 J-0.5
G1 X9.531 Y34.007
X9.555 Y34.026
X9.57 Y34.054
X9.571 Y34.086
X9.558 Y34.114
X9.534 Y34.135
X9.343 Y34.24
X9.312 Y34.249
X9.281 Y34.244
X9.255 Y34.226
X9.24 Y34.199
X9.237 Y34.167
X9.248 Y34.138
Z-6.7 F33
X9.25 Y34.135 Z-6.747
X9.256 Y34.126 Z-6.793
X9.267 Y34.111 Z-6.836
X9.283 Y34.093 Z-6.876
X9.305 Y34.072 Z-6.912
X9.334 Y34.05 Z-6.943
X9.368 Y34.03 Z-6.967
X9.409 Y34.014 Z-6.985
X9.453 Y34.004 Z-6.996
X9.5 Y34 Z-7
G3 Y35 J0.5 F50
Y34 J-0.5
G1 X9.531 Y34.007
X9.555 Y34.026
X9.57 Y34.054
X9.571 Y34.086
X9.558 Y34.114
X9.534 Y34.135
X9.343 Y34.24
X9.312 Y34.249
X9.281 Y34.244
X9.255 Y34.226
X9.24 Y34.199
X9.237 Y34.167
X9.248 Y34.138
Z-7.7 F33
X9.25 Y34.135 Z-7.747
X9.256 Y34.126 Z-7.793
X9.267 Y34.111 Z-7.836
X9.283 Y34.093 Z-7.876
X9.305 Y34.072 Z-7.912
X9.334 Y34.05 Z-7.943
X9.368 Y34.03 Z-7.967
X9.409 Y34.014 Z-7.985
X9.453 Y34.004 Z-7.996
X9.5 Y34 Z-8
G3 Y35 J0.5 F50
Y34 J-0.5
G1 X9.531 Y34.007
X9.555 Y34.026
X9.57 Y34.054
X9.571 Y34.086
X9.558 Y34.114
X9.534 Y34.135
X9.343 Y34.24
X9.312 Y34.249
X9.281 Y34.244
X9.255 Y34.226
X9.24 Y34.199
X9.237 Y34.167
X9.248 Y34.138
Z-8.7 F33
X9.25 Y34.135 Z-8.747
X9.256 Y34.126 Z-8.793
X9.267 Y34.111 Z-8.836
X9.283 Y34.093 Z-8.876
X9.305 Y34.072 Z-8.912
X9.334 Y34.05 Z-8.943
X9.368 Y34.03 Z-8.967
X9.409 Y34.014 Z-8.985
X9.453 Y34.004 Z-8.996
X9.5 Y34 Z-9
G3 Y35 J0.5 F50
Y34 J-0.5
G1 X9.547 Y34.004 Z-8.996 F100
X9.591 Y34.014 Z-8.985
X9.632 Y34.03 Z-8.967
X9.666 Y34.05 Z-8.943
X9.695 Y34.072 Z-8.912
X9.717 Y34.093 Z-8.876
X9.733 Y34.111 Z-8.836
X9.744 Y34.126 Z-8.793
X9.75 Y34.135 Z-8.747
X9.752 Y34.138 Z-8.7
G0 Z2
X40.138 Y34.752
G1 Z-0.7 F33
X40.135 Y34.75 Z-0.747
X40.126 Y34.744 Z-0.793
X40.111 Y34.733 Z-0.836
X40.093 Y34.717 Z-0.876
X40.072 Y34.695 Z-0.912
X40.05 Y34.666 Z-0.943
X40.03 Y34.632 Z-0.967
X40.014 Y34.591 Z-0.985
X40.004 Y34.547 Z-0.996
X40 Y34.5 Z-1
G3 X41 I0.5 F50
X40 I-0.5
G1 X40.007 Y34.469
X40.026 Y34.445
X40.054 Y34.43
X40.086 Y34.429
X40.114 Y34.442
X40.135 Y34.466
X40.24 Y34.657
X40.249 Y34.688
X40.244 Y34.719
X40.226 Y34.745
X40.199 Y34.76
X40.167 Y34.763
X40.138 Y34.752
Z-1.7 F33
X40.135 Y34.75 Z-1.747
X40.126 Y34.744 Z-1.793
X40.111 Y34.733 Z-1.836
X40.093 Y34.717 Z-1.876
X40.072 Y34.695 Z-1.912
X40.05 Y34.666 Z-1.943
X40.03 Y34.632 Z-1.967
X40.014 Y34.591 Z-1.985
X40.004 Y34.547 Z-1.996
X40 Y34.5 Z-2
G3 X41 I0.5 F50
X40 I-0.5
G1 X40.007 Y34.469
X40.026 Y34.445
X40.054 Y34.43
X40.086 Y34.429
X40.114 Y34.442
X40.135 Y34.466
X40.24 Y34.657
X40.249 Y34.688
X40.244 Y34.719
X40.226 Y34.745
X40.199 Y34.76
X40.167 Y34.763
X40.138 Y34.752
Z-2.7 F33
X40.135 Y34.75 Z-2.747
X40.126 Y34.744 Z-2.793
X40.111 Y34.733 Z-2.836
X40.093 Y34.717 Z-2.876
X40.072 Y34.695 Z-2.912
X40.05 Y34.666 Z-2.943
X40.03 Y34.632 Z-2.967
X40.014 Y34.591 Z-2.985
X40.004 Y34.547 Z-2.996
X40 Y34.5 Z-3
G3 X41 I0.5 F50
X40 I-0.5
G1 X40.007 Y34.469
X40.026 Y34.445
X40.054 Y34.43
X40.086 Y34.429
X40.114 Y34.442
X40.135 Y34.466
X40.24 Y34.657
X40.249 Y34.688
X40.244 Y34.719
X40.226 Y34.745
X40.199 Y34.76
X40.167 Y34.763
X40.138 Y34.752
Z-3.7 F33
X40.135 Y34.75 Z-3.747
X40.126 Y34.744 Z-3.793
X40.111 Y34.733 Z-3.836
X40.093 Y34.717 Z-3.876
X40.072 Y34.695 Z-3.912
X40.05 Y34.666 Z-3.943
X40.03 Y34.632 Z-3.967
X40.014 Y34.591 Z-3.985
X40.004 Y34.547 Z-3.996
X40 Y34.5 Z-4
G3 X41 I0.5 F50
X40 I-0.5
G1 X40.007 Y34.469
X40.026 Y34.445
X40.054 Y34.43
X40.086 Y34.429
X40.114 Y34.442
X40.135 Y34.466
X40.24 Y34.657
X40.249 Y34.688
X40.244 Y34.719
X40.226 Y34.745
X40.199 Y34.76
X40.167 Y34.763
X40.138 Y34.752
Z-4.7 F33
X40.135 Y34.75 Z-4.747
X40.126 Y34.744 Z-4.793
X40.111 Y34.733 Z-4.836
X40.093 Y34.717 Z-4.876
X40.072 Y34.695 Z-4.912
X40.05 Y34.666 Z-4.943
X40.03 Y34.632 Z-4.967
X40.014 Y34.591 Z-4.985
X40.004 Y34.547 Z-4.996
X40 Y34.5 Z-5
G3 X41 I0.5 F50
X40 I-0.5
G1 X40.007 Y34.469
X40.026 Y34.445
X40.054 Y34.43
X40.086 Y34.429
X40.114 Y34.442
X40.135 Y34.466
X40.24 Y34.657
X40.249 Y34.688
X40.244 Y34.719
X40.226 Y34.745
X40.199 Y34.76
X40.167 Y34.763
X40.138 Y34.752
Z-5.7 F33
X40.135 Y34.75 Z-5.747
X40.126 Y34.744 Z-5.793
X40.111 Y34.733 Z-5.836
X40.093 Y34.717 Z-5.876
X40.072 Y34.695 Z-5.912
X40.05 Y34.666 Z-5.943
X40.03 Y34.632 Z-5.967
X40.014 Y34.591 Z-5.985
X40.004 Y34.547 Z-5.996
X40 Y34.5 Z-6
G3 X41 I0.5 F50
X40 I-0.5
G1 X40.007 Y34.469
X40.026 Y34.445
X40.054 Y34.43
X40.086 Y34.429
X40.114 Y34.442
X40.135 Y34.466
X40.24 Y34.657
X40.249 Y34.688
X40.244 Y34.719
X40.226 Y34.745
X40.199 Y34.76
X40.167 Y34.763
X40.138 Y34.752
Z-6.7 F33
X40.135 Y34.75 Z-6.747
X40.126 Y34.744 Z-6.793
X40.111 Y34.733 Z-6.836
X40.093 Y34.717 Z-6.876
X40.072 Y34.695 Z-6.912
X40.05 Y34.666 Z-6.943
X40.03 Y34.632 Z-6.967
X40.014 Y34.591 Z-6.985
X40.004 Y34.547 Z-6.996
X40 Y34.5 Z-7
G3 X41 I0.5 F50
X40 I-0.5
G1 X40.007 Y34.469
X40.026 Y34.445
X40.054 Y34.43
X40.086 Y34.429
X40.114 Y34.442
X40.135 Y34.466
X40.24 Y34.657
X40.249 Y34.688
X40.244 Y34.719
X40.226 Y34.745
X40.199 Y34.76
X40.167 Y34.763
X40.138 Y34.752
Z-7.7 F33
X40.135 Y34.75 Z-7.747
X40.126 Y34.744 Z-7.793
X40.111 Y34.733 Z-7.836
X40.093 Y34.717 Z-7.876
X40.072 Y34.695 Z-7.912
X40.05 Y34.666 Z-7.943
X40.03 Y34.632 Z-7.967
X40.014 Y34.591 Z-7.985
X40.004 Y34.547 Z-7.996
X40 Y34.5 Z-8
G3 X41 I0.5 F50
X40 I-0.5
G1 X40.007 Y34.469
X40.026 Y34.445
X40.054 Y34.43
X40.086 Y34.429
X40.114 Y34.442
X40.135 Y34.466
X40.24 Y34.657
X40.249 Y34.688
X40.244 Y34.719
X40.226 Y34.745
X40.199 Y34.76
X40.167 Y34.763
X40.138 Y34.752
Z-8.7 F33
X40.135 Y34.75 Z-8.747
X40.126 Y34.744 Z-8.793
X40.111 Y34.733 Z-8.836
X40.093 Y34.717 Z-8.876
X40.072 Y34.695 Z-8.912
X40.05 Y34.666 Z-8.943
X40.03 Y34.632 Z-8.967
X40.014 Y34.591 Z-8.985
X40.004 Y34.547 Z-8.996
X40 Y34.5 Z-9
G3 X41 I0.5 F50
X40 I-0.5
G1 X40.004 Y34.453 Z-8.996 F100
X40.014 Y34.409 Z-8.985
X40.03 Y34.368 Z-8.967
X40.05 Y34.334 Z-8.943
X40.072 Y34.305 Z-8.912
X40.093 Y34.283 Z-8.876
X40.111 Y34.267 Z-8.836
X40.126 Y34.256 Z-8.793
X40.135 Y34.25 Z-8.747
X40.138 Y34.248 Z-8.7
G0 Z5

(2D Contour1)
X26.6 Y18.7
Z5
Z2
G1 Z-0.7 F33
G18 G2 X26.9 Z-1 I0.3
G1 X27.2 F30
G17 G3 X27.5 Y19 J0.3
X22.5 I-2.5 F60
X27.5 I2.5
X27.2 Y19.3 I-0.3 F100
G1 X26.9
G18 G3 X26.6 Z-0.7 K0.3
G1 Y18.7 F60
Z-1.7 F33
G2 X26.9 Z-2 I0.3
G1 X27.2 F30
G17 G3 X27.5 Y19 J0.3
X22.5 I-2.5 F60
X27.5 I2.5
X27.2 Y19.3 I-0.3 F100
G1 X26.9
G18 G3 X26.6 Z-1.7 K0.3
G1 Y18.7 F60
Z-2.7 F33
G2 X26.9 Z-3 I0.3
G1 X27.2 F30
G17 G3 X27.5 Y19 J0.3
X22.5 I-2.5 F60
X27.5 I2.5
X27.2 Y19.3 I-0.3 F100
G1 X26.9
G18 G3 X26.6 Z-2.7 K0.3
G1 Y18.7 F60
Z-3.7 F33
G2 X26.9 Z-4 I0.3
G1 X27.2 F30
G17 G3 X27.5 Y19 J0.3
X22.5 I-2.5 F60
X27.5 I2.5
X27.2 Y19.3 I-0.3 F100
G1 X26.9
G18 G3 X26.6 Z-3.7 K0.3
G1 Y18.7 F60
Z-4.7 F33
G2 X26.9 Z-5 I0.3
G1 X27.2 F30
G17 G3 X27.5 Y19 J0.3
X22.5 I-2.5 F60
X27.5 I2.5
X27.2 Y19.3 I-0.3 F100
G1 X26.9
G18 G3 X26.6 Z-4.7 K0.3
G1 Y18.7 F60
Z-5.7 F33
G2 X26.9 Z-6 I0.3
G1 X27.2 F30
G17 G3 X27.5 Y19 J0.3
X22.5 I-2.5 F60
X27.5 I2.5
X27.2 Y19.3 I-0.3 F100
G1 X26.9
G18 G3 X26.6 Z-5.7 K0.3
G1 Y18.7 F60
Z-6.7 F33
G2 X26.9 Z-7 I0.3
G1 X27.2 F30
G17 G3 X27.5 Y19 J0.3
X22.5 I-2.5 F60
X27.5 I2.5
X27.2 Y19.3 I-0.3 F100
G1 X26.9
G18 G3 X26.6 Z-6.7 K0.3
G1 Y18.7 F60
Z-7.7 F33
G2 X26.9 Z-8 I0.3
G1 X27.2 F30
G17 G3 X27.5 Y19 J0.3
X22.5 I-2.5 F60
X27.5 I2.5
X27.2 Y19.3 I-0.3 F100
G1 X26.9
G18 G3 X26.6 Z-7.7 K0.3
G1 Y18.7 F60
Z-8.7 F33
G2 X26.9 Z-9 I0.3
G1 X27.2 F30
G17 G3 X27.5 Y19 J0.3
X22.5 I-2.5 F60
X27.5 I2.5
X27.2 Y19.3 I-0.3 F100
G1 X26.9
G18 G3 X26.6 Z-8.7 K0.3
G0 Z2
X52.4 Y20.3
G1 Z-0.7 F33
G3 X52.1 Z-1 I-0.3
G1 X51.8 F30
G17 G3 X51.5 Y20 J-0.3
G1 Y0 F60
G2 X50 Y-1.5 I-1.5
G1 X0
G2 X-1.5 Y0 J1.5
G1 Y40
G2 X0 Y41.5 I1.5
G1 X50
G2 X51.5 Y40 J-1.5
G1 Y20
G3 X51.8 Y19.7 I0.3 F100
G1 X52.1
G18 G2 X52.4 Z-0.7 K0.3
G1 Y20.3 F60
Z-1.7 F33
G3 X52.1 Z-2 I-0.3
G1 X51.8 F30
G17 G3 X51.5 Y20 J-0.3
G1 Y0 F60
G2 X50 Y-1.5 I-1.5
G1 X0
G2 X-1.5 Y0 J1.5
G1 Y40
G2 X0 Y41.5 I1.5
G1 X50
G2 X51.5 Y40 J-1.5
G1 Y20
G3 X51.8 Y19.7 I0.3 F100
G1 X52.1
G18 G2 X52.4 Z-1.7 K0.3
G1 Y20.3 F60
Z-2.7 F33
G3 X52.1 Z-3 I-0.3
G1 X51.8 F30
G17 G3 X51.5 Y20 J-0.3
G1 Y0 F60
G2 X50 Y-1.5 I-1.5
G1 X0
G2 X-1.5 Y0 J1.5
G1 Y40
G2 X0 Y41.5 I1.5
G1 X50
G2 X51.5 Y40 J-1.5
G1 Y20
G3 X51.8 Y19.7 I0.3 F100
G1 X52.1
G18 G2 X52.4 Z-2.7 K0.3
G1 Y20.3 F60
Z-3.7 F33
G3 X52.1 Z-4 I-0.3
G1 X51.8 F30
G17 G3 X51.5 Y20 J-0.3
G1 Y0 F60
G2 X50 Y-1.5 I-1.5
G1 X0
G2 X-1.5 Y0 J1.5
G1 Y40
G2 X0 Y41.5 I1.5
G1 X50
G2 X51.5 Y40 J-1.5
G1 Y20
G3 X51.8 Y19.7 I0.3 F100
G1 X52.1
G18 G2 X52.4 Z-3.7 K0.3
G1 Y20.3 F60
Z-4.7 F33
G3 X52.1 Z-5 I-0.3
G1 X51.8 F30
G17 G3 X51.5 Y20 J-0.3
G1 Y0 F60
G2 X50 Y-1.5 I-1.5
G1 X0
G2 X-1.5 Y0 J1.5
G1 Y40
G2 X0 Y41.5 I1.5
G1 X50
G2 X51.5 Y40 J-1.5
G1 Y20
G3 X51.8 Y19.7 I0.3 F100
G1 X52.1
G18 G2 X52.4 Z-4.7 K0.3
G1 Y20.3 F60
Z-5.7 F33
G3 X52.1 Z-6 I-0.3
G1 X51.8 F30
G17 G3 X51.5 Y20 J-0.3
G1 Y0 F60
G2 X50 Y-1.5 I-1.5
G1 X0
G2 X-1.5 Y0 J1.5
G1 Y40
G2 X0 Y41.5 I1.5
G1 X50
G2 X51.5 Y40 J-1.5
G1 Y20
G3 X51.8 Y19.7 I0.3 F100
G1 X52.1
G18 G2 X52.4 Z-5.7 K0.3
G1 Y20.3 F60
Z-6.7 F33
G3 X52.1 Z-7 I-0.3
G1 X51.8 F30
G17 G3 X51.5 Y20 J-0.3
G1 Y0 F60
G2 X50 Y-1.5 I-1.5
G1 X0
G2 X-1.5 Y0 J1.5
G1 Y40
G2 X0 Y41.5 I1.5
G1 X50
G2 X51.5 Y40 J-1.5
G1 Y20
G3 X51.8 Y19.7 I0.3 F100
G1 X52.1
G18 G2 X52.4 Z-6.7 K0.3
G1 Y20.3 F60
Z-7.7 F33
G3 X52.1 Z-8 I-0.3
G1 X51.8 F30
G17 G3 X51.5 Y20 J-0.3
G1 Y0 F60
G2 X50 Y-1.5 I-1.5
G1 X0
G2 X-1.5 Y0 J1.5
G1 Y40
G2 X0 Y41.5 I1.5
G1 X50
G2 X51.5 Y40 J-1.5
G1 Y20
G3 X51.8 Y19.7 I0.3 F100
G1 X52.1
G18 G2 X52.4 Z-7.7 K0.3
G1 Y20.3 F60
Z-8.7 F33
G3 X52.1 Z-9 I-0.3
G1 X51.8 F30
G17 G3 X51.5 Y20 J-0.3
G1 Y0 F60
G2 X50 Y-1.5 I-1.5
G1 X0
G2 X-1.5 Y0 J1.5
G1 Y40
G2 X0 Y41.5 I1.5
G1 X50
G2 X51.5 Y40 J-1.5
G1 Y20
G3 X51.8 Y19.7 I0.3 F100
G1 X52.1
G18 G2 X52.4 Z-8.7 K0.3
G0 Z5
G17
M9
G28 G91 Z0
G90
G28 G91 X0 Y0
G90
M30
%
