%
(1001)
(T1  D=3 CR=0.75 - ZMIN=-9 - bullnose end mill)
G90 G94
G17
G21
G28 G91 Z6
G90

(2D Pocket2)
M9
T1 M6
S1000 M3
G54
M8
G0 X54.5 Y47.25
Z5
Z2
G1 Z-1 F33
G3 Y47.75 J0.25 F50
Y47.25 J-0.25
G1 Z-2 F33
G3 Y47.75 J0.25 F50
Y47.25 J-0.25
G1 Z-3 F33
G3 Y47.75 J0.25 F50
Y47.25 J-0.25
G1 Z-4 F33
G3 Y47.75 J0.25 F50
Y47.25 J-0.25
G1 Z-5 F33
G3 Y47.75 J0.25 F50
Y47.25 J-0.25
G1 Z-6 F33
G3 Y47.75 J0.25 F50
Y47.25 J-0.25
G1 Z-7 F33
G3 Y47.75 J0.25 F50
Y47.25 J-0.25
G1 Z-8 F33
G3 Y47.75 J0.25 F50
Y47.25 J-0.25
G1 Z-9 F33
G3 Y47.75 J0.25 F50
Y47.25 J-0.25
G1 X54.547 Y47.254 Z-8.996 F100
X54.591 Y47.267 Z-8.985
X54.63 Y47.286 Z-8.967
X54.662 Y47.31 Z-8.943
X54.688 Y47.335 Z-8.912
X54.706 Y47.359 Z-8.876
X54.719 Y47.38 Z-8.836
X54.727 Y47.396 Z-8.793
X54.732 Y47.406 Z-8.747
X54.733 Y47.409 Z-8.7
G0 Z2
X72.425 Y40.3
G1 Z-0.7 F33
G19 G2 Y40 Z-1 J-0.3
G17 G3 X73 I0.287 F50
X71 I-1
X73 I1
G1 X72.995 Y40.037
X72.982 Y40.071
X72.961 Y40.101
X72.686 Y40.401
G3 X72.425 Y40.3 I-0.111 J-0.101
G1 Z-1.7 F33
G19 G2 Y40 Z-2 J-0.3
G17 G3 X73 I0.287 F50
X71 I-1
X73 I1
G1 X72.995 Y40.037
X72.982 Y40.071
X72.961 Y40.101
X72.686 Y40.401
G3 X72.425 Y40.3 I-0.111 J-0.101
G1 Z-2.7 F33
G19 G2 Y40 Z-3 J-0.3
G17 G3 X73 I0.287 F50
X71 I-1
X73 I1
G1 X72.995 Y40.037
X72.982 Y40.071
X72.961 Y40.101
X72.686 Y40.401
G3 X72.425 Y40.3 I-0.111 J-0.101
G1 Z-3.7 F33
G19 G2 Y40 Z-4 J-0.3
G17 G3 X73 I0.287 F50
X71 I-1
X73 I1
G1 X72.995 Y40.037
X72.982 Y40.071
X72.961 Y40.101
X72.686 Y40.401
G3 X72.425 Y40.3 I-0.111 J-0.101
G1 Z-4.7 F33
G19 G2 Y40 Z-5 J-0.3
G17 G3 X73 I0.287 F50
X71 I-1
X73 I1
G1 X72.995 Y40.037
X72.982 Y40.071
X72.961 Y40.101
X72.686 Y40.401
G3 X72.425 Y40.3 I-0.111 J-0.101
G1 Z-5.7 F33
G19 G2 Y40 Z-6 J-0.3
G17 G3 X73 I0.287 F50
X71 I-1
X73 I1
G1 X72.995 Y40.037
X72.982 Y40.071
X72.961 Y40.101
X72.686 Y40.401
G3 X72.425 Y40.3 I-0.111 J-0.101
G1 Z-6.7 F33
G19 G2 Y40 Z-7 J-0.3
G17 G3 X73 I0.287 F50
X71 I-1
X73 I1
G1 X72.995 Y40.037
X72.982 Y40.071
X72.961 Y40.101
X72.686 Y40.401
G3 X72.425 Y40.3 I-0.111 J-0.101
G1 Z-7.7 F33
G19 G2 Y40 Z-8 J-0.3
G17 G3 X73 I0.287 F50
X71 I-1
X73 I1
G1 X72.995 Y40.037
X72.982 Y40.071
X72.961 Y40.101
X72.686 Y40.401
G3 X72.425 Y40.3 I-0.111 J-0.101
G1 Z-8.7 F33
G19 G2 Y40 Z-9 J-0.3
G17 G3 X73 I0.287 F50
X71 I-1
X73 I1
G1 X72.996 Y40.047 Z-8.996 F100
X72.986 Y40.091 Z-8.985
X72.97 Y40.132 Z-8.967
X72.95 Y40.166 Z-8.943
X72.928 Y40.195 Z-8.912
X72.907 Y40.217 Z-8.876
X72.889 Y40.233 Z-8.836
X72.874 Y40.244 Z-8.793
X72.865 Y40.25 Z-8.747
X72.862 Y40.252 Z-8.7
G0 Z2
X72.425 Y57.3
G1 Z-0.7 F33
G19 G2 Y57 Z-1 J-0.3
G17 G3 X73 I0.287 F50
X71 I-1
X73 I1
G1 X72.995 Y57.037
X72.982 Y57.071
X72.961 Y57.101
X72.686 Y57.401
G3 X72.425 Y57.3 I-0.111 J-0.101
G1 Z-1.7 F33
G19 G2 Y57 Z-2 J-0.3
G17 G3 X73 I0.287 F50
X71 I-1
X73 I1
G1 X72.995 Y57.037
X72.982 Y57.071
X72.961 Y57.101
X72.686 Y57.401
G3 X72.425 Y57.3 I-0.111 J-0.101
G1 Z-2.7 F33
G19 G2 Y57 Z-3 J-0.3
G17 G3 X73 I0.287 F50
X71 I-1
X73 I1
G1 X72.995 Y57.037
X72.982 Y57.071
X72.961 Y57.101
X72.686 Y57.401
G3 X72.425 Y57.3 I-0.111 J-0.101
G1 Z-3.7 F33
G19 G2 Y57 Z-4 J-0.3
G17 G3 X73 I0.287 F50
X71 I-1
X73 I1
G1 X72.995 Y57.037
X72.982 Y57.071
X72.961 Y57.101
X72.686 Y57.401
G3 X72.425 Y57.3 I-0.111 J-0.101
G1 Z-4.7 F33
G19 G2 Y57 Z-5 J-0.3
G17 G3 X73 I0.287 F50
X71 I-1
X73 I1
G1 X72.995 Y57.037
X72.982 Y57.071
X72.961 Y57.101
X72.686 Y57.401
G3 X72.425 Y57.3 I-0.111 J-0.101
G1 Z-5.7 F33
G19 G2 Y57 Z-6 J-0.3
G17 G3 X73 I0.287 F50
X71 I-1
X73 I1
G1 X72.995 Y57.037
X72.982 Y57.071
X72.961 Y57.101
X72.686 Y57.401
G3 X72.425 Y57.3 I-0.111 J-0.101
G1 Z-6.7 F33
G19 G2 Y57 Z-7 J-0.3
G17 G3 X73 I0.287 F50
X71 I-1
X73 I1
G1 X72.995 Y57.037
X72.982 Y57.071
X72.961 Y57.101
X72.686 Y57.401
G3 X72.425 Y57.3 I-0.111 J-0.101
G1 Z-7.7 F33
G19 G2 Y57 Z-8 J-0.3
G17 G3 X73 I0.287 F50
X71 I-1
X73 I1
G1 X72.995 Y57.037
X72.982 Y57.071
X72.961 Y57.101
X72.686 Y57.401
G3 X72.425 Y57.3 I-0.111 J-0.101
G1 Z-8.7 F33
G19 G2 Y57 Z-9 J-0.3
G17 G3 X73 I0.287 F50
X71 I-1
X73 I1
G1 X72.996 Y57.047 Z-8.996 F100
X72.986 Y57.091 Z-8.985
X72.97 Y57.132 Z-8.967
X72.95 Y57.166 Z-8.943
X72.928 Y57.195 Z-8.912
X72.907 Y57.217 Z-8.876
X72.889 Y57.233 Z-8.836
X72.874 Y57.244 Z-8.793
X72.865 Y57.25 Z-8.747
X72.862 Y57.252 Z-8.7
G0 Z2
X54.75 Y16.5
G1 Z-1 F33
G3 X54.25 I-0.25 F50
X54.75 I0.25
G1 Z-2 F33
G3 X54.25 I-0.25 F50
X54.75 I0.25
G1 Z-3 F33
G3 X54.25 I-0.25 F50
X54.75 I0.25
G1 Z-4 F33
G3 X54.25 I-0.25 F50
X54.75 I0.25
G1 Z-5 F33
G3 X54.25 I-0.25 F50
X54.75 I0.25
G1 Z-6 F33
G3 X54.25 I-0.25 F50
X54.75 I0.25
G1 Z-7 F33
G3 X54.25 I-0.25 F50
X54.75 I0.25
G1 Z-8 F33
G3 X54.25 I-0.25 F50
X54.75 I0.25
G1 Z-9 F33
G3 X54.25 I-0.25 F50
X54.75 I0.25
G1 X54.746 Y16.547 Z-8.996 F100
X54.733 Y16.591 Z-8.985
X54.714 Y16.63 Z-8.967
X54.69 Y16.662 Z-8.943
X54.665 Y16.688 Z-8.912
X54.641 Y16.706 Z-8.876
X54.62 Y16.719 Z-8.836
X54.604 Y16.727 Z-8.793
X54.594 Y16.732 Z-8.747
X54.591 Y16.733 Z-8.7
G0 Z2
X23.75 Y16.5
G1 Z-1 F33
G3 X23.25 I-0.25 F50
X23.75 I0.25
G1 Z-2 F33
G3 X23.25 I-0.25 F50
X23.75 I0.25
G1 Z-3 F33
G3 X23.25 I-0.25 F50
X23.75 I0.25
G1 Z-4 F33
G3 X23.25 I-0.25 F50
X23.75 I0.25
G1 Z-5 F33
G3 X23.25 I-0.25 F50
X23.75 I0.25
G1 Z-6 F33
G3 X23.25 I-0.25 F50
X23.75 I0.25
G1 Z-7 F33
G3 X23.25 I-0.25 F50
X23.75 I0.25
G1 Z-8 F33
G3 X23.25 I-0.25 F50
X23.75 I0.25
G1 Z-9 F33
G3 X23.25 I-0.25 F50
X23.75 I0.25
G1 X23.746 Y16.547 Z-8.996 F100
X23.733 Y16.591 Z-8.985
X23.714 Y16.63 Z-8.967
X23.69 Y16.662 Z-8.943
X23.665 Y16.688 Z-8.912
X23.641 Y16.706 Z-8.876
X23.62 Y16.719 Z-8.836
X23.604 Y16.727 Z-8.793
X23.594 Y16.732 Z-8.747
X23.591 Y16.733 Z-8.7
G0 Z2
X8.425 Y40.3
G1 Z-0.7 F33
G19 G2 Y40 Z-1 J-0.3
G17 G3 X9 I0.287 F50
X7 I-1
X9 I1
G1 X8.995 Y40.037
X8.982 Y40.071
X8.961 Y40.101
X8.686 Y40.401
G3 X8.425 Y40.3 I-0.111 J-0.101
G1 Z-1.7 F33
G19 G2 Y40 Z-2 J-0.3
G17 G3 X9 I0.287 F50
X7 I-1
X9 I1
G1 X8.995 Y40.037
X8.982 Y40.071
X8.961 Y40.101
X8.686 Y40.401
G3 X8.425 Y40.3 I-0.111 J-0.101
G1 Z-2.7 F33
G19 G2 Y40 Z-3 J-0.3
G17 G3 X9 I0.287 F50
X7 I-1
X9 I1
G1 X8.995 Y40.037
X8.982 Y40.071
X8.961 Y40.101
X8.686 Y40.401
G3 X8.425 Y40.3 I-0.111 J-0.101
G1 Z-3.7 F33
G19 G2 Y40 Z-4 J-0.3
G17 G3 X9 I0.287 F50
X7 I-1
X9 I1
G1 X8.995 Y40.037
X8.982 Y40.071
X8.961 Y40.101
X8.686 Y40.401
G3 X8.425 Y40.3 I-0.111 J-0.101
G1 Z-4.7 F33
G19 G2 Y40 Z-5 J-0.3
G17 G3 X9 I0.287 F50
X7 I-1
X9 I1
G1 X8.995 Y40.037
X8.982 Y40.071
X8.961 Y40.101
X8.686 Y40.401
G3 X8.425 Y40.3 I-0.111 J-0.101
G1 Z-5.7 F33
G19 G2 Y40 Z-6 J-0.3
G17 G3 X9 I0.287 F50
X7 I-1
X9 I1
G1 X8.995 Y40.037
X8.982 Y40.071
X8.961 Y40.101
X8.686 Y40.401
G3 X8.425 Y40.3 I-0.111 J-0.101
G1 Z-6.7 F33
G19 G2 Y40 Z-7 J-0.3
G17 G3 X9 I0.287 F50
X7 I-1
X9 I1
G1 X8.995 Y40.037
X8.982 Y40.071
X8.961 Y40.101
X8.686 Y40.401
G3 X8.425 Y40.3 I-0.111 J-0.101
G1 Z-7.7 F33
G19 G2 Y40 Z-8 J-0.3
G17 G3 X9 I0.287 F50
X7 I-1
X9 I1
G1 X8.995 Y40.037
X8.982 Y40.071
X8.961 Y40.101
X8.686 Y40.401
G3 X8.425 Y40.3 I-0.111 J-0.101
G1 Z-8.7 F33
G19 G2 Y40 Z-9 J-0.3
G17 G3 X9 I0.287 F50
X7 I-1
X9 I1
G1 X8.996 Y40.047 Z-8.996 F100
X8.986 Y40.091 Z-8.985
X8.97 Y40.132 Z-8.967
X8.95 Y40.166 Z-8.943
X8.928 Y40.195 Z-8.912
X8.907 Y40.217 Z-8.876
X8.889 Y40.233 Z-8.836
X8.874 Y40.244 Z-8.793
X8.865 Y40.25 Z-8.747
X8.862 Y40.252 Z-8.7
G0 Z2
X23.75 Y47.5
G1 Z-1 F33
G3 X23.25 I-0.25 F50
X23.75 I0.25
G1 Z-2 F33
G3 X23.25 I-0.25 F50
X23.75 I0.25
G1 Z-3 F33
G3 X23.25 I-0.25 F50
X23.75 I0.25
G1 Z-4 F33
G3 X23.25 I-0.25 F50
X23.75 I0.25
G1 Z-5 F33
G3 X23.25 I-0.25 F50
X23.75 I0.25
G1 Z-6 F33
G3 X23.25 I-0.25 F50
X23.75 I0.25
G1 Z-7 F33
G3 X23.25 I-0.25 F50
X23.75 I0.25
G1 Z-8 F33
G3 X23.25 I-0.25 F50
X23.75 I0.25
G1 Z-9 F33
G3 X23.25 I-0.25 F50
X23.75 I0.25
G1 X23.746 Y47.547 Z-8.996 F100
X23.733 Y47.591 Z-8.985
X23.714 Y47.63 Z-8.967
X23.69 Y47.662 Z-8.943
X23.665 Y47.688 Z-8.912
X23.641 Y47.706 Z-8.876
X23.62 Y47.719 Z-8.836
X23.604 Y47.727 Z-8.793
X23.594 Y47.732 Z-8.747
X23.591 Y47.733 Z-8.7
G0 Z2
X8.425 Y57.3
G1 Z-0.7 F33
G19 G2 Y57 Z-1 J-0.3
G17 G3 X9 I0.287 F50
X7 I-1
X9 I1
G1 X8.995 Y57.037
X8.982 Y57.071
X8.961 Y57.101
X8.686 Y57.401
G3 X8.425 Y57.3 I-0.111 J-0.101
G1 Z-1.7 F33
G19 G2 Y57 Z-2 J-0.3
G17 G3 X9 I0.287 F50
X7 I-1
X9 I1
G1 X8.995 Y57.037
X8.982 Y57.071
X8.961 Y57.101
X8.686 Y57.401
G3 X8.425 Y57.3 I-0.111 J-0.101
G1 Z-2.7 F33
G19 G2 Y57 Z-3 J-0.3
G17 G3 X9 I0.287 F50
X7 I-1
X9 I1
G1 X8.995 Y57.037
X8.982 Y57.071
X8.961 Y57.101
X8.686 Y57.401
G3 X8.425 Y57.3 I-0.111 J-0.101
G1 Z-3.7 F33
G19 G2 Y57 Z-4 J-0.3
G17 G3 X9 I0.287 F50
X7 I-1
X9 I1
G1 X8.995 Y57.037
X8.982 Y57.071
X8.961 Y57.101
X8.686 Y57.401
G3 X8.425 Y57.3 I-0.111 J-0.101
G1 Z-4.7 F33
G19 G2 Y57 Z-5 J-0.3
G17 G3 X9 I0.287 F50
X7 I-1
X9 I1
G1 X8.995 Y57.037
X8.982 Y57.071
X8.961 Y57.101
X8.686 Y57.401
G3 X8.425 Y57.3 I-0.111 J-0.101
G1 Z-5.7 F33
G19 G2 Y57 Z-6 J-0.3
G17 G3 X9 I0.287 F50
X7 I-1
X9 I1
G1 X8.995 Y57.037
X8.982 Y57.071
X8.961 Y57.101
X8.686 Y57.401
G3 X8.425 Y57.3 I-0.111 J-0.101
G1 Z-6.7 F33
G19 G2 Y57 Z-7 J-0.3
G17 G3 X9 I0.287 F50
X7 I-1
X9 I1
G1 X8.995 Y57.037
X8.982 Y57.071
X8.961 Y57.101
X8.686 Y57.401
G3 X8.425 Y57.3 I-0.111 J-0.101
G1 Z-7.7 F33
G19 G2 Y57 Z-8 J-0.3
G17 G3 X9 I0.287 F50
X7 I-1
X9 I1
G1 X8.995 Y57.037
X8.982 Y57.071
X8.961 Y57.101
X8.686 Y57.401
G3 X8.425 Y57.3 I-0.111 J-0.101
G1 Z-8.7 F33
G19 G2 Y57 Z-9 J-0.3
G17 G3 X9 I0.287 F50
X7 I-1
X9 I1
G1 X8.996 Y57.047 Z-8.996 F100
X8.986 Y57.091 Z-8.985
X8.97 Y57.132 Z-8.967
X8.95 Y57.166 Z-8.943
X8.928 Y57.195 Z-8.912
X8.907 Y57.217 Z-8.876
X8.889 Y57.233 Z-8.836
X8.874 Y57.244 Z-8.793
X8.865 Y57.25 Z-8.747
X8.862 Y57.252 Z-8.7
G0 Z5

(2D Contour2)
X45.1 Y31.7
Z5
Z2
G1 Z-0.7 F33
G18 G2 X45.4 Z-1 I0.3
G1 X45.7 F30
G17 G3 X46 Y32 J0.3
X32 I-7 F60
X46 I7
X45.7 Y32.3 I-0.3 F100
G1 X45.4
G18 G3 X45.1 Z-0.7 K0.3
G1 Y31.7 F60
Z-1.7 F33
G2 X45.4 Z-2 I0.3
G1 X45.7 F30
G17 G3 X46 Y32 J0.3
X32 I-7 F60
X46 I7
X45.7 Y32.3 I-0.3 F100
G1 X45.4
G18 G3 X45.1 Z-1.7 K0.3
G1 Y31.7 F60
Z-2.7 F33
G2 X45.4 Z-3 I0.3
G1 X45.7 F30
G17 G3 X46 Y32 J0.3
X32 I-7 F60
X46 I7
X45.7 Y32.3 I-0.3 F100
G1 X45.4
G18 G3 X45.1 Z-2.7 K0.3
G1 Y31.7 F60
Z-3.7 F33
G2 X45.4 Z-4 I0.3
G1 X45.7 F30
G17 G3 X46 Y32 J0.3
X32 I-7 F60
X46 I7
X45.7 Y32.3 I-0.3 F100
G1 X45.4
G18 G3 X45.1 Z-3.7 K0.3
G1 Y31.7 F60
Z-4.7 F33
G2 X45.4 Z-5 I0.3
G1 X45.7 F30
G17 G3 X46 Y32 J0.3
X32 I-7 F60
X46 I7
X45.7 Y32.3 I-0.3 F100
G1 X45.4
G18 G3 X45.1 Z-4.7 K0.3
G1 Y31.7 F60
Z-5.7 F33
G2 X45.4 Z-6 I0.3
G1 X45.7 F30
G17 G3 X46 Y32 J0.3
X32 I-7 F60
X46 I7
X45.7 Y32.3 I-0.3 F100
G1 X45.4
G18 G3 X45.1 Z-5.7 K0.3
G1 Y31.7 F60
Z-6.7 F33
G2 X45.4 Z-7 I0.3
G1 X45.7 F30
G17 G3 X46 Y32 J0.3
X32 I-7 F60
X46 I7
X45.7 Y32.3 I-0.3 F100
G1 X45.4
G18 G3 X45.1 Z-6.7 K0.3
G1 Y31.7 F60
Z-7.7 F33
G2 X45.4 Z-8 I0.3
G1 X45.7 F30
G17 G3 X46 Y32 J0.3
X32 I-7 F60
X46 I7
X45.7 Y32.3 I-0.3 F100
G1 X45.4
G18 G3 X45.1 Z-7.7 K0.3
G1 Y31.7 F60
Z-8.7 F33
G2 X45.4 Z-9 I0.3
G1 X45.7 F30
G17 G3 X46 Y32 J0.3
X32 I-7 F60
X46 I7
X45.7 Y32.3 I-0.3 F100
G1 X45.4
G18 G3 X45.1 Z-8.7 K0.3
G0 Z5
G17

(2D Contour1)
G0 X62.1 Y-1.5
Z5
Z2
G1 Z-0.7 F33
G18 G3 X61.8 Z-1 I-0.3
G1 X61.5 F30
X18.5 F60
X18.2 F100
X18.165 Y-1.506 F60
X18.134 Y-1.523
X18.11 Y-1.55
X18.097 Y-1.582
X18.095 Y-1.618
X18.104 Y-1.652
X18.125 Y-1.681
X18.319 Y-1.875
X18.348 Y-1.896
X18.382 Y-1.905
X18.418 Y-1.903
X18.45 Y-1.89
X18.477 Y-1.866
X18.494 Y-1.835
X18.5 Y-1.8
Y-1.5 F30
Y30.5 F60
X0
X-1.5
X-1.8 F100
X-1.835 Y30.494 F60
X-1.866 Y30.477
X-1.89 Y30.45
X-1.903 Y30.418
X-1.905 Y30.382
X-1.896 Y30.348
X-1.875 Y30.319
X-1.681 Y30.125
X-1.652 Y30.104
X-1.618 Y30.095
X-1.582 Y30.097
X-1.55 Y30.11
X-1.523 Y30.134
X-1.506 Y30.165
X-1.5 Y30.2
Y30.5 F30
Y66.5 F60
Y66.8 F100
X-1.506 Y66.835 F60
X-1.523 Y66.866
X-1.55 Y66.89
X-1.582 Y66.903
X-1.618 Y66.905
X-1.652 Y66.896
X-1.681 Y66.875
X-1.875 Y66.681
X-1.896 Y66.652
X-1.905 Y66.618
X-1.903 Y66.582
X-1.89 Y66.55
X-1.866 Y66.523
X-1.835 Y66.506
X-1.8 Y66.5
X-1.5 F30
X81.5 F60
X81.8 F100
X81.835 Y66.506 F60
X81.866 Y66.523
X81.89 Y66.55
X81.903 Y66.582
X81.905 Y66.618
X81.896 Y66.652
X81.875 Y66.681
X81.681 Y66.875
X81.652 Y66.896
X81.618 Y66.905
X81.582 Y66.903
X81.55 Y66.89
X81.523 Y66.866
X81.506 Y66.835
X81.5 Y66.8
Y66.5 F30
Y30.5 F60
Y30.2 F100
X81.506 Y30.165 F60
X81.523 Y30.134
X81.55 Y30.11
X81.582 Y30.097
X81.618 Y30.095
X81.652 Y30.104
X81.681 Y30.125
X81.875 Y30.319
X81.896 Y30.348
X81.905 Y30.382
X81.903 Y30.418
X81.89 Y30.45
X81.866 Y30.477
X81.835 Y30.494
X81.8 Y30.5
X81.5 F30
X61.5 F60
Y0
Y-1.5
Y-1.8 F100
G19 G2 Y-2.1 Z-0.7 K0.3
G1 X62.1 Y-1.5 F60
Z-1.7 F33
G18 G3 X61.8 Z-2 I-0.3
G1 X61.5 F30
X18.5 F60
X18.2 F100
X18.165 Y-1.506 F60
X18.134 Y-1.523
X18.11 Y-1.55
X18.097 Y-1.582
X18.095 Y-1.618
X18.104 Y-1.652
X18.125 Y-1.681
X18.319 Y-1.875
X18.348 Y-1.896
X18.382 Y-1.905
X18.418 Y-1.903
X18.45 Y-1.89
X18.477 Y-1.866
X18.494 Y-1.835
X18.5 Y-1.8
Y-1.5 F30
Y30.5 F60
X0
X-1.5
X-1.8 F100
X-1.835 Y30.494 F60
X-1.866 Y30.477
X-1.89 Y30.45
X-1.903 Y30.418
X-1.905 Y30.382
X-1.896 Y30.348
X-1.875 Y30.319
X-1.681 Y30.125
X-1.652 Y30.104
X-1.618 Y30.095
X-1.582 Y30.097
X-1.55 Y30.11
X-1.523 Y30.134
X-1.506 Y30.165
X-1.5 Y30.2
Y30.5 F30
Y66.5 F60
Y66.8 F100
X-1.506 Y66.835 F60
X-1.523 Y66.866
X-1.55 Y66.89
X-1.582 Y66.903
X-1.618 Y66.905
X-1.652 Y66.896
X-1.681 Y66.875
X-1.875 Y66.681
X-1.896 Y66.652
X-1.905 Y66.618
X-1.903 Y66.582
X-1.89 Y66.55
X-1.866 Y66.523
X-1.835 Y66.506
X-1.8 Y66.5
X-1.5 F30
X81.5 F60
X81.8 F100
X81.835 Y66.506 F60
X81.866 Y66.523
X81.89 Y66.55
X81.903 Y66.582
X81.905 Y66.618
X81.896 Y66.652
X81.875 Y66.681
X81.681 Y66.875
X81.652 Y66.896
X81.618 Y66.905
X81.582 Y66.903
X81.55 Y66.89
X81.523 Y66.866
X81.506 Y66.835
X81.5 Y66.8
Y66.5 F30
Y30.5 F60
Y30.2 F100
X81.506 Y30.165 F60
X81.523 Y30.134
X81.55 Y30.11
X81.582 Y30.097
X81.618 Y30.095
X81.652 Y30.104
X81.681 Y30.125
X81.875 Y30.319
X81.896 Y30.348
X81.905 Y30.382
X81.903 Y30.418
X81.89 Y30.45
X81.866 Y30.477
X81.835 Y30.494
X81.8 Y30.5
X81.5 F30
X61.5 F60
Y0
Y-1.5
Y-1.8 F100
G19 G2 Y-2.1 Z-1.7 K0.3
G1 X62.1 Y-1.5 F60
Z-2.7 F33
G18 G3 X61.8 Z-3 I-0.3
G1 X61.5 F30
X18.5 F60
X18.2 F100
X18.165 Y-1.506 F60
X18.134 Y-1.523
X18.11 Y-1.55
X18.097 Y-1.582
X18.095 Y-1.618
X18.104 Y-1.652
X18.125 Y-1.681
X18.319 Y-1.875
X18.348 Y-1.896
X18.382 Y-1.905
X18.418 Y-1.903
X18.45 Y-1.89
X18.477 Y-1.866
X18.494 Y-1.835
X18.5 Y-1.8
Y-1.5 F30
Y30.5 F60
X0
X-1.5
X-1.8 F100
X-1.835 Y30.494 F60
X-1.866 Y30.477
X-1.89 Y30.45
X-1.903 Y30.418
X-1.905 Y30.382
X-1.896 Y30.348
X-1.875 Y30.319
X-1.681 Y30.125
X-1.652 Y30.104
X-1.618 Y30.095
X-1.582 Y30.097
X-1.55 Y30.11
X-1.523 Y30.134
X-1.506 Y30.165
X-1.5 Y30.2
Y30.5 F30
Y66.5 F60
Y66.8 F100
X-1.506 Y66.835 F60
X-1.523 Y66.866
X-1.55 Y66.89
X-1.582 Y66.903
X-1.618 Y66.905
X-1.652 Y66.896
X-1.681 Y66.875
X-1.875 Y66.681
X-1.896 Y66.652
X-1.905 Y66.618
X-1.903 Y66.582
X-1.89 Y66.55
X-1.866 Y66.523
X-1.835 Y66.506
X-1.8 Y66.5
X-1.5 F30
X81.5 F60
X81.8 F100
X81.835 Y66.506 F60
X81.866 Y66.523
X81.89 Y66.55
X81.903 Y66.582
X81.905 Y66.618
X81.896 Y66.652
X81.875 Y66.681
X81.681 Y66.875
X81.652 Y66.896
X81.618 Y66.905
X81.582 Y66.903
X81.55 Y66.89
X81.523 Y66.866
X81.506 Y66.835
X81.5 Y66.8
Y66.5 F30
Y30.5 F60
Y30.2 F100
X81.506 Y30.165 F60
X81.523 Y30.134
X81.55 Y30.11
X81.582 Y30.097
X81.618 Y30.095
X81.652 Y30.104
X81.681 Y30.125
X81.875 Y30.319
X81.896 Y30.348
X81.905 Y30.382
X81.903 Y30.418
X81.89 Y30.45
X81.866 Y30.477
X81.835 Y30.494
X81.8 Y30.5
X81.5 F30
X61.5 F60
Y0
Y-1.5
Y-1.8 F100
G19 G2 Y-2.1 Z-2.7 K0.3
G1 X62.1 Y-1.5 F60
Z-3.7 F33
G18 G3 X61.8 Z-4 I-0.3
G1 X61.5 F30
X18.5 F60
X18.2 F100
X18.165 Y-1.506 F60
X18.134 Y-1.523
X18.11 Y-1.55
X18.097 Y-1.582
X18.095 Y-1.618
X18.104 Y-1.652
X18.125 Y-1.681
X18.319 Y-1.875
X18.348 Y-1.896
X18.382 Y-1.905
X18.418 Y-1.903
X18.45 Y-1.89
X18.477 Y-1.866
X18.494 Y-1.835
X18.5 Y-1.8
Y-1.5 F30
Y30.5 F60
X0
X-1.5
X-1.8 F100
X-1.835 Y30.494 F60
X-1.866 Y30.477
X-1.89 Y30.45
X-1.903 Y30.418
X-1.905 Y30.382
X-1.896 Y30.348
X-1.875 Y30.319
X-1.681 Y30.125
X-1.652 Y30.104
X-1.618 Y30.095
X-1.582 Y30.097
X-1.55 Y30.11
X-1.523 Y30.134
X-1.506 Y30.165
X-1.5 Y30.2
Y30.5 F30
Y66.5 F60
Y66.8 F100
X-1.506 Y66.835 F60
X-1.523 Y66.866
X-1.55 Y66.89
X-1.582 Y66.903
X-1.618 Y66.905
X-1.652 Y66.896
X-1.681 Y66.875
X-1.875 Y66.681
X-1.896 Y66.652
X-1.905 Y66.618
X-1.903 Y66.582
X-1.89 Y66.55
X-1.866 Y66.523
X-1.835 Y66.506
X-1.8 Y66.5
X-1.5 F30
X81.5 F60
X81.8 F100
X81.835 Y66.506 F60
X81.866 Y66.523
X81.89 Y66.55
X81.903 Y66.582
X81.905 Y66.618
X81.896 Y66.652
X81.875 Y66.681
X81.681 Y66.875
X81.652 Y66.896
X81.618 Y66.905
X81.582 Y66.903
X81.55 Y66.89
X81.523 Y66.866
X81.506 Y66.835
X81.5 Y66.8
Y66.5 F30
Y30.5 F60
Y30.2 F100
X81.506 Y30.165 F60
X81.523 Y30.134
X81.55 Y30.11
X81.582 Y30.097
X81.618 Y30.095
X81.652 Y30.104
X81.681 Y30.125
X81.875 Y30.319
X81.896 Y30.348
X81.905 Y30.382
X81.903 Y30.418
X81.89 Y30.45
X81.866 Y30.477
X81.835 Y30.494
X81.8 Y30.5
X81.5 F30
X61.5 F60
Y0
Y-1.5
Y-1.8 F100
G19 G2 Y-2.1 Z-3.7 K0.3
G1 X62.1 Y-1.5 F60
Z-4.7 F33
G18 G3 X61.8 Z-5 I-0.3
G1 X61.5 F30
X18.5 F60
X18.2 F100
X18.165 Y-1.506 F60
X18.134 Y-1.523
X18.11 Y-1.55
X18.097 Y-1.582
X18.095 Y-1.618
X18.104 Y-1.652
X18.125 Y-1.681
X18.319 Y-1.875
X18.348 Y-1.896
X18.382 Y-1.905
X18.418 Y-1.903
X18.45 Y-1.89
X18.477 Y-1.866
X18.494 Y-1.835
X18.5 Y-1.8
Y-1.5 F30
Y30.5 F60
X0
X-1.5
X-1.8 F100
X-1.835 Y30.494 F60
X-1.866 Y30.477
X-1.89 Y30.45
X-1.903 Y30.418
X-1.905 Y30.382
X-1.896 Y30.348
X-1.875 Y30.319
X-1.681 Y30.125
X-1.652 Y30.104
X-1.618 Y30.095
X-1.582 Y30.097
X-1.55 Y30.11
X-1.523 Y30.134
X-1.506 Y30.165
X-1.5 Y30.2
Y30.5 F30
Y66.5 F60
Y66.8 F100
X-1.506 Y66.835 F60
X-1.523 Y66.866
X-1.55 Y66.89
X-1.582 Y66.903
X-1.618 Y66.905
X-1.652 Y66.896
X-1.681 Y66.875
X-1.875 Y66.681
X-1.896 Y66.652
X-1.905 Y66.618
X-1.903 Y66.582
X-1.89 Y66.55
X-1.866 Y66.523
X-1.835 Y66.506
X-1.8 Y66.5
X-1.5 F30
X81.5 F60
X81.8 F100
X81.835 Y66.506 F60
X81.866 Y66.523
X81.89 Y66.55
X81.903 Y66.582
X81.905 Y66.618
X81.896 Y66.652
X81.875 Y66.681
X81.681 Y66.875
X81.652 Y66.896
X81.618 Y66.905
X81.582 Y66.903
X81.55 Y66.89
X81.523 Y66.866
X81.506 Y66.835
X81.5 Y66.8
Y66.5 F30
Y30.5 F60
Y30.2 F100
X81.506 Y30.165 F60
X81.523 Y30.134
X81.55 Y30.11
X81.582 Y30.097
X81.618 Y30.095
X81.652 Y30.104
X81.681 Y30.125
X81.875 Y30.319
X81.896 Y30.348
X81.905 Y30.382
X81.903 Y30.418
X81.89 Y30.45
X81.866 Y30.477
X81.835 Y30.494
X81.8 Y30.5
X81.5 F30
X61.5 F60
Y0
Y-1.5
Y-1.8 F100
G19 G2 Y-2.1 Z-4.7 K0.3
G1 X62.1 Y-1.5 F60
Z-5.7 F33
G18 G3 X61.8 Z-6 I-0.3
G1 X61.5 F30
X18.5 F60
X18.2 F100
X18.165 Y-1.506 F60
X18.134 Y-1.523
X18.11 Y-1.55
X18.097 Y-1.582
X18.095 Y-1.618
X18.104 Y-1.652
X18.125 Y-1.681
X18.319 Y-1.875
X18.348 Y-1.896
X18.382 Y-1.905
X18.418 Y-1.903
X18.45 Y-1.89
X18.477 Y-1.866
X18.494 Y-1.835
X18.5 Y-1.8
Y-1.5 F30
Y30.5 F60
X0
X-1.5
X-1.8 F100
X-1.835 Y30.494 F60
X-1.866 Y30.477
X-1.89 Y30.45
X-1.903 Y30.418
X-1.905 Y30.382
X-1.896 Y30.348
X-1.875 Y30.319
X-1.681 Y30.125
X-1.652 Y30.104
X-1.618 Y30.095
X-1.582 Y30.097
X-1.55 Y30.11
X-1.523 Y30.134
X-1.506 Y30.165
X-1.5 Y30.2
Y30.5 F30
Y66.5 F60
Y66.8 F100
X-1.506 Y66.835 F60
X-1.523 Y66.866
X-1.55 Y66.89
X-1.582 Y66.903
X-1.618 Y66.905
X-1.652 Y66.896
X-1.681 Y66.875
X-1.875 Y66.681
X-1.896 Y66.652
X-1.905 Y66.618
X-1.903 Y66.582
X-1.89 Y66.55
X-1.866 Y66.523
X-1.835 Y66.506
X-1.8 Y66.5
X-1.5 F30
X81.5 F60
X81.8 F100
X81.835 Y66.506 F60
X81.866 Y66.523
X81.89 Y66.55
X81.903 Y66.582
X81.905 Y66.618
X81.896 Y66.652
X81.875 Y66.681
X81.681 Y66.875
X81.652 Y66.896
X81.618 Y66.905
X81.582 Y66.903
X81.55 Y66.89
X81.523 Y66.866
X81.506 Y66.835
X81.5 Y66.8
Y66.5 F30
Y30.5 F60
Y30.2 F100
X81.506 Y30.165 F60
X81.523 Y30.134
X81.55 Y30.11
X81.582 Y30.097
X81.618 Y30.095
X81.652 Y30.104
X81.681 Y30.125
X81.875 Y30.319
X81.896 Y30.348
X81.905 Y30.382
X81.903 Y30.418
X81.89 Y30.45
X81.866 Y30.477
X81.835 Y30.494
X81.8 Y30.5
X81.5 F30
X61.5 F60
Y0
Y-1.5
Y-1.8 F100
G19 G2 Y-2.1 Z-5.7 K0.3
G1 X62.1 Y-1.5 F60
Z-6.7 F33
G18 G3 X61.8 Z-7 I-0.3
G1 X61.5 F30
X18.5 F60
X18.2 F100
X18.165 Y-1.506 F60
X18.134 Y-1.523
X18.11 Y-1.55
X18.097 Y-1.582
X18.095 Y-1.618
X18.104 Y-1.652
X18.125 Y-1.681
X18.319 Y-1.875
X18.348 Y-1.896
X18.382 Y-1.905
X18.418 Y-1.903
X18.45 Y-1.89
X18.477 Y-1.866
X18.494 Y-1.835
X18.5 Y-1.8
Y-1.5 F30
Y30.5 F60
X0
X-1.5
X-1.8 F100
X-1.835 Y30.494 F60
X-1.866 Y30.477
X-1.89 Y30.45
X-1.903 Y30.418
X-1.905 Y30.382
X-1.896 Y30.348
X-1.875 Y30.319
X-1.681 Y30.125
X-1.652 Y30.104
X-1.618 Y30.095
X-1.582 Y30.097
X-1.55 Y30.11
X-1.523 Y30.134
X-1.506 Y30.165
X-1.5 Y30.2
Y30.5 F30
Y66.5 F60
Y66.8 F100
X-1.506 Y66.835 F60
X-1.523 Y66.866
X-1.55 Y66.89
X-1.582 Y66.903
X-1.618 Y66.905
X-1.652 Y66.896
X-1.681 Y66.875
X-1.875 Y66.681
X-1.896 Y66.652
X-1.905 Y66.618
X-1.903 Y66.582
X-1.89 Y66.55
X-1.866 Y66.523
X-1.835 Y66.506
X-1.8 Y66.5
X-1.5 F30
X81.5 F60
X81.8 F100
X81.835 Y66.506 F60
X81.866 Y66.523
X81.89 Y66.55
X81.903 Y66.582
X81.905 Y66.618
X81.896 Y66.652
X81.875 Y66.681
X81.681 Y66.875
X81.652 Y66.896
X81.618 Y66.905
X81.582 Y66.903
X81.55 Y66.89
X81.523 Y66.866
X81.506 Y66.835
X81.5 Y66.8
Y66.5 F30
Y30.5 F60
Y30.2 F100
X81.506 Y30.165 F60
X81.523 Y30.134
X81.55 Y30.11
X81.582 Y30.097
X81.618 Y30.095
X81.652 Y30.104
X81.681 Y30.125
X81.875 Y30.319
X81.896 Y30.348
X81.905 Y30.382
X81.903 Y30.418
X81.89 Y30.45
X81.866 Y30.477
X81.835 Y30.494
X81.8 Y30.5
X81.5 F30
X61.5 F60
Y0
Y-1.5
Y-1.8 F100
G19 G2 Y-2.1 Z-6.7 K0.3
G1 X62.1 Y-1.5 F60
Z-7.7 F33
G18 G3 X61.8 Z-8 I-0.3
G1 X61.5 F30
X18.5 F60
X18.2 F100
X18.165 Y-1.506 F60
X18.134 Y-1.523
X18.11 Y-1.55
X18.097 Y-1.582
X18.095 Y-1.618
X18.104 Y-1.652
X18.125 Y-1.681
X18.319 Y-1.875
X18.348 Y-1.896
X18.382 Y-1.905
X18.418 Y-1.903
X18.45 Y-1.89
X18.477 Y-1.866
X18.494 Y-1.835
X18.5 Y-1.8
Y-1.5 F30
Y30.5 F60
X0
X-1.5
X-1.8 F100
X-1.835 Y30.494 F60
X-1.866 Y30.477
X-1.89 Y30.45
X-1.903 Y30.418
X-1.905 Y30.382
X-1.896 Y30.348
X-1.875 Y30.319
X-1.681 Y30.125
X-1.652 Y30.104
X-1.618 Y30.095
X-1.582 Y30.097
X-1.55 Y30.11
X-1.523 Y30.134
X-1.506 Y30.165
X-1.5 Y30.2
Y30.5 F30
Y66.5 F60
Y66.8 F100
X-1.506 Y66.835 F60
X-1.523 Y66.866
X-1.55 Y66.89
X-1.582 Y66.903
X-1.618 Y66.905
X-1.652 Y66.896
X-1.681 Y66.875
X-1.875 Y66.681
X-1.896 Y66.652
X-1.905 Y66.618
X-1.903 Y66.582
X-1.89 Y66.55
X-1.866 Y66.523
X-1.835 Y66.506
X-1.8 Y66.5
X-1.5 F30
X81.5 F60
X81.8 F100
X81.835 Y66.506 F60
X81.866 Y66.523
X81.89 Y66.55
X81.903 Y66.582
X81.905 Y66.618
X81.896 Y66.652
X81.875 Y66.681
X81.681 Y66.875
X81.652 Y66.896
X81.618 Y66.905
X81.582 Y66.903
X81.55 Y66.89
X81.523 Y66.866
X81.506 Y66.835
X81.5 Y66.8
Y66.5 F30
Y30.5 F60
Y30.2 F100
X81.506 Y30.165 F60
X81.523 Y30.134
X81.55 Y30.11
X81.582 Y30.097
X81.618 Y30.095
X81.652 Y30.104
X81.681 Y30.125
X81.875 Y30.319
X81.896 Y30.348
X81.905 Y30.382
X81.903 Y30.418
X81.89 Y30.45
X81.866 Y30.477
X81.835 Y30.494
X81.8 Y30.5
X81.5 F30
X61.5 F60
Y0
Y-1.5
Y-1.8 F100
G19 G2 Y-2.1 Z-7.7 K0.3
G1 X62.1 Y-1.5 F60
Z-8.7 F33
G18 G3 X61.8 Z-9 I-0.3
G1 X61.5 F30
X18.5 F60
X18.2 F100
X18.165 Y-1.506 F60
X18.134 Y-1.523
X18.11 Y-1.55
X18.097 Y-1.582
X18.095 Y-1.618
X18.104 Y-1.652
X18.125 Y-1.681
X18.319 Y-1.875
X18.348 Y-1.896
X18.382 Y-1.905
X18.418 Y-1.903
X18.45 Y-1.89
X18.477 Y-1.866
X18.494 Y-1.835
X18.5 Y-1.8
Y-1.5 F30
Y30.5 F60
X0
X-1.5
X-1.8 F100
X-1.835 Y30.494 F60
X-1.866 Y30.477
X-1.89 Y30.45
X-1.903 Y30.418
X-1.905 Y30.382
X-1.896 Y30.348
X-1.875 Y30.319
X-1.681 Y30.125
X-1.652 Y30.104
X-1.618 Y30.095
X-1.582 Y30.097
X-1.55 Y30.11
X-1.523 Y30.134
X-1.506 Y30.165
X-1.5 Y30.2
Y30.5 F30
Y66.5 F60
Y66.8 F100
X-1.506 Y66.835 F60
X-1.523 Y66.866
X-1.55 Y66.89
X-1.582 Y66.903
X-1.618 Y66.905
X-1.652 Y66.896
X-1.681 Y66.875
X-1.875 Y66.681
X-1.896 Y66.652
X-1.905 Y66.618
X-1.903 Y66.582
X-1.89 Y66.55
X-1.866 Y66.523
X-1.835 Y66.506
X-1.8 Y66.5
X-1.5 F30
X81.5 F60
X81.8 F100
X81.835 Y66.506 F60
X81.866 Y66.523
X81.89 Y66.55
X81.903 Y66.582
X81.905 Y66.618
X81.896 Y66.652
X81.875 Y66.681
X81.681 Y66.875
X81.652 Y66.896
X81.618 Y66.905
X81.582 Y66.903
X81.55 Y66.89
X81.523 Y66.866
X81.506 Y66.835
X81.5 Y66.8
Y66.5 F30
Y30.5 F60
Y30.2 F100
X81.506 Y30.165 F60
X81.523 Y30.134
X81.55 Y30.11
X81.582 Y30.097
X81.618 Y30.095
X81.652 Y30.104
X81.681 Y30.125
X81.875 Y30.319
X81.896 Y30.348
X81.905 Y30.382
X81.903 Y30.418
X81.89 Y30.45
X81.866 Y30.477
X81.835 Y30.494
X81.8 Y30.5
X81.5 F30
X61.5 F60
Y0
Y-1.5
Y-1.8 F100
G19 G2 Y-2.1 Z-8.7 K0.3
G0 Z5
G17
M9
G28 G91 Z0
G90
G28 G91 X0 Y0
G90
M30
%
