%
(1001)
(T1  D=3 CR=0.75 - ZMIN=-19 - bullnose end mill)
G90 G94
G17
G21
G28 G91 Z0.5
G90

(2D Pocket2)
M9
T1 M6
S1000 M3
G54
M8
G0 X0.544 Y-2.308
Z2
G1 Z-0.7 F30
G19 G3 Y-2.008 Z-1 J0.3
G1 Y-0.275
Y14.767 F50
G17 G3 X-0.046 I-0.295
G1 Y7.246
X0.249 Y-0.275
G3 X0.5 Y-0.555 I0.295 J0.012
G1 X1.386 Y-0.687
G3 X1.724 Y-0.395 I0.043 J0.292
G1 Y14.89
G3 X1.134 I-0.295
G1 Y7.248
X1.429 Y-0.395
G3 X1.721 Y-0.678 I0.295 J0.011
G1 X2.606 Y-0.688
G3 X2.905 Y-0.393 I0.003 J0.295
G1 Y14.891
G3 X2.315 I-0.295
G1 Y7.249
X2.61 Y-0.393
G3 X2.901 Y-0.677 I0.295 J0.011
G1 X3.787 Y-0.687
G3 X4.085 Y-0.392 I0.003 J0.295
G1 Y14.893
G3 X3.495 I-0.295
G1 Y7.25
X3.79 Y-0.392
G3 X4.082 Y-0.676 I0.295 J0.011
G1 X4.967 Y-0.686
G3 X5.265 Y-0.391 I0.003 J0.295
G1 Y14.894
G3 X4.675 I-0.295
G1 Y7.252
X4.97 Y-0.391
G3 X5.262 Y-0.674 I0.295 J0.011
G1 X6.147 Y-0.684
G3 X6.446 Y-0.389 I0.003 J0.295
G1 Y14.895
G3 X5.856 I-0.295
G1 Y7.253
X6.151 Y-0.389
G3 X6.439 Y-0.673 I0.295 J0.011
G1 X7.324 Y-0.694
G3 X7.626 Y-0.399 I0.007 J0.295
G1 Y14.897
G3 X7.036 I-0.295
G1 Y7.249
X7.331 Y-0.399
G3 X7.623 Y-0.683 I0.295 J0.011
G1 X8.508 Y-0.693
G3 X8.806 Y-0.398 I0.003 J0.295
G1 Y14.898
G3 X8.216 I-0.295
G1 Y7.25
X8.511 Y-0.398
G3 X8.803 Y-0.681 I0.295 J0.011
G1 X9.688 Y-0.691
G3 X9.987 Y-0.396 I0.003 J0.295
G1 Y14.899
G3 X9.397 I-0.295
G1 Y7.252
X9.692 Y-0.396
G3 X9.983 Y-0.68 I0.295 J0.011
G1 X10.869 Y-0.69
G3 X11.167 Y-0.395 I0.003 J0.295
G1 Y14.89
G3 X10.577 I-0.295
G1 Y7.247
X10.872 Y-0.395
G3 X11.164 Y-0.679 I0.295 J0.011
G1 X12.049 Y-0.689
G3 X12.347 Y-0.393 I0.003 J0.295
G1 Y14.891
G3 X11.757 I-0.295
G1 Y7.249
X12.052 Y-0.393
G3 X12.639 Y-0.427 I0.295 J0.011
G1 X13.528 Y5.329
Y14.892
G3 X12.938 Y14.893 I-0.295
G1 Y10.111
X13.233 Y5.329
G3 X13.529 Y5.052 I0.295 J0.018
G1 X14.415 Y5.057
G3 X14.708 Y5.352 I-0.002 J0.295
G1 Y14.894
G3 X14.118 I-0.295
G1 Y10.123
X14.413 Y5.352
G3 X14.702 Y5.075 I0.295 J0.018
G1 X15.588 Y5.058
G3 X15.888 Y5.353 I0.006 J0.295
G1 Y14.895
G3 X15.298 I-0.295
G1 Y10.124
X15.593 Y5.353
G3 X15.882 Y5.077 I0.295 J0.018
G1 X16.735 Y5.059
G3 X17.036 Y5.355 I0.006 J0.295
G1 X17.024 Y14.897
G3 X16.434 Y14.896 I-0.295
G1 X16.44 Y10.125
X16.741 Y5.354
G3 X17.03 Y5.078 I0.294 J0.019
G1 X17.949 Y5.061
G3 X18.249 Y5.356 I0.005 J0.295
G1 Y14.898
G3 X17.659 I-0.295
G1 Y10.127
X17.954 Y5.356
G3 X18.243 Y5.079 I0.295 J0.018
G1 X19.129 Y5.062
G3 X19.429 Y5.357 I0.006 J0.295
G1 Y14.899
G3 X18.839 I-0.295
G1 Y10.128
X19.134 Y5.357
G3 X19.423 Y5.081 I0.295 J0.018
G1 X20.309 Y5.064
G3 X20.61 Y5.359 I0.006 J0.295
G1 Y14.89
G3 X20.02 I-0.295
G1 Y10.124
X20.315 Y5.359
G3 X20.604 Y5.082 I0.295 J0.018
G1 X21.489 Y5.065
G3 X21.79 Y5.36 I0.006 J0.295
G1 Y14.891
G3 X21.2 I-0.295
G1 Y10.126
X21.495 Y5.36
G3 X21.78 Y5.083 I0.295 J0.018
G1 X22.666 Y5.056
G3 X22.97 Y5.35 I0.009 J0.295
G1 Y14.892
G3 X22.38 I-0.295
G1 Y10.121
X22.675 Y5.35
G3 X22.964 Y5.074 I0.295 J0.018
G1 X23.85 Y5.057
G3 X24.151 Y5.352 I0.006 J0.295
G1 Y14.894
G3 X23.561 I-0.295
G1 Y10.123
X23.856 Y5.352
G3 X24.145 Y5.075 I0.295 J0.018
G1 X25.03 Y5.058
G3 X25.331 Y5.353 I0.006 J0.295
G1 Y14.895
G3 X24.741 I-0.295
G1 Y10.124
X25.036 Y5.353
G3 X25.325 Y5.076 I0.295 J0.018
G1 X26.211 Y5.059
G3 X26.511 Y5.355 I0.006 J0.295
G1 Y14.896
G3 X25.921 I-0.295
G1 Y10.125
X26.216 Y5.355
G3 X26.505 Y5.078 I0.295 J0.018
G1 X27.391 Y5.061
G3 X27.692 Y5.356 I0.006 J0.295
G1 Y14.898
G3 X27.48 Y15.035 I-0.15
G1 X10.237 Y7.288
X10.199 Y7.263
X10.17 Y7.227
X10.153 Y7.185
X10.149 Y7.139
X10.16 Y7.094
X13.239 Y-0.449
G3 X13.528 Y-0.392 I0.139 J0.057
G1 Y4.677
G3 X12.938 I-0.295
G1 Y2.142
X13.233 Y-0.392
G3 X13.515 Y-0.653 I0.293 J0.034
G1 X14.402 Y-0.686
G3 X14.708 Y-0.391 I0.011 J0.295
G1 Y4.645
G3 X14.118 I-0.295
G1 Y2.127
X14.413 Y-0.391
G3 X14.695 Y-0.651 I0.293 J0.034
G1 X15.582 Y-0.684
G3 X15.888 Y-0.389 I0.011 J0.295
G1 Y4.647
G3 X15.298 I-0.295
G1 Y2.129
X15.593 Y-0.389
G3 X15.871 Y-0.65 I0.293 J0.034
G1 X16.733 Y-0.694
G3 X17.043 Y-0.399 I0.015 J0.295
G1 X17.037 Y4.648
G3 X16.447 Y4.647 I-0.295
G1 X16.45 Y2.124
X16.748 Y-0.399
G3 X17.031 Y-0.66 I0.293 J0.035
G1 X17.943 Y-0.693
G3 X18.249 Y-0.398 I0.011 J0.295
G1 Y4.649
G3 X17.659 I-0.295
G1 Y2.126
X17.954 Y-0.398
G3 X18.236 Y-0.658 I0.293 J0.034
G1 X19.123 Y-0.691
G3 X19.429 Y-0.396 I0.011 J0.295
G1 Y4.64
G3 X18.839 I-0.295
G1 Y2.122
X19.134 Y-0.396
G3 X19.416 Y-0.657 I0.293 J0.034
G1 X20.304 Y-0.69
G3 X20.61 Y-0.395 I0.011 J0.295
G1 Y4.641
G3 X20.02 I-0.295
G1 Y2.123
X20.315 Y-0.395
G3 X20.597 Y-0.656 I0.293 J0.034
G1 X21.484 Y-0.689
G3 X21.79 Y-0.394 I0.011 J0.295
G1 Y4.642
G3 X21.2 Y4.643 I-0.295
G1 Y2.124
X21.495 Y-0.394
G3 X21.777 Y-0.654 I0.293 J0.034
G1 X22.664 Y-0.687
G3 X22.97 Y-0.392 I0.011 J0.295
G1 Y4.644
G3 X22.38 I-0.295
G1 Y2.126
X22.675 Y-0.392
G3 X22.957 Y-0.653 I0.293 J0.034
G1 X23.845 Y-0.686
G3 X24.151 Y-0.391 I0.011 J0.295
G1 Y4.645
G3 X23.561 I-0.295
G1 Y2.127
X23.856 Y-0.391
G3 X24.138 Y-0.652 I0.293 J0.034
G1 X25.025 Y-0.684
G3 X25.331 Y-0.39 I0.011 J0.295
G1 Y4.646
G3 X24.741 Y4.647 I-0.295
G1 Y2.128
X25.036 Y-0.39
G3 X25.314 Y-0.65 I0.293 J0.034
G1 X26.202 Y-0.694
G3 X26.511 Y-0.399 I0.015 J0.295
G1 Y4.648
G3 X25.921 I-0.295
G1 Y2.124
X26.216 Y-0.399
G3 X26.498 Y-0.66 I0.293 J0.034
G1 X27.386 Y-0.693
G3 X27.692 Y-0.398 I0.011 J0.295
G1 Y4.649
G3 X27.102 I-0.295
G1 Y2.126
X27.397 Y-0.398
G3 X27.679 Y-0.659 I0.293 J0.034
G1 X28.566 Y-0.691
G3 X28.872 Y-0.397 I0.011 J0.295
G1 Y14.899
G3 X28.282 I-0.295
G1 Y7.251
X28.577 Y-0.397
G3 X28.868 Y-0.68 I0.295 J0.011
G1 X29.754 Y-0.69
G3 X30.052 Y-0.395 I0.003 J0.295
G1 Y14.889
G3 X29.462 I-0.295
G1 Y7.247
X29.757 Y-0.395
G3 X30.049 Y-0.679 I0.295 J0.011
G1 X30.934 Y-0.689
G3 X31.233 Y-0.394 I0.003 J0.295
G1 Y14.891
G3 X30.643 I-0.295
G1 Y7.248
X30.938 Y-0.394
G3 X31.229 Y-0.678 I0.295 J0.011
G1 X32.115 Y-0.688
G3 X32.413 Y-0.393 I0.003 J0.295
G1 Y14.892
G3 X31.823 I-0.295
G1 Y7.25
X32.118 Y-0.393
G3 X32.409 Y-0.676 I0.295 J0.011
G1 X33.295 Y-0.686
G3 X33.593 Y-0.391 I0.003 J0.295
G1 Y14.893
G3 X33.003 I-0.295
G1 Y7.251
X33.298 Y-0.391
G3 X33.59 Y-0.675 I0.295 J0.011
G1 X34.475 Y-0.685
G3 X34.774 Y-0.39 I0.003 J0.295
G1 Y14.895
G3 X34.184 I-0.295
G1 Y7.252
X34.479 Y-0.39
G3 X34.766 Y-0.673 I0.295 J0.011
G1 X35.652 Y-0.694
G3 X35.954 Y-0.399 I0.007 J0.295
G1 Y14.896
G3 X35.364 I-0.295
G1 Y7.248
X35.659 Y-0.399
G3 X35.95 Y-0.683 I0.295 J0.011
G1 X36.836 Y-0.693
G3 X37.134 Y-0.398 I0.003 J0.295
G1 Y14.898
G3 X36.544 I-0.295
G1 Y7.25
X36.839 Y-0.398
G3 X37.131 Y-0.682 I0.295 J0.011
G1 X38.016 Y-0.692
G3 X38.315 Y-0.397 I0.003 J0.295
G1 Y14.899
G3 X37.725 I-0.295
G1 Y7.251
X38.02 Y-0.397
G3 X38.31 Y-0.68 I0.295 J0.011
G1 X39.2 Y-0.695
G3 X39.5 Y-0.4 I0.005 J0.295
G1 Y15.235
G3 X39.221 Y15.419 I-0.2
G1 X0.823 Y-1.07
G2 X0.544 Y-0.886 I-0.079 J0.184
G19 G2 Y-0.586 Z-1.3 K-0.3 F30
G1 Z-1.7
G3 Y-0.286 Z-2 J0.3
G1 Y-0.275
Y14.767 F50
G17 G3 X-0.046 I-0.295
G1 Y7.246
X0.249 Y-0.275
G3 X0.5 Y-0.555 I0.295 J0.012
G1 X1.386 Y-0.687
G3 X1.724 Y-0.395 I0.043 J0.292
G1 Y14.89
G3 X1.134 I-0.295
G1 Y7.248
X1.429 Y-0.395
G3 X1.721 Y-0.678 I0.295 J0.011
G1 X2.606 Y-0.688
G3 X2.905 Y-0.393 I0.003 J0.295
G1 Y14.891
G3 X2.315 I-0.295
G1 Y7.249
X2.61 Y-0.393
G3 X2.901 Y-0.677 I0.295 J0.011
G1 X3.787 Y-0.687
G3 X4.085 Y-0.392 I0.003 J0.295
G1 Y14.893
G3 X3.495 I-0.295
G1 Y7.25
X3.79 Y-0.392
G3 X4.082 Y-0.676 I0.295 J0.011
G1 X4.967 Y-0.686
G3 X5.265 Y-0.391 I0.003 J0.295
G1 Y14.894
G3 X4.675 I-0.295
G1 Y7.252
X4.97 Y-0.391
G3 X5.262 Y-0.674 I0.295 J0.011
G1 X6.147 Y-0.684
G3 X6.446 Y-0.389 I0.003 J0.295
G1 Y14.895
G3 X5.856 I-0.295
G1 Y7.253
X6.151 Y-0.389
G3 X6.439 Y-0.673 I0.295 J0.011
G1 X7.324 Y-0.694
G3 X7.626 Y-0.399 I0.007 J0.295
G1 Y14.897
G3 X7.036 I-0.295
G1 Y7.249
X7.331 Y-0.399
G3 X7.623 Y-0.683 I0.295 J0.011
G1 X8.508 Y-0.693
G3 X8.806 Y-0.398 I0.003 J0.295
G1 Y14.898
G3 X8.216 I-0.295
G1 Y7.25
X8.511 Y-0.398
G3 X8.803 Y-0.681 I0.295 J0.011
G1 X9.688 Y-0.691
G3 X9.987 Y-0.396 I0.003 J0.295
G1 Y14.899
G3 X9.397 I-0.295
G1 Y7.252
X9.692 Y-0.396
G3 X9.983 Y-0.68 I0.295 J0.011
G1 X10.869 Y-0.69
G3 X11.167 Y-0.395 I0.003 J0.295
G1 Y14.89
G3 X10.577 I-0.295
G1 Y7.247
X10.872 Y-0.395
G3 X11.164 Y-0.679 I0.295 J0.011
G1 X12.049 Y-0.689
G3 X12.347 Y-0.393 I0.003 J0.295
G1 Y14.891
G3 X11.757 I-0.295
G1 Y7.249
X12.052 Y-0.393
G3 X12.639 Y-0.427 I0.295 J0.011
G1 X13.528 Y5.329
Y14.892
G3 X12.938 Y14.893 I-0.295
G1 Y10.111
X13.233 Y5.329
G3 X13.529 Y5.052 I0.295 J0.018
G1 X14.415 Y5.057
G3 X14.708 Y5.352 I-0.002 J0.295
G1 Y14.894
G3 X14.118 I-0.295
G1 Y10.123
X14.413 Y5.352
G3 X14.702 Y5.075 I0.295 J0.018
G1 X15.588 Y5.058
G3 X15.888 Y5.353 I0.006 J0.295
G1 Y14.895
G3 X15.298 I-0.295
G1 Y10.124
X15.593 Y5.353
G3 X15.882 Y5.077 I0.295 J0.018
G1 X16.735 Y5.059
G3 X17.036 Y5.355 I0.006 J0.295
G1 X17.024 Y14.897
G3 X16.434 Y14.896 I-0.295
G1 X16.44 Y10.125
X16.741 Y5.354
G3 X17.03 Y5.078 I0.294 J0.019
G1 X17.949 Y5.061
G3 X18.249 Y5.356 I0.005 J0.295
G1 Y14.898
G3 X17.659 I-0.295
G1 Y10.127
X17.954 Y5.356
G3 X18.243 Y5.079 I0.295 J0.018
G1 X19.129 Y5.062
G3 X19.429 Y5.357 I0.006 J0.295
G1 Y14.899
G3 X18.839 I-0.295
G1 Y10.128
X19.134 Y5.357
G3 X19.423 Y5.081 I0.295 J0.018
G1 X20.309 Y5.064
G3 X20.61 Y5.359 I0.006 J0.295
G1 Y14.89
G3 X20.02 I-0.295
G1 Y10.124
X20.315 Y5.359
G3 X20.604 Y5.082 I0.295 J0.018
G1 X21.489 Y5.065
G3 X21.79 Y5.36 I0.006 J0.295
G1 Y14.891
G3 X21.2 I-0.295
G1 Y10.126
X21.495 Y5.36
G3 X21.78 Y5.083 I0.295 J0.018
G1 X22.666 Y5.056
G3 X22.97 Y5.35 I0.009 J0.295
G1 Y14.892
G3 X22.38 I-0.295
G1 Y10.121
X22.675 Y5.35
G3 X22.964 Y5.074 I0.295 J0.018
G1 X23.85 Y5.057
G3 X24.151 Y5.352 I0.006 J0.295
G1 Y14.894
G3 X23.561 I-0.295
G1 Y10.123
X23.856 Y5.352
G3 X24.145 Y5.075 I0.295 J0.018
G1 X25.03 Y5.058
G3 X25.331 Y5.353 I0.006 J0.295
G1 Y14.895
G3 X24.741 I-0.295
G1 Y10.124
X25.036 Y5.353
G3 X25.325 Y5.076 I0.295 J0.018
G1 X26.211 Y5.059
G3 X26.511 Y5.355 I0.006 J0.295
G1 Y14.896
G3 X25.921 I-0.295
G1 Y10.125
X26.216 Y5.355
G3 X26.505 Y5.078 I0.295 J0.018
G1 X27.391 Y5.061
G3 X27.692 Y5.356 I0.006 J0.295
G1 Y14.898
G3 X27.48 Y15.035 I-0.15
G1 X10.237 Y7.288
X10.199 Y7.263
X10.17 Y7.227
X10.153 Y7.185
X10.149 Y7.139
X10.16 Y7.094
X13.239 Y-0.449
G3 X13.528 Y-0.392 I0.139 J0.057
G1 Y4.677
G3 X12.938 I-0.295
G1 Y2.142
X13.233 Y-0.392
G3 X13.515 Y-0.653 I0.293 J0.034
G1 X14.402 Y-0.686
G3 X14.708 Y-0.391 I0.011 J0.295
G1 Y4.645
G3 X14.118 I-0.295
G1 Y2.127
X14.413 Y-0.391
G3 X14.695 Y-0.651 I0.293 J0.034
G1 X15.582 Y-0.684
G3 X15.888 Y-0.389 I0.011 J0.295
G1 Y4.647
G3 X15.298 I-0.295
G1 Y2.129
X15.593 Y-0.389
G3 X15.871 Y-0.65 I0.293 J0.034
G1 X16.733 Y-0.694
G3 X17.043 Y-0.399 I0.015 J0.295
G1 X17.037 Y4.648
G3 X16.447 Y4.647 I-0.295
G1 X16.45 Y2.124
X16.748 Y-0.399
G3 X17.031 Y-0.66 I0.293 J0.035
G1 X17.943 Y-0.693
G3 X18.249 Y-0.398 I0.011 J0.295
G1 Y4.649
G3 X17.659 I-0.295
G1 Y2.126
X17.954 Y-0.398
G3 X18.236 Y-0.658 I0.293 J0.034
G1 X19.123 Y-0.691
G3 X19.429 Y-0.396 I0.011 J0.295
G1 Y4.64
G3 X18.839 I-0.295
G1 Y2.122
X19.134 Y-0.396
G3 X19.416 Y-0.657 I0.293 J0.034
G1 X20.304 Y-0.69
G3 X20.61 Y-0.395 I0.011 J0.295
G1 Y4.641
G3 X20.02 I-0.295
G1 Y2.123
X20.315 Y-0.395
G3 X20.597 Y-0.656 I0.293 J0.034
G1 X21.484 Y-0.689
G3 X21.79 Y-0.394 I0.011 J0.295
G1 Y4.642
G3 X21.2 Y4.643 I-0.295
G1 Y2.124
X21.495 Y-0.394
G3 X21.777 Y-0.654 I0.293 J0.034
G1 X22.664 Y-0.687
G3 X22.97 Y-0.392 I0.011 J0.295
G1 Y4.644
G3 X22.38 I-0.295
G1 Y2.126
X22.675 Y-0.392
G3 X22.957 Y-0.653 I0.293 J0.034
G1 X23.845 Y-0.686
G3 X24.151 Y-0.391 I0.011 J0.295
G1 Y4.645
G3 X23.561 I-0.295
G1 Y2.127
X23.856 Y-0.391
G3 X24.138 Y-0.652 I0.293 J0.034
G1 X25.025 Y-0.684
G3 X25.331 Y-0.39 I0.011 J0.295
G1 Y4.646
G3 X24.741 Y4.647 I-0.295
G1 Y2.128
X25.036 Y-0.39
G3 X25.314 Y-0.65 I0.293 J0.034
G1 X26.202 Y-0.694
G3 X26.511 Y-0.399 I0.015 J0.295
G1 Y4.648
G3 X25.921 I-0.295
G1 Y2.124
X26.216 Y-0.399
G3 X26.498 Y-0.66 I0.293 J0.034
G1 X27.386 Y-0.693
G3 X27.692 Y-0.398 I0.011 J0.295
G1 Y4.649
G3 X27.102 I-0.295
G1 Y2.126
X27.397 Y-0.398
G3 X27.679 Y-0.659 I0.293 J0.034
G1 X28.566 Y-0.691
G3 X28.872 Y-0.397 I0.011 J0.295
G1 Y14.899
G3 X28.282 I-0.295
G1 Y7.251
X28.577 Y-0.397
G3 X28.868 Y-0.68 I0.295 J0.011
G1 X29.754 Y-0.69
G3 X30.052 Y-0.395 I0.003 J0.295
G1 Y14.889
G3 X29.462 I-0.295
G1 Y7.247
X29.757 Y-0.395
G3 X30.049 Y-0.679 I0.295 J0.011
G1 X30.934 Y-0.689
G3 X31.233 Y-0.394 I0.003 J0.295
G1 Y14.891
G3 X30.643 I-0.295
G1 Y7.248
X30.938 Y-0.394
G3 X31.229 Y-0.678 I0.295 J0.011
G1 X32.115 Y-0.688
G3 X32.413 Y-0.393 I0.003 J0.295
G1 Y14.892
G3 X31.823 I-0.295
G1 Y7.25
X32.118 Y-0.393
G3 X32.409 Y-0.676 I0.295 J0.011
G1 X33.295 Y-0.686
G3 X33.593 Y-0.391 I0.003 J0.295
G1 Y14.893
G3 X33.003 I-0.295
G1 Y7.251
X33.298 Y-0.391
G3 X33.59 Y-0.675 I0.295 J0.011
G1 X34.475 Y-0.685
G3 X34.774 Y-0.39 I0.003 J0.295
G1 Y14.895
G3 X34.184 I-0.295
G1 Y7.252
X34.479 Y-0.39
G3 X34.766 Y-0.673 I0.295 J0.011
G1 X35.652 Y-0.694
G3 X35.954 Y-0.399 I0.007 J0.295
G1 Y14.896
G3 X35.364 I-0.295
G1 Y7.248
X35.659 Y-0.399
G3 X35.95 Y-0.683 I0.295 J0.011
G1 X36.836 Y-0.693
G3 X37.134 Y-0.398 I0.003 J0.295
G1 Y14.898
G3 X36.544 I-0.295
G1 Y7.25
X36.839 Y-0.398
G3 X37.131 Y-0.682 I0.295 J0.011
G1 X38.016 Y-0.692
G3 X38.315 Y-0.397 I0.003 J0.295
G1 Y14.899
G3 X37.725 I-0.295
G1 Y7.251
X38.02 Y-0.397
G3 X38.31 Y-0.68 I0.295 J0.011
G1 X39.2 Y-0.695
G3 X39.5 Y-0.4 I0.005 J0.295
G1 Y15.235
G3 X39.221 Y15.419 I-0.2
G1 X0.823 Y-1.07
G2 X0.544 Y-0.886 I-0.079 J0.184
G19 G2 Y-0.586 Z-2.3 K-0.3 F30
G1 Z-2.7
G3 Y-0.286 Z-3 J0.3
G1 Y-0.275
Y14.767 F50
G17 G3 X-0.046 I-0.295
G1 Y7.246
X0.249 Y-0.275
G3 X0.5 Y-0.555 I0.295 J0.012
G1 X1.386 Y-0.687
G3 X1.724 Y-0.395 I0.043 J0.292
G1 Y14.89
G3 X1.134 I-0.295
G1 Y7.248
X1.429 Y-0.395
G3 X1.721 Y-0.678 I0.295 J0.011
G1 X2.606 Y-0.688
G3 X2.905 Y-0.393 I0.003 J0.295
G1 Y14.891
G3 X2.315 I-0.295
G1 Y7.249
X2.61 Y-0.393
G3 X2.901 Y-0.677 I0.295 J0.011
G1 X3.787 Y-0.687
G3 X4.085 Y-0.392 I0.003 J0.295
G1 Y14.893
G3 X3.495 I-0.295
G1 Y7.25
X3.79 Y-0.392
G3 X4.082 Y-0.676 I0.295 J0.011
G1 X4.967 Y-0.686
G3 X5.265 Y-0.391 I0.003 J0.295
G1 Y14.894
G3 X4.675 I-0.295
G1 Y7.252
X4.97 Y-0.391
G3 X5.262 Y-0.674 I0.295 J0.011
G1 X6.147 Y-0.684
G3 X6.446 Y-0.389 I0.003 J0.295
G1 Y14.895
G3 X5.856 I-0.295
G1 Y7.253
X6.151 Y-0.389
G3 X6.439 Y-0.673 I0.295 J0.011
G1 X7.324 Y-0.694
G3 X7.626 Y-0.399 I0.007 J0.295
G1 Y14.897
G3 X7.036 I-0.295
G1 Y7.249
X7.331 Y-0.399
G3 X7.623 Y-0.683 I0.295 J0.011
G1 X8.508 Y-0.693
G3 X8.806 Y-0.398 I0.003 J0.295
G1 Y14.898
G3 X8.216 I-0.295
G1 Y7.25
X8.511 Y-0.398
G3 X8.803 Y-0.681 I0.295 J0.011
G1 X9.688 Y-0.691
G3 X9.987 Y-0.396 I0.003 J0.295
G1 Y14.899
G3 X9.397 I-0.295
G1 Y7.252
X9.692 Y-0.396
G3 X9.983 Y-0.68 I0.295 J0.011
G1 X10.869 Y-0.69
G3 X11.167 Y-0.395 I0.003 J0.295
G1 Y14.89
G3 X10.577 I-0.295
G1 Y7.247
X10.872 Y-0.395
G3 X11.164 Y-0.679 I0.295 J0.011
G1 X12.049 Y-0.689
G3 X12.347 Y-0.393 I0.003 J0.295
G1 Y14.891
G3 X11.757 I-0.295
G1 Y7.249
X12.052 Y-0.393
G3 X12.639 Y-0.427 I0.295 J0.011
G1 X13.528 Y5.329
Y14.892
G3 X12.938 Y14.893 I-0.295
G1 Y10.111
X13.233 Y5.329
G3 X13.529 Y5.052 I0.295 J0.018
G1 X14.415 Y5.057
G3 X14.708 Y5.352 I-0.002 J0.295
G1 Y14.894
G3 X14.118 I-0.295
G1 Y10.123
X14.413 Y5.352
G3 X14.702 Y5.075 I0.295 J0.018
G1 X15.588 Y5.058
G3 X15.888 Y5.353 I0.006 J0.295
G1 Y14.895
G3 X15.298 I-0.295
G1 Y10.124
X15.593 Y5.353
G3 X15.882 Y5.077 I0.295 J0.018
G1 X16.735 Y5.059
G3 X17.036 Y5.355 I0.006 J0.295
G1 X17.024 Y14.897
G3 X16.434 Y14.896 I-0.295
G1 X16.44 Y10.125
X16.741 Y5.354
G3 X17.03 Y5.078 I0.294 J0.019
G1 X17.949 Y5.061
G3 X18.249 Y5.356 I0.005 J0.295
G1 Y14.898
G3 X17.659 I-0.295
G1 Y10.127
X17.954 Y5.356
G3 X18.243 Y5.079 I0.295 J0.018
G1 X19.129 Y5.062
G3 X19.429 Y5.357 I0.006 J0.295
G1 Y14.899
G3 X18.839 I-0.295
G1 Y10.128
X19.134 Y5.357
G3 X19.423 Y5.081 I0.295 J0.018
G1 X20.309 Y5.064
G3 X20.61 Y5.359 I0.006 J0.295
G1 Y14.89
G3 X20.02 I-0.295
G1 Y10.124
X20.315 Y5.359
G3 X20.604 Y5.082 I0.295 J0.018
G1 X21.489 Y5.065
G3 X21.79 Y5.36 I0.006 J0.295
G1 Y14.891
G3 X21.2 I-0.295
G1 Y10.126
X21.495 Y5.36
G3 X21.78 Y5.083 I0.295 J0.018
G1 X22.666 Y5.056
G3 X22.97 Y5.35 I0.009 J0.295
G1 Y14.892
G3 X22.38 I-0.295
G1 Y10.121
X22.675 Y5.35
G3 X22.964 Y5.074 I0.295 J0.018
G1 X23.85 Y5.057
G3 X24.151 Y5.352 I0.006 J0.295
G1 Y14.894
G3 X23.561 I-0.295
G1 Y10.123
X23.856 Y5.352
G3 X24.145 Y5.075 I0.295 J0.018
G1 X25.03 Y5.058
G3 X25.331 Y5.353 I0.006 J0.295
G1 Y14.895
G3 X24.741 I-0.295
G1 Y10.124
X25.036 Y5.353
G3 X25.325 Y5.076 I0.295 J0.018
G1 X26.211 Y5.059
G3 X26.511 Y5.355 I0.006 J0.295
G1 Y14.896
G3 X25.921 I-0.295
G1 Y10.125
X26.216 Y5.355
G3 X26.505 Y5.078 I0.295 J0.018
G1 X27.391 Y5.061
G3 X27.692 Y5.356 I0.006 J0.295
G1 Y14.898
G3 X27.48 Y15.035 I-0.15
G1 X10.237 Y7.288
X10.199 Y7.263
X10.17 Y7.227
X10.153 Y7.185
X10.149 Y7.139
X10.16 Y7.094
X13.239 Y-0.449
G3 X13.528 Y-0.392 I0.139 J0.057
G1 Y4.677
G3 X12.938 I-0.295
G1 Y2.142
X13.233 Y-0.392
G3 X13.515 Y-0.653 I0.293 J0.034
G1 X14.402 Y-0.686
G3 X14.708 Y-0.391 I0.011 J0.295
G1 Y4.645
G3 X14.118 I-0.295
G1 Y2.127
X14.413 Y-0.391
G3 X14.695 Y-0.651 I0.293 J0.034
G1 X15.582 Y-0.684
G3 X15.888 Y-0.389 I0.011 J0.295
G1 Y4.647
G3 X15.298 I-0.295
G1 Y2.129
X15.593 Y-0.389
G3 X15.871 Y-0.65 I0.293 J0.034
G1 X16.733 Y-0.694
G3 X17.043 Y-0.399 I0.015 J0.295
G1 X17.037 Y4.648
G3 X16.447 Y4.647 I-0.295
G1 X16.45 Y2.124
X16.748 Y-0.399
G3 X17.031 Y-0.66 I0.293 J0.035
G1 X17.943 Y-0.693
G3 X18.249 Y-0.398 I0.011 J0.295
G1 Y4.649
G3 X17.659 I-0.295
G1 Y2.126
X17.954 Y-0.398
G3 X18.236 Y-0.658 I0.293 J0.034
G1 X19.123 Y-0.691
G3 X19.429 Y-0.396 I0.011 J0.295
G1 Y4.64
G3 X18.839 I-0.295
G1 Y2.122
X19.134 Y-0.396
G3 X19.416 Y-0.657 I0.293 J0.034
G1 X20.304 Y-0.69
G3 X20.61 Y-0.395 I0.011 J0.295
G1 Y4.641
G3 X20.02 I-0.295
G1 Y2.123
X20.315 Y-0.395
G3 X20.597 Y-0.656 I0.293 J0.034
G1 X21.484 Y-0.689
G3 X21.79 Y-0.394 I0.011 J0.295
G1 Y4.642
G3 X21.2 Y4.643 I-0.295
G1 Y2.124
X21.495 Y-0.394
G3 X21.777 Y-0.654 I0.293 J0.034
G1 X22.664 Y-0.687
G3 X22.97 Y-0.392 I0.011 J0.295
G1 Y4.644
G3 X22.38 I-0.295
G1 Y2.126
X22.675 Y-0.392
G3 X22.957 Y-0.653 I0.293 J0.034
G1 X23.845 Y-0.686
G3 X24.151 Y-0.391 I0.011 J0.295
G1 Y4.645
G3 X23.561 I-0.295
G1 Y2.127
X23.856 Y-0.391
G3 X24.138 Y-0.652 I0.293 J0.034
G1 X25.025 Y-0.684
G3 X25.331 Y-0.39 I0.011 J0.295
G1 Y4.646
G3 X24.741 Y4.647 I-0.295
G1 Y2.128
X25.036 Y-0.39
G3 X25.314 Y-0.65 I0.293 J0.034
G1 X26.202 Y-0.694
G3 X26.511 Y-0.399 I0.015 J0.295
G1 Y4.648
G3 X25.921 I-0.295
G1 Y2.124
X26.216 Y-0.399
G3 X26.498 Y-0.66 I0.293 J0.034
G1 X27.386 Y-0.693
G3 X27.692 Y-0.398 I0.011 J0.295
G1 Y4.649
G3 X27.102 I-0.295
G1 Y2.126
X27.397 Y-0.398
G3 X27.679 Y-0.659 I0.293 J0.034
G1 X28.566 Y-0.691
G3 X28.872 Y-0.397 I0.011 J0.295
G1 Y14.899
G3 X28.282 I-0.295
G1 Y7.251
X28.577 Y-0.397
G3 X28.868 Y-0.68 I0.295 J0.011
G1 X29.754 Y-0.69
G3 X30.052 Y-0.395 I0.003 J0.295
G1 Y14.889
G3 X29.462 I-0.295
G1 Y7.247
X29.757 Y-0.395
G3 X30.049 Y-0.679 I0.295 J0.011
G1 X30.934 Y-0.689
G3 X31.233 Y-0.394 I0.003 J0.295
G1 Y14.891
G3 X30.643 I-0.295
G1 Y7.248
X30.938 Y-0.394
G3 X31.229 Y-0.678 I0.295 J0.011
G1 X32.115 Y-0.688
G3 X32.413 Y-0.393 I0.003 J0.295
G1 Y14.892
G3 X31.823 I-0.295
G1 Y7.25
X32.118 Y-0.393
G3 X32.409 Y-0.676 I0.295 J0.011
G1 X33.295 Y-0.686
G3 X33.593 Y-0.391 I0.003 J0.295
G1 Y14.893
G3 X33.003 I-0.295
G1 Y7.251
X33.298 Y-0.391
G3 X33.59 Y-0.675 I0.295 J0.011
G1 X34.475 Y-0.685
G3 X34.774 Y-0.39 I0.003 J0.295
G1 Y14.895
G3 X34.184 I-0.295
G1 Y7.252
X34.479 Y-0.39
G3 X34.766 Y-0.673 I0.295 J0.011
G1 X35.652 Y-0.694
G3 X35.954 Y-0.399 I0.007 J0.295
G1 Y14.896
G3 X35.364 I-0.295
G1 Y7.248
X35.659 Y-0.399
G3 X35.95 Y-0.683 I0.295 J0.011
G1 X36.836 Y-0.693
G3 X37.134 Y-0.398 I0.003 J0.295
G1 Y14.898
G3 X36.544 I-0.295
G1 Y7.25
X36.839 Y-0.398
G3 X37.131 Y-0.682 I0.295 J0.011
G1 X38.016 Y-0.692
G3 X38.315 Y-0.397 I0.003 J0.295
G1 Y14.899
G3 X37.725 I-0.295
G1 Y7.251
X38.02 Y-0.397
G3 X38.31 Y-0.68 I0.295 J0.011
G1 X39.2 Y-0.695
G3 X39.5 Y-0.4 I0.005 J0.295
G1 Y15.235
G3 X39.221 Y15.419 I-0.2
G1 X0.823 Y-1.07
G2 X0.544 Y-0.886 I-0.079 J0.184
G19 G2 Y-0.586 Z-3.3 K-0.3 F30
G1 Z-3.7
G3 Y-0.286 Z-4 J0.3
G1 Y-0.275
Y14.767 F50
G17 G3 X-0.046 I-0.295
G1 Y7.246
X0.249 Y-0.275
G3 X0.5 Y-0.555 I0.295 J0.012
G1 X1.386 Y-0.687
G3 X1.724 Y-0.395 I0.043 J0.292
G1 Y14.89
G3 X1.134 I-0.295
G1 Y7.248
X1.429 Y-0.395
G3 X1.721 Y-0.678 I0.295 J0.011
G1 X2.606 Y-0.688
G3 X2.905 Y-0.393 I0.003 J0.295
G1 Y14.891
G3 X2.315 I-0.295
G1 Y7.249
X2.61 Y-0.393
G3 X2.901 Y-0.677 I0.295 J0.011
G1 X3.787 Y-0.687
G3 X4.085 Y-0.392 I0.003 J0.295
G1 Y14.893
G3 X3.495 I-0.295
G1 Y7.25
X3.79 Y-0.392
G3 X4.082 Y-0.676 I0.295 J0.011
G1 X4.967 Y-0.686
G3 X5.265 Y-0.391 I0.003 J0.295
G1 Y14.894
G3 X4.675 I-0.295
G1 Y7.252
X4.97 Y-0.391
G3 X5.262 Y-0.674 I0.295 J0.011
G1 X6.147 Y-0.684
G3 X6.446 Y-0.389 I0.003 J0.295
G1 Y14.895
G3 X5.856 I-0.295
G1 Y7.253
X6.151 Y-0.389
G3 X6.439 Y-0.673 I0.295 J0.011
G1 X7.324 Y-0.694
G3 X7.626 Y-0.399 I0.007 J0.295
G1 Y14.897
G3 X7.036 I-0.295
G1 Y7.249
X7.331 Y-0.399
G3 X7.623 Y-0.683 I0.295 J0.011
G1 X8.508 Y-0.693
G3 X8.806 Y-0.398 I0.003 J0.295
G1 Y14.898
G3 X8.216 I-0.295
G1 Y7.25
X8.511 Y-0.398
G3 X8.803 Y-0.681 I0.295 J0.011
G1 X9.688 Y-0.691
G3 X9.987 Y-0.396 I0.003 J0.295
G1 Y14.899
G3 X9.397 I-0.295
G1 Y7.252
X9.692 Y-0.396
G3 X9.983 Y-0.68 I0.295 J0.011
G1 X10.869 Y-0.69
G3 X11.167 Y-0.395 I0.003 J0.295
G1 Y14.89
G3 X10.577 I-0.295
G1 Y7.247
X10.872 Y-0.395
G3 X11.164 Y-0.679 I0.295 J0.011
G1 X12.049 Y-0.689
G3 X12.347 Y-0.393 I0.003 J0.295
G1 Y14.891
G3 X11.757 I-0.295
G1 Y7.249
X12.052 Y-0.393
G3 X12.639 Y-0.427 I0.295 J0.011
G1 X13.528 Y5.329
Y14.892
G3 X12.938 Y14.893 I-0.295
G1 Y10.111
X13.233 Y5.329
G3 X13.529 Y5.052 I0.295 J0.018
G1 X14.415 Y5.057
G3 X14.708 Y5.352 I-0.002 J0.295
G1 Y14.894
G3 X14.118 I-0.295
G1 Y10.123
X14.413 Y5.352
G3 X14.702 Y5.075 I0.295 J0.018
G1 X15.588 Y5.058
G3 X15.888 Y5.353 I0.006 J0.295
G1 Y14.895
G3 X15.298 I-0.295
G1 Y10.124
X15.593 Y5.353
G3 X15.882 Y5.077 I0.295 J0.018
G1 X16.735 Y5.059
G3 X17.036 Y5.355 I0.006 J0.295
G1 X17.024 Y14.897
G3 X16.434 Y14.896 I-0.295
G1 X16.44 Y10.125
X16.741 Y5.354
G3 X17.03 Y5.078 I0.294 J0.019
G1 X17.949 Y5.061
G3 X18.249 Y5.356 I0.005 J0.295
G1 Y14.898
G3 X17.659 I-0.295
G1 Y10.127
X17.954 Y5.356
G3 X18.243 Y5.079 I0.295 J0.018
G1 X19.129 Y5.062
G3 X19.429 Y5.357 I0.006 J0.295
G1 Y14.899
G3 X18.839 I-0.295
G1 Y10.128
X19.134 Y5.357
G3 X19.423 Y5.081 I0.295 J0.018
G1 X20.309 Y5.064
G3 X20.61 Y5.359 I0.006 J0.295
G1 Y14.89
G3 X20.02 I-0.295
G1 Y10.124
X20.315 Y5.359
G3 X20.604 Y5.082 I0.295 J0.018
G1 X21.489 Y5.065
G3 X21.79 Y5.36 I0.006 J0.295
G1 Y14.891
G3 X21.2 I-0.295
G1 Y10.126
X21.495 Y5.36
G3 X21.78 Y5.083 I0.295 J0.018
G1 X22.666 Y5.056
G3 X22.97 Y5.35 I0.009 J0.295
G1 Y14.892
G3 X22.38 I-0.295
G1 Y10.121
X22.675 Y5.35
G3 X22.964 Y5.074 I0.295 J0.018
G1 X23.85 Y5.057
G3 X24.151 Y5.352 I0.006 J0.295
G1 Y14.894
G3 X23.561 I-0.295
G1 Y10.123
X23.856 Y5.352
G3 X24.145 Y5.075 I0.295 J0.018
G1 X25.03 Y5.058
G3 X25.331 Y5.353 I0.006 J0.295
G1 Y14.895
G3 X24.741 I-0.295
G1 Y10.124
X25.036 Y5.353
G3 X25.325 Y5.076 I0.295 J0.018
G1 X26.211 Y5.059
G3 X26.511 Y5.355 I0.006 J0.295
G1 Y14.896
G3 X25.921 I-0.295
G1 Y10.125
X26.216 Y5.355
G3 X26.505 Y5.078 I0.295 J0.018
G1 X27.391 Y5.061
G3 X27.692 Y5.356 I0.006 J0.295
G1 Y14.898
G3 X27.48 Y15.035 I-0.15
G1 X10.237 Y7.288
X10.199 Y7.263
X10.17 Y7.227
X10.153 Y7.185
X10.149 Y7.139
X10.16 Y7.094
X13.239 Y-0.449
G3 X13.528 Y-0.392 I0.139 J0.057
G1 Y4.677
G3 X12.938 I-0.295
G1 Y2.142
X13.233 Y-0.392
G3 X13.515 Y-0.653 I0.293 J0.034
G1 X14.402 Y-0.686
G3 X14.708 Y-0.391 I0.011 J0.295
G1 Y4.645
G3 X14.118 I-0.295
G1 Y2.127
X14.413 Y-0.391
G3 X14.695 Y-0.651 I0.293 J0.034
G1 X15.582 Y-0.684
G3 X15.888 Y-0.389 I0.011 J0.295
G1 Y4.647
G3 X15.298 I-0.295
G1 Y2.129
X15.593 Y-0.389
G3 X15.871 Y-0.65 I0.293 J0.034
G1 X16.733 Y-0.694
G3 X17.043 Y-0.399 I0.015 J0.295
G1 X17.037 Y4.648
G3 X16.447 Y4.647 I-0.295
G1 X16.45 Y2.124
X16.748 Y-0.399
G3 X17.031 Y-0.66 I0.293 J0.035
G1 X17.943 Y-0.693
G3 X18.249 Y-0.398 I0.011 J0.295
G1 Y4.649
G3 X17.659 I-0.295
G1 Y2.126
X17.954 Y-0.398
G3 X18.236 Y-0.658 I0.293 J0.034
G1 X19.123 Y-0.691
G3 X19.429 Y-0.396 I0.011 J0.295
G1 Y4.64
G3 X18.839 I-0.295
G1 Y2.122
X19.134 Y-0.396
G3 X19.416 Y-0.657 I0.293 J0.034
G1 X20.304 Y-0.69
G3 X20.61 Y-0.395 I0.011 J0.295
G1 Y4.641
G3 X20.02 I-0.295
G1 Y2.123
X20.315 Y-0.395
G3 X20.597 Y-0.656 I0.293 J0.034
G1 X21.484 Y-0.689
G3 X21.79 Y-0.394 I0.011 J0.295
G1 Y4.642
G3 X21.2 Y4.643 I-0.295
G1 Y2.124
X21.495 Y-0.394
G3 X21.777 Y-0.654 I0.293 J0.034
G1 X22.664 Y-0.687
G3 X22.97 Y-0.392 I0.011 J0.295
G1 Y4.644
G3 X22.38 I-0.295
G1 Y2.126
X22.675 Y-0.392
G3 X22.957 Y-0.653 I0.293 J0.034
G1 X23.845 Y-0.686
G3 X24.151 Y-0.391 I0.011 J0.295
G1 Y4.645
G3 X23.561 I-0.295
G1 Y2.127
X23.856 Y-0.391
G3 X24.138 Y-0.652 I0.293 J0.034
G1 X25.025 Y-0.684
G3 X25.331 Y-0.39 I0.011 J0.295
G1 Y4.646
G3 X24.741 Y4.647 I-0.295
G1 Y2.128
X25.036 Y-0.39
G3 X25.314 Y-0.65 I0.293 J0.034
G1 X26.202 Y-0.694
G3 X26.511 Y-0.399 I0.015 J0.295
G1 Y4.648
G3 X25.921 I-0.295
G1 Y2.124
X26.216 Y-0.399
G3 X26.498 Y-0.66 I0.293 J0.034
G1 X27.386 Y-0.693
G3 X27.692 Y-0.398 I0.011 J0.295
G1 Y4.649
G3 X27.102 I-0.295
G1 Y2.126
X27.397 Y-0.398
G3 X27.679 Y-0.659 I0.293 J0.034
G1 X28.566 Y-0.691
G3 X28.872 Y-0.397 I0.011 J0.295
G1 Y14.899
G3 X28.282 I-0.295
G1 Y7.251
X28.577 Y-0.397
G3 X28.868 Y-0.68 I0.295 J0.011
G1 X29.754 Y-0.69
G3 X30.052 Y-0.395 I0.003 J0.295
G1 Y14.889
G3 X29.462 I-0.295
G1 Y7.247
X29.757 Y-0.395
G3 X30.049 Y-0.679 I0.295 J0.011
G1 X30.934 Y-0.689
G3 X31.233 Y-0.394 I0.003 J0.295
G1 Y14.891
G3 X30.643 I-0.295
G1 Y7.248
X30.938 Y-0.394
G3 X31.229 Y-0.678 I0.295 J0.011
G1 X32.115 Y-0.688
G3 X32.413 Y-0.393 I0.003 J0.295
G1 Y14.892
G3 X31.823 I-0.295
G1 Y7.25
X32.118 Y-0.393
G3 X32.409 Y-0.676 I0.295 J0.011
G1 X33.295 Y-0.686
G3 X33.593 Y-0.391 I0.003 J0.295
G1 Y14.893
G3 X33.003 I-0.295
G1 Y7.251
X33.298 Y-0.391
G3 X33.59 Y-0.675 I0.295 J0.011
G1 X34.475 Y-0.685
G3 X34.774 Y-0.39 I0.003 J0.295
G1 Y14.895
G3 X34.184 I-0.295
G1 Y7.252
X34.479 Y-0.39
G3 X34.766 Y-0.673 I0.295 J0.011
G1 X35.652 Y-0.694
G3 X35.954 Y-0.399 I0.007 J0.295
G1 Y14.896
G3 X35.364 I-0.295
G1 Y7.248
X35.659 Y-0.399
G3 X35.95 Y-0.683 I0.295 J0.011
G1 X36.836 Y-0.693
G3 X37.134 Y-0.398 I0.003 J0.295
G1 Y14.898
G3 X36.544 I-0.295
G1 Y7.25
X36.839 Y-0.398
G3 X37.131 Y-0.682 I0.295 J0.011
G1 X38.016 Y-0.692
G3 X38.315 Y-0.397 I0.003 J0.295
G1 Y14.899
G3 X37.725 I-0.295
G1 Y7.251
X38.02 Y-0.397
G3 X38.31 Y-0.68 I0.295 J0.011
G1 X39.2 Y-0.695
G3 X39.5 Y-0.4 I0.005 J0.295
G1 Y15.235
G3 X39.221 Y15.419 I-0.2
G1 X0.823 Y-1.07
G2 X0.544 Y-0.886 I-0.079 J0.184
G19 G2 Y-0.586 Z-4.3 K-0.3 F30
G1 Z-4.7
G3 Y-0.286 Z-5 J0.3
G1 Y-0.275
Y14.767 F50
G17 G3 X-0.046 I-0.295
G1 Y7.246
X0.249 Y-0.275
G3 X0.5 Y-0.555 I0.295 J0.012
G1 X1.386 Y-0.687
G3 X1.724 Y-0.395 I0.043 J0.292
G1 Y14.89
G3 X1.134 I-0.295
G1 Y7.248
X1.429 Y-0.395
G3 X1.721 Y-0.678 I0.295 J0.011
G1 X2.606 Y-0.688
G3 X2.905 Y-0.393 I0.003 J0.295
G1 Y14.891
G3 X2.315 I-0.295
G1 Y7.249
X2.61 Y-0.393
G3 X2.901 Y-0.677 I0.295 J0.011
G1 X3.787 Y-0.687
G3 X4.085 Y-0.392 I0.003 J0.295
G1 Y14.893
G3 X3.495 I-0.295
G1 Y7.25
X3.79 Y-0.392
G3 X4.082 Y-0.676 I0.295 J0.011
G1 X4.967 Y-0.686
G3 X5.265 Y-0.391 I0.003 J0.295
G1 Y14.894
G3 X4.675 I-0.295
G1 Y7.252
X4.97 Y-0.391
G3 X5.262 Y-0.674 I0.295 J0.011
G1 X6.147 Y-0.684
G3 X6.446 Y-0.389 I0.003 J0.295
G1 Y14.895
G3 X5.856 I-0.295
G1 Y7.253
X6.151 Y-0.389
G3 X6.439 Y-0.673 I0.295 J0.011
G1 X7.324 Y-0.694
G3 X7.626 Y-0.399 I0.007 J0.295
G1 Y14.897
G3 X7.036 I-0.295
G1 Y7.249
X7.331 Y-0.399
G3 X7.623 Y-0.683 I0.295 J0.011
G1 X8.508 Y-0.693
G3 X8.806 Y-0.398 I0.003 J0.295
G1 Y14.898
G3 X8.216 I-0.295
G1 Y7.25
X8.511 Y-0.398
G3 X8.803 Y-0.681 I0.295 J0.011
G1 X9.688 Y-0.691
G3 X9.987 Y-0.396 I0.003 J0.295
G1 Y14.899
G3 X9.397 I-0.295
G1 Y7.252
X9.692 Y-0.396
G3 X9.983 Y-0.68 I0.295 J0.011
G1 X10.869 Y-0.69
G3 X11.167 Y-0.395 I0.003 J0.295
G1 Y14.89
G3 X10.577 I-0.295
G1 Y7.247
X10.872 Y-0.395
G3 X11.164 Y-0.679 I0.295 J0.011
G1 X12.049 Y-0.689
G3 X12.347 Y-0.393 I0.003 J0.295
G1 Y14.891
G3 X11.757 I-0.295
G1 Y7.249
X12.052 Y-0.393
G3 X12.639 Y-0.427 I0.295 J0.011
G1 X13.528 Y5.329
Y14.892
G3 X12.938 Y14.893 I-0.295
G1 Y10.111
X13.233 Y5.329
G3 X13.529 Y5.052 I0.295 J0.018
G1 X14.415 Y5.057
G3 X14.708 Y5.352 I-0.002 J0.295
G1 Y14.894
G3 X14.118 I-0.295
G1 Y10.123
X14.413 Y5.352
G3 X14.702 Y5.075 I0.295 J0.018
G1 X15.588 Y5.058
G3 X15.888 Y5.353 I0.006 J0.295
G1 Y14.895
G3 X15.298 I-0.295
G1 Y10.124
X15.593 Y5.353
G3 X15.882 Y5.077 I0.295 J0.018
G1 X16.735 Y5.059
G3 X17.036 Y5.355 I0.006 J0.295
G1 X17.024 Y14.897
G3 X16.434 Y14.896 I-0.295
G1 X16.44 Y10.125
X16.741 Y5.354
G3 X17.03 Y5.078 I0.294 J0.019
G1 X17.949 Y5.061
G3 X18.249 Y5.356 I0.005 J0.295
G1 Y14.898
G3 X17.659 I-0.295
G1 Y10.127
X17.954 Y5.356
G3 X18.243 Y5.079 I0.295 J0.018
G1 X19.129 Y5.062
G3 X19.429 Y5.357 I0.006 J0.295
G1 Y14.899
G3 X18.839 I-0.295
G1 Y10.128
X19.134 Y5.357
G3 X19.423 Y5.081 I0.295 J0.018
G1 X20.309 Y5.064
G3 X20.61 Y5.359 I0.006 J0.295
G1 Y14.89
G3 X20.02 I-0.295
G1 Y10.124
X20.315 Y5.359
G3 X20.604 Y5.082 I0.295 J0.018
G1 X21.489 Y5.065
G3 X21.79 Y5.36 I0.006 J0.295
G1 Y14.891
G3 X21.2 I-0.295
G1 Y10.126
X21.495 Y5.36
G3 X21.78 Y5.083 I0.295 J0.018
G1 X22.666 Y5.056
G3 X22.97 Y5.35 I0.009 J0.295
G1 Y14.892
G3 X22.38 I-0.295
G1 Y10.121
X22.675 Y5.35
G3 X22.964 Y5.074 I0.295 J0.018
G1 X23.85 Y5.057
G3 X24.151 Y5.352 I0.006 J0.295
G1 Y14.894
G3 X23.561 I-0.295
G1 Y10.123
X23.856 Y5.352
G3 X24.145 Y5.075 I0.295 J0.018
G1 X25.03 Y5.058
G3 X25.331 Y5.353 I0.006 J0.295
G1 Y14.895
G3 X24.741 I-0.295
G1 Y10.124
X25.036 Y5.353
G3 X25.325 Y5.076 I0.295 J0.018
G1 X26.211 Y5.059
G3 X26.511 Y5.355 I0.006 J0.295
G1 Y14.896
G3 X25.921 I-0.295
G1 Y10.125
X26.216 Y5.355
G3 X26.505 Y5.078 I0.295 J0.018
G1 X27.391 Y5.061
G3 X27.692 Y5.356 I0.006 J0.295
G1 Y14.898
G3 X27.48 Y15.035 I-0.15
G1 X10.237 Y7.288
X10.199 Y7.263
X10.17 Y7.227
X10.153 Y7.185
X10.149 Y7.139
X10.16 Y7.094
X13.239 Y-0.449
G3 X13.528 Y-0.392 I0.139 J0.057
G1 Y4.677
G3 X12.938 I-0.295
G1 Y2.142
X13.233 Y-0.392
G3 X13.515 Y-0.653 I0.293 J0.034
G1 X14.402 Y-0.686
G3 X14.708 Y-0.391 I0.011 J0.295
G1 Y4.645
G3 X14.118 I-0.295
G1 Y2.127
X14.413 Y-0.391
G3 X14.695 Y-0.651 I0.293 J0.034
G1 X15.582 Y-0.684
G3 X15.888 Y-0.389 I0.011 J0.295
G1 Y4.647
G3 X15.298 I-0.295
G1 Y2.129
X15.593 Y-0.389
G3 X15.871 Y-0.65 I0.293 J0.034
G1 X16.733 Y-0.694
G3 X17.043 Y-0.399 I0.015 J0.295
G1 X17.037 Y4.648
G3 X16.447 Y4.647 I-0.295
G1 X16.45 Y2.124
X16.748 Y-0.399
G3 X17.031 Y-0.66 I0.293 J0.035
G1 X17.943 Y-0.693
G3 X18.249 Y-0.398 I0.011 J0.295
G1 Y4.649
G3 X17.659 I-0.295
G1 Y2.126
X17.954 Y-0.398
G3 X18.236 Y-0.658 I0.293 J0.034
G1 X19.123 Y-0.691
G3 X19.429 Y-0.396 I0.011 J0.295
G1 Y4.64
G3 X18.839 I-0.295
G1 Y2.122
X19.134 Y-0.396
G3 X19.416 Y-0.657 I0.293 J0.034
G1 X20.304 Y-0.69
G3 X20.61 Y-0.395 I0.011 J0.295
G1 Y4.641
G3 X20.02 I-0.295
G1 Y2.123
X20.315 Y-0.395
G3 X20.597 Y-0.656 I0.293 J0.034
G1 X21.484 Y-0.689
G3 X21.79 Y-0.394 I0.011 J0.295
G1 Y4.642
G3 X21.2 Y4.643 I-0.295
G1 Y2.124
X21.495 Y-0.394
G3 X21.777 Y-0.654 I0.293 J0.034
G1 X22.664 Y-0.687
G3 X22.97 Y-0.392 I0.011 J0.295
G1 Y4.644
G3 X22.38 I-0.295
G1 Y2.126
X22.675 Y-0.392
G3 X22.957 Y-0.653 I0.293 J0.034
G1 X23.845 Y-0.686
G3 X24.151 Y-0.391 I0.011 J0.295
G1 Y4.645
G3 X23.561 I-0.295
G1 Y2.127
X23.856 Y-0.391
G3 X24.138 Y-0.652 I0.293 J0.034
G1 X25.025 Y-0.684
G3 X25.331 Y-0.39 I0.011 J0.295
G1 Y4.646
G3 X24.741 Y4.647 I-0.295
G1 Y2.128
X25.036 Y-0.39
G3 X25.314 Y-0.65 I0.293 J0.034
G1 X26.202 Y-0.694
G3 X26.511 Y-0.399 I0.015 J0.295
G1 Y4.648
G3 X25.921 I-0.295
G1 Y2.124
X26.216 Y-0.399
G3 X26.498 Y-0.66 I0.293 J0.034
G1 X27.386 Y-0.693
G3 X27.692 Y-0.398 I0.011 J0.295
G1 Y4.649
G3 X27.102 I-0.295
G1 Y2.126
X27.397 Y-0.398
G3 X27.679 Y-0.659 I0.293 J0.034
G1 X28.566 Y-0.691
G3 X28.872 Y-0.397 I0.011 J0.295
G1 Y14.899
G3 X28.282 I-0.295
G1 Y7.251
X28.577 Y-0.397
G3 X28.868 Y-0.68 I0.295 J0.011
G1 X29.754 Y-0.69
G3 X30.052 Y-0.395 I0.003 J0.295
G1 Y14.889
G3 X29.462 I-0.295
G1 Y7.247
X29.757 Y-0.395
G3 X30.049 Y-0.679 I0.295 J0.011
G1 X30.934 Y-0.689
G3 X31.233 Y-0.394 I0.003 J0.295
G1 Y14.891
G3 X30.643 I-0.295
G1 Y7.248
X30.938 Y-0.394
G3 X31.229 Y-0.678 I0.295 J0.011
G1 X32.115 Y-0.688
G3 X32.413 Y-0.393 I0.003 J0.295
G1 Y14.892
G3 X31.823 I-0.295
G1 Y7.25
X32.118 Y-0.393
G3 X32.409 Y-0.676 I0.295 J0.011
G1 X33.295 Y-0.686
G3 X33.593 Y-0.391 I0.003 J0.295
G1 Y14.893
G3 X33.003 I-0.295
G1 Y7.251
X33.298 Y-0.391
G3 X33.59 Y-0.675 I0.295 J0.011
G1 X34.475 Y-0.685
G3 X34.774 Y-0.39 I0.003 J0.295
G1 Y14.895
G3 X34.184 I-0.295
G1 Y7.252
X34.479 Y-0.39
G3 X34.766 Y-0.673 I0.295 J0.011
G1 X35.652 Y-0.694
G3 X35.954 Y-0.399 I0.007 J0.295
G1 Y14.896
G3 X35.364 I-0.295
G1 Y7.248
X35.659 Y-0.399
G3 X35.95 Y-0.683 I0.295 J0.011
G1 X36.836 Y-0.693
G3 X37.134 Y-0.398 I0.003 J0.295
G1 Y14.898
G3 X36.544 I-0.295
G1 Y7.25
X36.839 Y-0.398
G3 X37.131 Y-0.682 I0.295 J0.011
G1 X38.016 Y-0.692
G3 X38.315 Y-0.397 I0.003 J0.295
G1 Y14.899
G3 X37.725 I-0.295
G1 Y7.251
X38.02 Y-0.397
G3 X38.31 Y-0.68 I0.295 J0.011
G1 X39.2 Y-0.695
G3 X39.5 Y-0.4 I0.005 J0.295
G1 Y15.235
G3 X39.221 Y15.419 I-0.2
G1 X0.823 Y-1.07
G2 X0.544 Y-0.886 I-0.079 J0.184
G19 G2 Y-0.586 Z-5.3 K-0.3 F30
G1 Z-5.7
G3 Y-0.286 Z-6 J0.3
G1 Y-0.275
Y14.767 F50
G17 G3 X-0.046 I-0.295
G1 Y7.246
X0.249 Y-0.275
G3 X0.5 Y-0.555 I0.295 J0.012
G1 X1.386 Y-0.687
G3 X1.724 Y-0.395 I0.043 J0.292
G1 Y14.89
G3 X1.134 I-0.295
G1 Y7.248
X1.429 Y-0.395
G3 X1.721 Y-0.678 I0.295 J0.011
G1 X2.606 Y-0.688
G3 X2.905 Y-0.393 I0.003 J0.295
G1 Y14.891
G3 X2.315 I-0.295
G1 Y7.249
X2.61 Y-0.393
G3 X2.901 Y-0.677 I0.295 J0.011
G1 X3.787 Y-0.687
G3 X4.085 Y-0.392 I0.003 J0.295
G1 Y14.893
G3 X3.495 I-0.295
G1 Y7.25
X3.79 Y-0.392
G3 X4.082 Y-0.676 I0.295 J0.011
G1 X4.967 Y-0.686
G3 X5.265 Y-0.391 I0.003 J0.295
G1 Y14.894
G3 X4.675 I-0.295
G1 Y7.252
X4.97 Y-0.391
G3 X5.262 Y-0.674 I0.295 J0.011
G1 X6.147 Y-0.684
G3 X6.446 Y-0.389 I0.003 J0.295
G1 Y14.895
G3 X5.856 I-0.295
G1 Y7.253
X6.151 Y-0.389
G3 X6.439 Y-0.673 I0.295 J0.011
G1 X7.324 Y-0.694
G3 X7.626 Y-0.399 I0.007 J0.295
G1 Y14.897
G3 X7.036 I-0.295
G1 Y7.249
X7.331 Y-0.399
G3 X7.623 Y-0.683 I0.295 J0.011
G1 X8.508 Y-0.693
G3 X8.806 Y-0.398 I0.003 J0.295
G1 Y14.898
G3 X8.216 I-0.295
G1 Y7.25
X8.511 Y-0.398
G3 X8.803 Y-0.681 I0.295 J0.011
G1 X9.688 Y-0.691
G3 X9.987 Y-0.396 I0.003 J0.295
G1 Y14.899
G3 X9.397 I-0.295
G1 Y7.252
X9.692 Y-0.396
G3 X9.983 Y-0.68 I0.295 J0.011
G1 X10.869 Y-0.69
G3 X11.167 Y-0.395 I0.003 J0.295
G1 Y14.89
G3 X10.577 I-0.295
G1 Y7.247
X10.872 Y-0.395
G3 X11.164 Y-0.679 I0.295 J0.011
G1 X12.049 Y-0.689
G3 X12.347 Y-0.393 I0.003 J0.295
G1 Y14.891
G3 X11.757 I-0.295
G1 Y7.249
X12.052 Y-0.393
G3 X12.639 Y-0.427 I0.295 J0.011
G1 X13.528 Y5.329
Y14.892
G3 X12.938 Y14.893 I-0.295
G1 Y10.111
X13.233 Y5.329
G3 X13.529 Y5.052 I0.295 J0.018
G1 X14.415 Y5.057
G3 X14.708 Y5.352 I-0.002 J0.295
G1 Y14.894
G3 X14.118 I-0.295
G1 Y10.123
X14.413 Y5.352
G3 X14.702 Y5.075 I0.295 J0.018
G1 X15.588 Y5.058
G3 X15.888 Y5.353 I0.006 J0.295
G1 Y14.895
G3 X15.298 I-0.295
G1 Y10.124
X15.593 Y5.353
G3 X15.882 Y5.077 I0.295 J0.018
G1 X16.735 Y5.059
G3 X17.036 Y5.355 I0.006 J0.295
G1 X17.024 Y14.897
G3 X16.434 Y14.896 I-0.295
G1 X16.44 Y10.125
X16.741 Y5.354
G3 X17.03 Y5.078 I0.294 J0.019
G1 X17.949 Y5.061
G3 X18.249 Y5.356 I0.005 J0.295
G1 Y14.898
G3 X17.659 I-0.295
G1 Y10.127
X17.954 Y5.356
G3 X18.243 Y5.079 I0.295 J0.018
G1 X19.129 Y5.062
G3 X19.429 Y5.357 I0.006 J0.295
G1 Y14.899
G3 X18.839 I-0.295
G1 Y10.128
X19.134 Y5.357
G3 X19.423 Y5.081 I0.295 J0.018
G1 X20.309 Y5.064
G3 X20.61 Y5.359 I0.006 J0.295
G1 Y14.89
G3 X20.02 I-0.295
G1 Y10.124
X20.315 Y5.359
G3 X20.604 Y5.082 I0.295 J0.018
G1 X21.489 Y5.065
G3 X21.79 Y5.36 I0.006 J0.295
G1 Y14.891
G3 X21.2 I-0.295
G1 Y10.126
X21.495 Y5.36
G3 X21.78 Y5.083 I0.295 J0.018
G1 X22.666 Y5.056
G3 X22.97 Y5.35 I0.009 J0.295
G1 Y14.892
G3 X22.38 I-0.295
G1 Y10.121
X22.675 Y5.35
G3 X22.964 Y5.074 I0.295 J0.018
G1 X23.85 Y5.057
G3 X24.151 Y5.352 I0.006 J0.295
G1 Y14.894
G3 X23.561 I-0.295
G1 Y10.123
X23.856 Y5.352
G3 X24.145 Y5.075 I0.295 J0.018
G1 X25.03 Y5.058
G3 X25.331 Y5.353 I0.006 J0.295
G1 Y14.895
G3 X24.741 I-0.295
G1 Y10.124
X25.036 Y5.353
G3 X25.325 Y5.076 I0.295 J0.018
G1 X26.211 Y5.059
G3 X26.511 Y5.355 I0.006 J0.295
G1 Y14.896
G3 X25.921 I-0.295
G1 Y10.125
X26.216 Y5.355
G3 X26.505 Y5.078 I0.295 J0.018
G1 X27.391 Y5.061
G3 X27.692 Y5.356 I0.006 J0.295
G1 Y14.898
G3 X27.48 Y15.035 I-0.15
G1 X10.237 Y7.288
X10.199 Y7.263
X10.17 Y7.227
X10.153 Y7.185
X10.149 Y7.139
X10.16 Y7.094
X13.239 Y-0.449
G3 X13.528 Y-0.392 I0.139 J0.057
G1 Y4.677
G3 X12.938 I-0.295
G1 Y2.142
X13.233 Y-0.392
G3 X13.515 Y-0.653 I0.293 J0.034
G1 X14.402 Y-0.686
G3 X14.708 Y-0.391 I0.011 J0.295
G1 Y4.645
G3 X14.118 I-0.295
G1 Y2.127
X14.413 Y-0.391
G3 X14.695 Y-0.651 I0.293 J0.034
G1 X15.582 Y-0.684
G3 X15.888 Y-0.389 I0.011 J0.295
G1 Y4.647
G3 X15.298 I-0.295
G1 Y2.129
X15.593 Y-0.389
G3 X15.871 Y-0.65 I0.293 J0.034
G1 X16.733 Y-0.694
G3 X17.043 Y-0.399 I0.015 J0.295
G1 X17.037 Y4.648
G3 X16.447 Y4.647 I-0.295
G1 X16.45 Y2.124
X16.748 Y-0.399
G3 X17.031 Y-0.66 I0.293 J0.035
G1 X17.943 Y-0.693
G3 X18.249 Y-0.398 I0.011 J0.295
G1 Y4.649
G3 X17.659 I-0.295
G1 Y2.126
X17.954 Y-0.398
G3 X18.236 Y-0.658 I0.293 J0.034
G1 X19.123 Y-0.691
G3 X19.429 Y-0.396 I0.011 J0.295
G1 Y4.64
G3 X18.839 I-0.295
G1 Y2.122
X19.134 Y-0.396
G3 X19.416 Y-0.657 I0.293 J0.034
G1 X20.304 Y-0.69
G3 X20.61 Y-0.395 I0.011 J0.295
G1 Y4.641
G3 X20.02 I-0.295
G1 Y2.123
X20.315 Y-0.395
G3 X20.597 Y-0.656 I0.293 J0.034
G1 X21.484 Y-0.689
G3 X21.79 Y-0.394 I0.011 J0.295
G1 Y4.642
G3 X21.2 Y4.643 I-0.295
G1 Y2.124
X21.495 Y-0.394
G3 X21.777 Y-0.654 I0.293 J0.034
G1 X22.664 Y-0.687
G3 X22.97 Y-0.392 I0.011 J0.295
G1 Y4.644
G3 X22.38 I-0.295
G1 Y2.126
X22.675 Y-0.392
G3 X22.957 Y-0.653 I0.293 J0.034
G1 X23.845 Y-0.686
G3 X24.151 Y-0.391 I0.011 J0.295
G1 Y4.645
G3 X23.561 I-0.295
G1 Y2.127
X23.856 Y-0.391
G3 X24.138 Y-0.652 I0.293 J0.034
G1 X25.025 Y-0.684
G3 X25.331 Y-0.39 I0.011 J0.295
G1 Y4.646
G3 X24.741 Y4.647 I-0.295
G1 Y2.128
X25.036 Y-0.39
G3 X25.314 Y-0.65 I0.293 J0.034
G1 X26.202 Y-0.694
G3 X26.511 Y-0.399 I0.015 J0.295
G1 Y4.648
G3 X25.921 I-0.295
G1 Y2.124
X26.216 Y-0.399
G3 X26.498 Y-0.66 I0.293 J0.034
G1 X27.386 Y-0.693
G3 X27.692 Y-0.398 I0.011 J0.295
G1 Y4.649
G3 X27.102 I-0.295
G1 Y2.126
X27.397 Y-0.398
G3 X27.679 Y-0.659 I0.293 J0.034
G1 X28.566 Y-0.691
G3 X28.872 Y-0.397 I0.011 J0.295
G1 Y14.899
G3 X28.282 I-0.295
G1 Y7.251
X28.577 Y-0.397
G3 X28.868 Y-0.68 I0.295 J0.011
G1 X29.754 Y-0.69
G3 X30.052 Y-0.395 I0.003 J0.295
G1 Y14.889
G3 X29.462 I-0.295
G1 Y7.247
X29.757 Y-0.395
G3 X30.049 Y-0.679 I0.295 J0.011
G1 X30.934 Y-0.689
G3 X31.233 Y-0.394 I0.003 J0.295
G1 Y14.891
G3 X30.643 I-0.295
G1 Y7.248
X30.938 Y-0.394
G3 X31.229 Y-0.678 I0.295 J0.011
G1 X32.115 Y-0.688
G3 X32.413 Y-0.393 I0.003 J0.295
G1 Y14.892
G3 X31.823 I-0.295
G1 Y7.25
X32.118 Y-0.393
G3 X32.409 Y-0.676 I0.295 J0.011
G1 X33.295 Y-0.686
G3 X33.593 Y-0.391 I0.003 J0.295
G1 Y14.893
G3 X33.003 I-0.295
G1 Y7.251
X33.298 Y-0.391
G3 X33.59 Y-0.675 I0.295 J0.011
G1 X34.475 Y-0.685
G3 X34.774 Y-0.39 I0.003 J0.295
G1 Y14.895
G3 X34.184 I-0.295
G1 Y7.252
X34.479 Y-0.39
G3 X34.766 Y-0.673 I0.295 J0.011
G1 X35.652 Y-0.694
G3 X35.954 Y-0.399 I0.007 J0.295
G1 Y14.896
G3 X35.364 I-0.295
G1 Y7.248
X35.659 Y-0.399
G3 X35.95 Y-0.683 I0.295 J0.011
G1 X36.836 Y-0.693
G3 X37.134 Y-0.398 I0.003 J0.295
G1 Y14.898
G3 X36.544 I-0.295
G1 Y7.25
X36.839 Y-0.398
G3 X37.131 Y-0.682 I0.295 J0.011
G1 X38.016 Y-0.692
G3 X38.315 Y-0.397 I0.003 J0.295
G1 Y14.899
G3 X37.725 I-0.295
G1 Y7.251
X38.02 Y-0.397
G3 X38.31 Y-0.68 I0.295 J0.011
G1 X39.2 Y-0.695
G3 X39.5 Y-0.4 I0.005 J0.295
G1 Y15.235
G3 X39.221 Y15.419 I-0.2
G1 X0.823 Y-1.07
G2 X0.544 Y-0.886 I-0.079 J0.184
G19 G2 Y-0.586 Z-6.3 K-0.3 F30
G1 Z-6.7
G3 Y-0.286 Z-7 J0.3
G1 Y-0.275
Y14.767 F50
G17 G3 X-0.046 I-0.295
G1 Y7.246
X0.249 Y-0.275
G3 X0.5 Y-0.555 I0.295 J0.012
G1 X1.386 Y-0.687
G3 X1.724 Y-0.395 I0.043 J0.292
G1 Y14.89
G3 X1.134 I-0.295
G1 Y7.248
X1.429 Y-0.395
G3 X1.721 Y-0.678 I0.295 J0.011
G1 X2.606 Y-0.688
G3 X2.905 Y-0.393 I0.003 J0.295
G1 Y14.891
G3 X2.315 I-0.295
G1 Y7.249
X2.61 Y-0.393
G3 X2.901 Y-0.677 I0.295 J0.011
G1 X3.787 Y-0.687
G3 X4.085 Y-0.392 I0.003 J0.295
G1 Y14.893
G3 X3.495 I-0.295
G1 Y7.25
X3.79 Y-0.392
G3 X4.082 Y-0.676 I0.295 J0.011
G1 X4.967 Y-0.686
G3 X5.265 Y-0.391 I0.003 J0.295
G1 Y14.894
G3 X4.675 I-0.295
G1 Y7.252
X4.97 Y-0.391
G3 X5.262 Y-0.674 I0.295 J0.011
G1 X6.147 Y-0.684
G3 X6.446 Y-0.389 I0.003 J0.295
G1 Y14.895
G3 X5.856 I-0.295
G1 Y7.253
X6.151 Y-0.389
G3 X6.439 Y-0.673 I0.295 J0.011
G1 X7.324 Y-0.694
G3 X7.626 Y-0.399 I0.007 J0.295
G1 Y14.897
G3 X7.036 I-0.295
G1 Y7.249
X7.331 Y-0.399
G3 X7.623 Y-0.683 I0.295 J0.011
G1 X8.508 Y-0.693
G3 X8.806 Y-0.398 I0.003 J0.295
G1 Y14.898
G3 X8.216 I-0.295
G1 Y7.25
X8.511 Y-0.398
G3 X8.803 Y-0.681 I0.295 J0.011
G1 X9.688 Y-0.691
G3 X9.987 Y-0.396 I0.003 J0.295
G1 Y14.899
G3 X9.397 I-0.295
G1 Y7.252
X9.692 Y-0.396
G3 X9.983 Y-0.68 I0.295 J0.011
G1 X10.869 Y-0.69
G3 X11.167 Y-0.395 I0.003 J0.295
G1 Y14.89
G3 X10.577 I-0.295
G1 Y7.247
X10.872 Y-0.395
G3 X11.164 Y-0.679 I0.295 J0.011
G1 X12.049 Y-0.689
G3 X12.347 Y-0.393 I0.003 J0.295
G1 Y14.891
G3 X11.757 I-0.295
G1 Y7.249
X12.052 Y-0.393
G3 X12.639 Y-0.427 I0.295 J0.011
G1 X13.528 Y5.329
Y14.892
G3 X12.938 Y14.893 I-0.295
G1 Y10.111
X13.233 Y5.329
G3 X13.529 Y5.052 I0.295 J0.018
G1 X14.415 Y5.057
G3 X14.708 Y5.352 I-0.002 J0.295
G1 Y14.894
G3 X14.118 I-0.295
G1 Y10.123
X14.413 Y5.352
G3 X14.702 Y5.075 I0.295 J0.018
G1 X15.588 Y5.058
G3 X15.888 Y5.353 I0.006 J0.295
G1 Y14.895
G3 X15.298 I-0.295
G1 Y10.124
X15.593 Y5.353
G3 X15.882 Y5.077 I0.295 J0.018
G1 X16.735 Y5.059
G3 X17.036 Y5.355 I0.006 J0.295
G1 X17.024 Y14.897
G3 X16.434 Y14.896 I-0.295
G1 X16.44 Y10.125
X16.741 Y5.354
G3 X17.03 Y5.078 I0.294 J0.019
G1 X17.949 Y5.061
G3 X18.249 Y5.356 I0.005 J0.295
G1 Y14.898
G3 X17.659 I-0.295
G1 Y10.127
X17.954 Y5.356
G3 X18.243 Y5.079 I0.295 J0.018
G1 X19.129 Y5.062
G3 X19.429 Y5.357 I0.006 J0.295
G1 Y14.899
G3 X18.839 I-0.295
G1 Y10.128
X19.134 Y5.357
G3 X19.423 Y5.081 I0.295 J0.018
G1 X20.309 Y5.064
G3 X20.61 Y5.359 I0.006 J0.295
G1 Y14.89
G3 X20.02 I-0.295
G1 Y10.124
X20.315 Y5.359
G3 X20.604 Y5.082 I0.295 J0.018
G1 X21.489 Y5.065
G3 X21.79 Y5.36 I0.006 J0.295
G1 Y14.891
G3 X21.2 I-0.295
G1 Y10.126
X21.495 Y5.36
G3 X21.78 Y5.083 I0.295 J0.018
G1 X22.666 Y5.056
G3 X22.97 Y5.35 I0.009 J0.295
G1 Y14.892
G3 X22.38 I-0.295
G1 Y10.121
X22.675 Y5.35
G3 X22.964 Y5.074 I0.295 J0.018
G1 X23.85 Y5.057
G3 X24.151 Y5.352 I0.006 J0.295
G1 Y14.894
G3 X23.561 I-0.295
G1 Y10.123
X23.856 Y5.352
G3 X24.145 Y5.075 I0.295 J0.018
G1 X25.03 Y5.058
G3 X25.331 Y5.353 I0.006 J0.295
G1 Y14.895
G3 X24.741 I-0.295
G1 Y10.124
X25.036 Y5.353
G3 X25.325 Y5.076 I0.295 J0.018
G1 X26.211 Y5.059
G3 X26.511 Y5.355 I0.006 J0.295
G1 Y14.896
G3 X25.921 I-0.295
G1 Y10.125
X26.216 Y5.355
G3 X26.505 Y5.078 I0.295 J0.018
G1 X27.391 Y5.061
G3 X27.692 Y5.356 I0.006 J0.295
G1 Y14.898
G3 X27.48 Y15.035 I-0.15
G1 X10.237 Y7.288
X10.199 Y7.263
X10.17 Y7.227
X10.153 Y7.185
X10.149 Y7.139
X10.16 Y7.094
X13.239 Y-0.449
G3 X13.528 Y-0.392 I0.139 J0.057
G1 Y4.677
G3 X12.938 I-0.295
G1 Y2.142
X13.233 Y-0.392
G3 X13.515 Y-0.653 I0.293 J0.034
G1 X14.402 Y-0.686
G3 X14.708 Y-0.391 I0.011 J0.295
G1 Y4.645
G3 X14.118 I-0.295
G1 Y2.127
X14.413 Y-0.391
G3 X14.695 Y-0.651 I0.293 J0.034
G1 X15.582 Y-0.684
G3 X15.888 Y-0.389 I0.011 J0.295
G1 Y4.647
G3 X15.298 I-0.295
G1 Y2.129
X15.593 Y-0.389
G3 X15.871 Y-0.65 I0.293 J0.034
G1 X16.733 Y-0.694
G3 X17.043 Y-0.399 I0.015 J0.295
G1 X17.037 Y4.648
G3 X16.447 Y4.647 I-0.295
G1 X16.45 Y2.124
X16.748 Y-0.399
G3 X17.031 Y-0.66 I0.293 J0.035
G1 X17.943 Y-0.693
G3 X18.249 Y-0.398 I0.011 J0.295
G1 Y4.649
G3 X17.659 I-0.295
G1 Y2.126
X17.954 Y-0.398
G3 X18.236 Y-0.658 I0.293 J0.034
G1 X19.123 Y-0.691
G3 X19.429 Y-0.396 I0.011 J0.295
G1 Y4.64
G3 X18.839 I-0.295
G1 Y2.122
X19.134 Y-0.396
G3 X19.416 Y-0.657 I0.293 J0.034
G1 X20.304 Y-0.69
G3 X20.61 Y-0.395 I0.011 J0.295
G1 Y4.641
G3 X20.02 I-0.295
G1 Y2.123
X20.315 Y-0.395
G3 X20.597 Y-0.656 I0.293 J0.034
G1 X21.484 Y-0.689
G3 X21.79 Y-0.394 I0.011 J0.295
G1 Y4.642
G3 X21.2 Y4.643 I-0.295
G1 Y2.124
X21.495 Y-0.394
G3 X21.777 Y-0.654 I0.293 J0.034
G1 X22.664 Y-0.687
G3 X22.97 Y-0.392 I0.011 J0.295
G1 Y4.644
G3 X22.38 I-0.295
G1 Y2.126
X22.675 Y-0.392
G3 X22.957 Y-0.653 I0.293 J0.034
G1 X23.845 Y-0.686
G3 X24.151 Y-0.391 I0.011 J0.295
G1 Y4.645
G3 X23.561 I-0.295
G1 Y2.127
X23.856 Y-0.391
G3 X24.138 Y-0.652 I0.293 J0.034
G1 X25.025 Y-0.684
G3 X25.331 Y-0.39 I0.011 J0.295
G1 Y4.646
G3 X24.741 Y4.647 I-0.295
G1 Y2.128
X25.036 Y-0.39
G3 X25.314 Y-0.65 I0.293 J0.034
G1 X26.202 Y-0.694
G3 X26.511 Y-0.399 I0.015 J0.295
G1 Y4.648
G3 X25.921 I-0.295
G1 Y2.124
X26.216 Y-0.399
G3 X26.498 Y-0.66 I0.293 J0.034
G1 X27.386 Y-0.693
G3 X27.692 Y-0.398 I0.011 J0.295
G1 Y4.649
G3 X27.102 I-0.295
G1 Y2.126
X27.397 Y-0.398
G3 X27.679 Y-0.659 I0.293 J0.034
G1 X28.566 Y-0.691
G3 X28.872 Y-0.397 I0.011 J0.295
G1 Y14.899
G3 X28.282 I-0.295
G1 Y7.251
X28.577 Y-0.397
G3 X28.868 Y-0.68 I0.295 J0.011
G1 X29.754 Y-0.69
G3 X30.052 Y-0.395 I0.003 J0.295
G1 Y14.889
G3 X29.462 I-0.295
G1 Y7.247
X29.757 Y-0.395
G3 X30.049 Y-0.679 I0.295 J0.011
G1 X30.934 Y-0.689
G3 X31.233 Y-0.394 I0.003 J0.295
G1 Y14.891
G3 X30.643 I-0.295
G1 Y7.248
X30.938 Y-0.394
G3 X31.229 Y-0.678 I0.295 J0.011
G1 X32.115 Y-0.688
G3 X32.413 Y-0.393 I0.003 J0.295
G1 Y14.892
G3 X31.823 I-0.295
G1 Y7.25
X32.118 Y-0.393
G3 X32.409 Y-0.676 I0.295 J0.011
G1 X33.295 Y-0.686
G3 X33.593 Y-0.391 I0.003 J0.295
G1 Y14.893
G3 X33.003 I-0.295
G1 Y7.251
X33.298 Y-0.391
G3 X33.59 Y-0.675 I0.295 J0.011
G1 X34.475 Y-0.685
G3 X34.774 Y-0.39 I0.003 J0.295
G1 Y14.895
G3 X34.184 I-0.295
G1 Y7.252
X34.479 Y-0.39
G3 X34.766 Y-0.673 I0.295 J0.011
G1 X35.652 Y-0.694
G3 X35.954 Y-0.399 I0.007 J0.295
G1 Y14.896
G3 X35.364 I-0.295
G1 Y7.248
X35.659 Y-0.399
G3 X35.95 Y-0.683 I0.295 J0.011
G1 X36.836 Y-0.693
G3 X37.134 Y-0.398 I0.003 J0.295
G1 Y14.898
G3 X36.544 I-0.295
G1 Y7.25
X36.839 Y-0.398
G3 X37.131 Y-0.682 I0.295 J0.011
G1 X38.016 Y-0.692
G3 X38.315 Y-0.397 I0.003 J0.295
G1 Y14.899
G3 X37.725 I-0.295
G1 Y7.251
X38.02 Y-0.397
G3 X38.31 Y-0.68 I0.295 J0.011
G1 X39.2 Y-0.695
G3 X39.5 Y-0.4 I0.005 J0.295
G1 Y15.235
G3 X39.221 Y15.419 I-0.2
G1 X0.823 Y-1.07
G2 X0.544 Y-0.886 I-0.079 J0.184
G19 G2 Y-0.586 Z-7.3 K-0.3 F30
G1 Z-7.7
G3 Y-0.286 Z-8 J0.3
G1 Y-0.275
Y14.767 F50
G17 G3 X-0.046 I-0.295
G1 Y7.246
X0.249 Y-0.275
G3 X0.5 Y-0.555 I0.295 J0.012
G1 X1.386 Y-0.687
G3 X1.724 Y-0.395 I0.043 J0.292
G1 Y14.89
G3 X1.134 I-0.295
G1 Y7.248
X1.429 Y-0.395
G3 X1.721 Y-0.678 I0.295 J0.011
G1 X2.606 Y-0.688
G3 X2.905 Y-0.393 I0.003 J0.295
G1 Y14.891
G3 X2.315 I-0.295
G1 Y7.249
X2.61 Y-0.393
G3 X2.901 Y-0.677 I0.295 J0.011
G1 X3.787 Y-0.687
G3 X4.085 Y-0.392 I0.003 J0.295
G1 Y14.893
G3 X3.495 I-0.295
G1 Y7.25
X3.79 Y-0.392
G3 X4.082 Y-0.676 I0.295 J0.011
G1 X4.967 Y-0.686
G3 X5.265 Y-0.391 I0.003 J0.295
G1 Y14.894
G3 X4.675 I-0.295
G1 Y7.252
X4.97 Y-0.391
G3 X5.262 Y-0.674 I0.295 J0.011
G1 X6.147 Y-0.684
G3 X6.446 Y-0.389 I0.003 J0.295
G1 Y14.895
G3 X5.856 I-0.295
G1 Y7.253
X6.151 Y-0.389
G3 X6.439 Y-0.673 I0.295 J0.011
G1 X7.324 Y-0.694
G3 X7.626 Y-0.399 I0.007 J0.295
G1 Y14.897
G3 X7.036 I-0.295
G1 Y7.249
X7.331 Y-0.399
G3 X7.623 Y-0.683 I0.295 J0.011
G1 X8.508 Y-0.693
G3 X8.806 Y-0.398 I0.003 J0.295
G1 Y14.898
G3 X8.216 I-0.295
G1 Y7.25
X8.511 Y-0.398
G3 X8.803 Y-0.681 I0.295 J0.011
G1 X9.688 Y-0.691
G3 X9.987 Y-0.396 I0.003 J0.295
G1 Y14.899
G3 X9.397 I-0.295
G1 Y7.252
X9.692 Y-0.396
G3 X9.983 Y-0.68 I0.295 J0.011
G1 X10.869 Y-0.69
G3 X11.167 Y-0.395 I0.003 J0.295
G1 Y14.89
G3 X10.577 I-0.295
G1 Y7.247
X10.872 Y-0.395
G3 X11.164 Y-0.679 I0.295 J0.011
G1 X12.049 Y-0.689
G3 X12.347 Y-0.393 I0.003 J0.295
G1 Y14.891
G3 X11.757 I-0.295
G1 Y7.249
X12.052 Y-0.393
G3 X12.639 Y-0.427 I0.295 J0.011
G1 X13.528 Y5.329
Y14.892
G3 X12.938 Y14.893 I-0.295
G1 Y10.111
X13.233 Y5.329
G3 X13.529 Y5.052 I0.295 J0.018
G1 X14.415 Y5.057
G3 X14.708 Y5.352 I-0.002 J0.295
G1 Y14.894
G3 X14.118 I-0.295
G1 Y10.123
X14.413 Y5.352
G3 X14.702 Y5.075 I0.295 J0.018
G1 X15.588 Y5.058
G3 X15.888 Y5.353 I0.006 J0.295
G1 Y14.895
G3 X15.298 I-0.295
G1 Y10.124
X15.593 Y5.353
G3 X15.882 Y5.077 I0.295 J0.018
G1 X16.735 Y5.059
G3 X17.036 Y5.355 I0.006 J0.295
G1 X17.024 Y14.897
G3 X16.434 Y14.896 I-0.295
G1 X16.44 Y10.125
X16.741 Y5.354
G3 X17.03 Y5.078 I0.294 J0.019
G1 X17.949 Y5.061
G3 X18.249 Y5.356 I0.005 J0.295
G1 Y14.898
G3 X17.659 I-0.295
G1 Y10.127
X17.954 Y5.356
G3 X18.243 Y5.079 I0.295 J0.018
G1 X19.129 Y5.062
G3 X19.429 Y5.357 I0.006 J0.295
G1 Y14.899
G3 X18.839 I-0.295
G1 Y10.128
X19.134 Y5.357
G3 X19.423 Y5.081 I0.295 J0.018
G1 X20.309 Y5.064
G3 X20.61 Y5.359 I0.006 J0.295
G1 Y14.89
G3 X20.02 I-0.295
G1 Y10.124
X20.315 Y5.359
G3 X20.604 Y5.082 I0.295 J0.018
G1 X21.489 Y5.065
G3 X21.79 Y5.36 I0.006 J0.295
G1 Y14.891
G3 X21.2 I-0.295
G1 Y10.126
X21.495 Y5.36
G3 X21.78 Y5.083 I0.295 J0.018
G1 X22.666 Y5.056
G3 X22.97 Y5.35 I0.009 J0.295
G1 Y14.892
G3 X22.38 I-0.295
G1 Y10.121
X22.675 Y5.35
G3 X22.964 Y5.074 I0.295 J0.018
G1 X23.85 Y5.057
G3 X24.151 Y5.352 I0.006 J0.295
G1 Y14.894
G3 X23.561 I-0.295
G1 Y10.123
X23.856 Y5.352
G3 X24.145 Y5.075 I0.295 J0.018
G1 X25.03 Y5.058
G3 X25.331 Y5.353 I0.006 J0.295
G1 Y14.895
G3 X24.741 I-0.295
G1 Y10.124
X25.036 Y5.353
G3 X25.325 Y5.076 I0.295 J0.018
G1 X26.211 Y5.059
G3 X26.511 Y5.355 I0.006 J0.295
G1 Y14.896
G3 X25.921 I-0.295
G1 Y10.125
X26.216 Y5.355
G3 X26.505 Y5.078 I0.295 J0.018
G1 X27.391 Y5.061
G3 X27.692 Y5.356 I0.006 J0.295
G1 Y14.898
G3 X27.48 Y15.035 I-0.15
G1 X10.237 Y7.288
X10.199 Y7.263
X10.17 Y7.227
X10.153 Y7.185
X10.149 Y7.139
X10.16 Y7.094
X13.239 Y-0.449
G3 X13.528 Y-0.392 I0.139 J0.057
G1 Y4.677
G3 X12.938 I-0.295
G1 Y2.142
X13.233 Y-0.392
G3 X13.515 Y-0.653 I0.293 J0.034
G1 X14.402 Y-0.686
G3 X14.708 Y-0.391 I0.011 J0.295
G1 Y4.645
G3 X14.118 I-0.295
G1 Y2.127
X14.413 Y-0.391
G3 X14.695 Y-0.651 I0.293 J0.034
G1 X15.582 Y-0.684
G3 X15.888 Y-0.389 I0.011 J0.295
G1 Y4.647
G3 X15.298 I-0.295
G1 Y2.129
X15.593 Y-0.389
G3 X15.871 Y-0.65 I0.293 J0.034
G1 X16.733 Y-0.694
G3 X17.043 Y-0.399 I0.015 J0.295
G1 X17.037 Y4.648
G3 X16.447 Y4.647 I-0.295
G1 X16.45 Y2.124
X16.748 Y-0.399
G3 X17.031 Y-0.66 I0.293 J0.035
G1 X17.943 Y-0.693
G3 X18.249 Y-0.398 I0.011 J0.295
G1 Y4.649
G3 X17.659 I-0.295
G1 Y2.126
X17.954 Y-0.398
G3 X18.236 Y-0.658 I0.293 J0.034
G1 X19.123 Y-0.691
G3 X19.429 Y-0.396 I0.011 J0.295
G1 Y4.64
G3 X18.839 I-0.295
G1 Y2.122
X19.134 Y-0.396
G3 X19.416 Y-0.657 I0.293 J0.034
G1 X20.304 Y-0.69
G3 X20.61 Y-0.395 I0.011 J0.295
G1 Y4.641
G3 X20.02 I-0.295
G1 Y2.123
X20.315 Y-0.395
G3 X20.597 Y-0.656 I0.293 J0.034
G1 X21.484 Y-0.689
G3 X21.79 Y-0.394 I0.011 J0.295
G1 Y4.642
G3 X21.2 Y4.643 I-0.295
G1 Y2.124
X21.495 Y-0.394
G3 X21.777 Y-0.654 I0.293 J0.034
G1 X22.664 Y-0.687
G3 X22.97 Y-0.392 I0.011 J0.295
G1 Y4.644
G3 X22.38 I-0.295
G1 Y2.126
X22.675 Y-0.392
G3 X22.957 Y-0.653 I0.293 J0.034
G1 X23.845 Y-0.686
G3 X24.151 Y-0.391 I0.011 J0.295
G1 Y4.645
G3 X23.561 I-0.295
G1 Y2.127
X23.856 Y-0.391
G3 X24.138 Y-0.652 I0.293 J0.034
G1 X25.025 Y-0.684
G3 X25.331 Y-0.39 I0.011 J0.295
G1 Y4.646
G3 X24.741 Y4.647 I-0.295
G1 Y2.128
X25.036 Y-0.39
G3 X25.314 Y-0.65 I0.293 J0.034
G1 X26.202 Y-0.694
G3 X26.511 Y-0.399 I0.015 J0.295
G1 Y4.648
G3 X25.921 I-0.295
G1 Y2.124
X26.216 Y-0.399
G3 X26.498 Y-0.66 I0.293 J0.034
G1 X27.386 Y-0.693
G3 X27.692 Y-0.398 I0.011 J0.295
G1 Y4.649
G3 X27.102 I-0.295
G1 Y2.126
X27.397 Y-0.398
G3 X27.679 Y-0.659 I0.293 J0.034
G1 X28.566 Y-0.691
G3 X28.872 Y-0.397 I0.011 J0.295
G1 Y14.899
G3 X28.282 I-0.295
G1 Y7.251
X28.577 Y-0.397
G3 X28.868 Y-0.68 I0.295 J0.011
G1 X29.754 Y-0.69
G3 X30.052 Y-0.395 I0.003 J0.295
G1 Y14.889
G3 X29.462 I-0.295
G1 Y7.247
X29.757 Y-0.395
G3 X30.049 Y-0.679 I0.295 J0.011
G1 X30.934 Y-0.689
G3 X31.233 Y-0.394 I0.003 J0.295
G1 Y14.891
G3 X30.643 I-0.295
G1 Y7.248
X30.938 Y-0.394
G3 X31.229 Y-0.678 I0.295 J0.011
G1 X32.115 Y-0.688
G3 X32.413 Y-0.393 I0.003 J0.295
G1 Y14.892
G3 X31.823 I-0.295
G1 Y7.25
X32.118 Y-0.393
G3 X32.409 Y-0.676 I0.295 J0.011
G1 X33.295 Y-0.686
G3 X33.593 Y-0.391 I0.003 J0.295
G1 Y14.893
G3 X33.003 I-0.295
G1 Y7.251
X33.298 Y-0.391
G3 X33.59 Y-0.675 I0.295 J0.011
G1 X34.475 Y-0.685
G3 X34.774 Y-0.39 I0.003 J0.295
G1 Y14.895
G3 X34.184 I-0.295
G1 Y7.252
X34.479 Y-0.39
G3 X34.766 Y-0.673 I0.295 J0.011
G1 X35.652 Y-0.694
G3 X35.954 Y-0.399 I0.007 J0.295
G1 Y14.896
G3 X35.364 I-0.295
G1 Y7.248
X35.659 Y-0.399
G3 X35.95 Y-0.683 I0.295 J0.011
G1 X36.836 Y-0.693
G3 X37.134 Y-0.398 I0.003 J0.295
G1 Y14.898
G3 X36.544 I-0.295
G1 Y7.25
X36.839 Y-0.398
G3 X37.131 Y-0.682 I0.295 J0.011
G1 X38.016 Y-0.692
G3 X38.315 Y-0.397 I0.003 J0.295
G1 Y14.899
G3 X37.725 I-0.295
G1 Y7.251
X38.02 Y-0.397
G3 X38.31 Y-0.68 I0.295 J0.011
G1 X39.2 Y-0.695
G3 X39.5 Y-0.4 I0.005 J0.295
G1 Y15.235
G3 X39.221 Y15.419 I-0.2
G1 X0.823 Y-1.07
G2 X0.544 Y-0.886 I-0.079 J0.184
G19 G2 Y-0.586 Z-8.3 K-0.3 F30
G1 Z-8.7
G3 Y-0.286 Z-9 J0.3
G1 Y-0.275
Y14.767 F50
G17 G3 X-0.046 I-0.295
G1 Y7.246
X0.249 Y-0.275
G3 X0.5 Y-0.555 I0.295 J0.012
G1 X1.386 Y-0.687
G3 X1.724 Y-0.395 I0.043 J0.292
G1 Y14.89
G3 X1.134 I-0.295
G1 Y7.248
X1.429 Y-0.395
G3 X1.721 Y-0.678 I0.295 J0.011
G1 X2.606 Y-0.688
G3 X2.905 Y-0.393 I0.003 J0.295
G1 Y14.891
G3 X2.315 I-0.295
G1 Y7.249
X2.61 Y-0.393
G3 X2.901 Y-0.677 I0.295 J0.011
G1 X3.787 Y-0.687
G3 X4.085 Y-0.392 I0.003 J0.295
G1 Y14.893
G3 X3.495 I-0.295
G1 Y7.25
X3.79 Y-0.392
G3 X4.082 Y-0.676 I0.295 J0.011
G1 X4.967 Y-0.686
G3 X5.265 Y-0.391 I0.003 J0.295
G1 Y14.894
G3 X4.675 I-0.295
G1 Y7.252
X4.97 Y-0.391
G3 X5.262 Y-0.674 I0.295 J0.011
G1 X6.147 Y-0.684
G3 X6.446 Y-0.389 I0.003 J0.295
G1 Y14.895
G3 X5.856 I-0.295
G1 Y7.253
X6.151 Y-0.389
G3 X6.439 Y-0.673 I0.295 J0.011
G1 X7.324 Y-0.694
G3 X7.626 Y-0.399 I0.007 J0.295
G1 Y14.897
G3 X7.036 I-0.295
G1 Y7.249
X7.331 Y-0.399
G3 X7.623 Y-0.683 I0.295 J0.011
G1 X8.508 Y-0.693
G3 X8.806 Y-0.398 I0.003 J0.295
G1 Y14.898
G3 X8.216 I-0.295
G1 Y7.25
X8.511 Y-0.398
G3 X8.803 Y-0.681 I0.295 J0.011
G1 X9.688 Y-0.691
G3 X9.987 Y-0.396 I0.003 J0.295
G1 Y14.899
G3 X9.397 I-0.295
G1 Y7.252
X9.692 Y-0.396
G3 X9.983 Y-0.68 I0.295 J0.011
G1 X10.869 Y-0.69
G3 X11.167 Y-0.395 I0.003 J0.295
G1 Y14.89
G3 X10.577 I-0.295
G1 Y7.247
X10.872 Y-0.395
G3 X11.164 Y-0.679 I0.295 J0.011
G1 X12.049 Y-0.689
G3 X12.347 Y-0.393 I0.003 J0.295
G1 Y14.891
G3 X11.757 I-0.295
G1 Y7.249
X12.052 Y-0.393
G3 X12.639 Y-0.427 I0.295 J0.011
G1 X13.528 Y5.329
Y14.892
G3 X12.938 Y14.893 I-0.295
G1 Y10.111
X13.233 Y5.329
G3 X13.529 Y5.052 I0.295 J0.018
G1 X14.415 Y5.057
G3 X14.708 Y5.352 I-0.002 J0.295
G1 Y14.894
G3 X14.118 I-0.295
G1 Y10.123
X14.413 Y5.352
G3 X14.702 Y5.075 I0.295 J0.018
G1 X15.588 Y5.058
G3 X15.888 Y5.353 I0.006 J0.295
G1 Y14.895
G3 X15.298 I-0.295
G1 Y10.124
X15.593 Y5.353
G3 X15.882 Y5.077 I0.295 J0.018
G1 X16.735 Y5.059
G3 X17.036 Y5.355 I0.006 J0.295
G1 X17.024 Y14.897
G3 X16.434 Y14.896 I-0.295
G1 X16.44 Y10.125
X16.741 Y5.354
G3 X17.03 Y5.078 I0.294 J0.019
G1 X17.949 Y5.061
G3 X18.249 Y5.356 I0.005 J0.295
G1 Y14.898
G3 X17.659 I-0.295
G1 Y10.127
X17.954 Y5.356
G3 X18.243 Y5.079 I0.295 J0.018
G1 X19.129 Y5.062
G3 X19.429 Y5.357 I0.006 J0.295
G1 Y14.899
G3 X18.839 I-0.295
G1 Y10.128
X19.134 Y5.357
G3 X19.423 Y5.081 I0.295 J0.018
G1 X20.309 Y5.064
G3 X20.61 Y5.359 I0.006 J0.295
G1 Y14.89
G3 X20.02 I-0.295
G1 Y10.124
X20.315 Y5.359
G3 X20.604 Y5.082 I0.295 J0.018
G1 X21.489 Y5.065
G3 X21.79 Y5.36 I0.006 J0.295
G1 Y14.891
G3 X21.2 I-0.295
G1 Y10.126
X21.495 Y5.36
G3 X21.78 Y5.083 I0.295 J0.018
G1 X22.666 Y5.056
G3 X22.97 Y5.35 I0.009 J0.295
G1 Y14.892
G3 X22.38 I-0.295
G1 Y10.121
X22.675 Y5.35
G3 X22.964 Y5.074 I0.295 J0.018
G1 X23.85 Y5.057
G3 X24.151 Y5.352 I0.006 J0.295
G1 Y14.894
G3 X23.561 I-0.295
G1 Y10.123
X23.856 Y5.352
G3 X24.145 Y5.075 I0.295 J0.018
G1 X25.03 Y5.058
G3 X25.331 Y5.353 I0.006 J0.295
G1 Y14.895
G3 X24.741 I-0.295
G1 Y10.124
X25.036 Y5.353
G3 X25.325 Y5.076 I0.295 J0.018
G1 X26.211 Y5.059
G3 X26.511 Y5.355 I0.006 J0.295
G1 Y14.896
G3 X25.921 I-0.295
G1 Y10.125
X26.216 Y5.355
G3 X26.505 Y5.078 I0.295 J0.018
G1 X27.391 Y5.061
G3 X27.692 Y5.356 I0.006 J0.295
G1 Y14.898
G3 X27.48 Y15.035 I-0.15
G1 X10.237 Y7.288
X10.199 Y7.263
X10.17 Y7.227
X10.153 Y7.185
X10.149 Y7.139
X10.16 Y7.094
X13.239 Y-0.449
G3 X13.528 Y-0.392 I0.139 J0.057
G1 Y4.677
G3 X12.938 I-0.295
G1 Y2.142
X13.233 Y-0.392
G3 X13.515 Y-0.653 I0.293 J0.034
G1 X14.402 Y-0.686
G3 X14.708 Y-0.391 I0.011 J0.295
G1 Y4.645
G3 X14.118 I-0.295
G1 Y2.127
X14.413 Y-0.391
G3 X14.695 Y-0.651 I0.293 J0.034
G1 X15.582 Y-0.684
G3 X15.888 Y-0.389 I0.011 J0.295
G1 Y4.647
G3 X15.298 I-0.295
G1 Y2.129
X15.593 Y-0.389
G3 X15.871 Y-0.65 I0.293 J0.034
G1 X16.733 Y-0.694
G3 X17.043 Y-0.399 I0.015 J0.295
G1 X17.037 Y4.648
G3 X16.447 Y4.647 I-0.295
G1 X16.45 Y2.124
X16.748 Y-0.399
G3 X17.031 Y-0.66 I0.293 J0.035
G1 X17.943 Y-0.693
G3 X18.249 Y-0.398 I0.011 J0.295
G1 Y4.649
G3 X17.659 I-0.295
G1 Y2.126
X17.954 Y-0.398
G3 X18.236 Y-0.658 I0.293 J0.034
G1 X19.123 Y-0.691
G3 X19.429 Y-0.396 I0.011 J0.295
G1 Y4.64
G3 X18.839 I-0.295
G1 Y2.122
X19.134 Y-0.396
G3 X19.416 Y-0.657 I0.293 J0.034
G1 X20.304 Y-0.69
G3 X20.61 Y-0.395 I0.011 J0.295
G1 Y4.641
G3 X20.02 I-0.295
G1 Y2.123
X20.315 Y-0.395
G3 X20.597 Y-0.656 I0.293 J0.034
G1 X21.484 Y-0.689
G3 X21.79 Y-0.394 I0.011 J0.295
G1 Y4.642
G3 X21.2 Y4.643 I-0.295
G1 Y2.124
X21.495 Y-0.394
G3 X21.777 Y-0.654 I0.293 J0.034
G1 X22.664 Y-0.687
G3 X22.97 Y-0.392 I0.011 J0.295
G1 Y4.644
G3 X22.38 I-0.295
G1 Y2.126
X22.675 Y-0.392
G3 X22.957 Y-0.653 I0.293 J0.034
G1 X23.845 Y-0.686
G3 X24.151 Y-0.391 I0.011 J0.295
G1 Y4.645
G3 X23.561 I-0.295
G1 Y2.127
X23.856 Y-0.391
G3 X24.138 Y-0.652 I0.293 J0.034
G1 X25.025 Y-0.684
G3 X25.331 Y-0.39 I0.011 J0.295
G1 Y4.646
G3 X24.741 Y4.647 I-0.295
G1 Y2.128
X25.036 Y-0.39
G3 X25.314 Y-0.65 I0.293 J0.034
G1 X26.202 Y-0.694
G3 X26.511 Y-0.399 I0.015 J0.295
G1 Y4.648
G3 X25.921 I-0.295
G1 Y2.124
X26.216 Y-0.399
G3 X26.498 Y-0.66 I0.293 J0.034
G1 X27.386 Y-0.693
G3 X27.692 Y-0.398 I0.011 J0.295
G1 Y4.649
G3 X27.102 I-0.295
G1 Y2.126
X27.397 Y-0.398
G3 X27.679 Y-0.659 I0.293 J0.034
G1 X28.566 Y-0.691
G3 X28.872 Y-0.397 I0.011 J0.295
G1 Y14.899
G3 X28.282 I-0.295
G1 Y7.251
X28.577 Y-0.397
G3 X28.868 Y-0.68 I0.295 J0.011
G1 X29.754 Y-0.69
G3 X30.052 Y-0.395 I0.003 J0.295
G1 Y14.889
G3 X29.462 I-0.295
G1 Y7.247
X29.757 Y-0.395
G3 X30.049 Y-0.679 I0.295 J0.011
G1 X30.934 Y-0.689
G3 X31.233 Y-0.394 I0.003 J0.295
G1 Y14.891
G3 X30.643 I-0.295
G1 Y7.248
X30.938 Y-0.394
G3 X31.229 Y-0.678 I0.295 J0.011
G1 X32.115 Y-0.688
G3 X32.413 Y-0.393 I0.003 J0.295
G1 Y14.892
G3 X31.823 I-0.295
G1 Y7.25
X32.118 Y-0.393
G3 X32.409 Y-0.676 I0.295 J0.011
G1 X33.295 Y-0.686
G3 X33.593 Y-0.391 I0.003 J0.295
G1 Y14.893
G3 X33.003 I-0.295
G1 Y7.251
X33.298 Y-0.391
G3 X33.59 Y-0.675 I0.295 J0.011
G1 X34.475 Y-0.685
G3 X34.774 Y-0.39 I0.003 J0.295
G1 Y14.895
G3 X34.184 I-0.295
G1 Y7.252
X34.479 Y-0.39
G3 X34.766 Y-0.673 I0.295 J0.011
G1 X35.652 Y-0.694
G3 X35.954 Y-0.399 I0.007 J0.295
G1 Y14.896
G3 X35.364 I-0.295
G1 Y7.248
X35.659 Y-0.399
G3 X35.95 Y-0.683 I0.295 J0.011
G1 X36.836 Y-0.693
G3 X37.134 Y-0.398 I0.003 J0.295
G1 Y14.898
G3 X36.544 I-0.295
G1 Y7.25
X36.839 Y-0.398
G3 X37.131 Y-0.682 I0.295 J0.011
G1 X38.016 Y-0.692
G3 X38.315 Y-0.397 I0.003 J0.295
G1 Y14.899
G3 X37.725 I-0.295
G1 Y7.251
X38.02 Y-0.397
G3 X38.31 Y-0.68 I0.295 J0.011
G1 X39.2 Y-0.695
G3 X39.5 Y-0.4 I0.005 J0.295
G1 Y15.235
G3 X39.221 Y15.419 I-0.2
G1 X0.823 Y-1.07
G2 X0.544 Y-0.886 I-0.079 J0.184
G19 G2 Y-0.586 Z-9.3 K-0.3 F30
G1 Z-9.7
G3 Y-0.286 Z-10 J0.3
G1 Y-0.275
Y14.767 F50
G17 G3 X-0.046 I-0.295
G1 Y7.246
X0.249 Y-0.275
G3 X0.5 Y-0.555 I0.295 J0.012
G1 X1.386 Y-0.687
G3 X1.724 Y-0.395 I0.043 J0.292
G1 Y14.89
G3 X1.134 I-0.295
G1 Y7.248
X1.429 Y-0.395
G3 X1.721 Y-0.678 I0.295 J0.011
G1 X2.606 Y-0.688
G3 X2.905 Y-0.393 I0.003 J0.295
G1 Y14.891
G3 X2.315 I-0.295
G1 Y7.249
X2.61 Y-0.393
G3 X2.901 Y-0.677 I0.295 J0.011
G1 X3.787 Y-0.687
G3 X4.085 Y-0.392 I0.003 J0.295
G1 Y14.893
G3 X3.495 I-0.295
G1 Y7.25
X3.79 Y-0.392
G3 X4.082 Y-0.676 I0.295 J0.011
G1 X4.967 Y-0.686
G3 X5.265 Y-0.391 I0.003 J0.295
G1 Y14.894
G3 X4.675 I-0.295
G1 Y7.252
X4.97 Y-0.391
G3 X5.262 Y-0.674 I0.295 J0.011
G1 X6.147 Y-0.684
G3 X6.446 Y-0.389 I0.003 J0.295
G1 Y14.895
G3 X5.856 I-0.295
G1 Y7.253
X6.151 Y-0.389
G3 X6.439 Y-0.673 I0.295 J0.011
G1 X7.324 Y-0.694
G3 X7.626 Y-0.399 I0.007 J0.295
G1 Y14.897
G3 X7.036 I-0.295
G1 Y7.249
X7.331 Y-0.399
G3 X7.623 Y-0.683 I0.295 J0.011
G1 X8.508 Y-0.693
G3 X8.806 Y-0.398 I0.003 J0.295
G1 Y14.898
G3 X8.216 I-0.295
G1 Y7.25
X8.511 Y-0.398
G3 X8.803 Y-0.681 I0.295 J0.011
G1 X9.688 Y-0.691
G3 X9.987 Y-0.396 I0.003 J0.295
G1 Y14.899
G3 X9.397 I-0.295
G1 Y7.252
X9.692 Y-0.396
G3 X9.983 Y-0.68 I0.295 J0.011
G1 X10.869 Y-0.69
G3 X11.167 Y-0.395 I0.003 J0.295
G1 Y14.89
G3 X10.577 I-0.295
G1 Y7.247
X10.872 Y-0.395
G3 X11.164 Y-0.679 I0.295 J0.011
G1 X12.049 Y-0.689
G3 X12.347 Y-0.393 I0.003 J0.295
G1 Y14.891
G3 X11.757 I-0.295
G1 Y7.249
X12.052 Y-0.393
G3 X12.639 Y-0.427 I0.295 J0.011
G1 X13.528 Y5.329
Y14.892
G3 X12.938 Y14.893 I-0.295
G1 Y10.111
X13.233 Y5.329
G3 X13.529 Y5.052 I0.295 J0.018
G1 X14.415 Y5.057
G3 X14.708 Y5.352 I-0.002 J0.295
G1 Y14.894
G3 X14.118 I-0.295
G1 Y10.123
X14.413 Y5.352
G3 X14.702 Y5.075 I0.295 J0.018
G1 X15.588 Y5.058
G3 X15.888 Y5.353 I0.006 J0.295
G1 Y14.895
G3 X15.298 I-0.295
G1 Y10.124
X15.593 Y5.353
G3 X15.882 Y5.077 I0.295 J0.018
G1 X16.735 Y5.059
G3 X17.036 Y5.355 I0.006 J0.295
G1 X17.024 Y14.897
G3 X16.434 Y14.896 I-0.295
G1 X16.44 Y10.125
X16.741 Y5.354
G3 X17.03 Y5.078 I0.294 J0.019
G1 X17.949 Y5.061
G3 X18.249 Y5.356 I0.005 J0.295
G1 Y14.898
G3 X17.659 I-0.295
G1 Y10.127
X17.954 Y5.356
G3 X18.243 Y5.079 I0.295 J0.018
G1 X19.129 Y5.062
G3 X19.429 Y5.357 I0.006 J0.295
G1 Y14.899
G3 X18.839 I-0.295
G1 Y10.128
X19.134 Y5.357
G3 X19.423 Y5.081 I0.295 J0.018
G1 X20.309 Y5.064
G3 X20.61 Y5.359 I0.006 J0.295
G1 Y14.89
G3 X20.02 I-0.295
G1 Y10.124
X20.315 Y5.359
G3 X20.604 Y5.082 I0.295 J0.018
G1 X21.489 Y5.065
G3 X21.79 Y5.36 I0.006 J0.295
G1 Y14.891
G3 X21.2 I-0.295
G1 Y10.126
X21.495 Y5.36
G3 X21.78 Y5.083 I0.295 J0.018
G1 X22.666 Y5.056
G3 X22.97 Y5.35 I0.009 J0.295
G1 Y14.892
G3 X22.38 I-0.295
G1 Y10.121
X22.675 Y5.35
G3 X22.964 Y5.074 I0.295 J0.018
G1 X23.85 Y5.057
G3 X24.151 Y5.352 I0.006 J0.295
G1 Y14.894
G3 X23.561 I-0.295
G1 Y10.123
X23.856 Y5.352
G3 X24.145 Y5.075 I0.295 J0.018
G1 X25.03 Y5.058
G3 X25.331 Y5.353 I0.006 J0.295
G1 Y14.895
G3 X24.741 I-0.295
G1 Y10.124
X25.036 Y5.353
G3 X25.325 Y5.076 I0.295 J0.018
G1 X26.211 Y5.059
G3 X26.511 Y5.355 I0.006 J0.295
G1 Y14.896
G3 X25.921 I-0.295
G1 Y10.125
X26.216 Y5.355
G3 X26.505 Y5.078 I0.295 J0.018
G1 X27.391 Y5.061
G3 X27.692 Y5.356 I0.006 J0.295
G1 Y14.898
G3 X27.48 Y15.035 I-0.15
G1 X10.237 Y7.288
X10.199 Y7.263
X10.17 Y7.227
X10.153 Y7.185
X10.149 Y7.139
X10.16 Y7.094
X13.239 Y-0.449
G3 X13.528 Y-0.392 I0.139 J0.057
G1 Y4.677
G3 X12.938 I-0.295
G1 Y2.142
X13.233 Y-0.392
G3 X13.515 Y-0.653 I0.293 J0.034
G1 X14.402 Y-0.686
G3 X14.708 Y-0.391 I0.011 J0.295
G1 Y4.645
G3 X14.118 I-0.295
G1 Y2.127
X14.413 Y-0.391
G3 X14.695 Y-0.651 I0.293 J0.034
G1 X15.582 Y-0.684
G3 X15.888 Y-0.389 I0.011 J0.295
G1 Y4.647
G3 X15.298 I-0.295
G1 Y2.129
X15.593 Y-0.389
G3 X15.871 Y-0.65 I0.293 J0.034
G1 X16.733 Y-0.694
G3 X17.043 Y-0.399 I0.015 J0.295
G1 X17.037 Y4.648
G3 X16.447 Y4.647 I-0.295
G1 X16.45 Y2.124
X16.748 Y-0.399
G3 X17.031 Y-0.66 I0.293 J0.035
G1 X17.943 Y-0.693
G3 X18.249 Y-0.398 I0.011 J0.295
G1 Y4.649
G3 X17.659 I-0.295
G1 Y2.126
X17.954 Y-0.398
G3 X18.236 Y-0.658 I0.293 J0.034
G1 X19.123 Y-0.691
G3 X19.429 Y-0.396 I0.011 J0.295
G1 Y4.64
G3 X18.839 I-0.295
G1 Y2.122
X19.134 Y-0.396
G3 X19.416 Y-0.657 I0.293 J0.034
G1 X20.304 Y-0.69
G3 X20.61 Y-0.395 I0.011 J0.295
G1 Y4.641
G3 X20.02 I-0.295
G1 Y2.123
X20.315 Y-0.395
G3 X20.597 Y-0.656 I0.293 J0.034
G1 X21.484 Y-0.689
G3 X21.79 Y-0.394 I0.011 J0.295
G1 Y4.642
G3 X21.2 Y4.643 I-0.295
G1 Y2.124
X21.495 Y-0.394
G3 X21.777 Y-0.654 I0.293 J0.034
G1 X22.664 Y-0.687
G3 X22.97 Y-0.392 I0.011 J0.295
G1 Y4.644
G3 X22.38 I-0.295
G1 Y2.126
X22.675 Y-0.392
G3 X22.957 Y-0.653 I0.293 J0.034
G1 X23.845 Y-0.686
G3 X24.151 Y-0.391 I0.011 J0.295
G1 Y4.645
G3 X23.561 I-0.295
G1 Y2.127
X23.856 Y-0.391
G3 X24.138 Y-0.652 I0.293 J0.034
G1 X25.025 Y-0.684
G3 X25.331 Y-0.39 I0.011 J0.295
G1 Y4.646
G3 X24.741 Y4.647 I-0.295
G1 Y2.128
X25.036 Y-0.39
G3 X25.314 Y-0.65 I0.293 J0.034
G1 X26.202 Y-0.694
G3 X26.511 Y-0.399 I0.015 J0.295
G1 Y4.648
G3 X25.921 I-0.295
G1 Y2.124
X26.216 Y-0.399
G3 X26.498 Y-0.66 I0.293 J0.034
G1 X27.386 Y-0.693
G3 X27.692 Y-0.398 I0.011 J0.295
G1 Y4.649
G3 X27.102 I-0.295
G1 Y2.126
X27.397 Y-0.398
G3 X27.679 Y-0.659 I0.293 J0.034
G1 X28.566 Y-0.691
G3 X28.872 Y-0.397 I0.011 J0.295
G1 Y14.899
G3 X28.282 I-0.295
G1 Y7.251
X28.577 Y-0.397
G3 X28.868 Y-0.68 I0.295 J0.011
G1 X29.754 Y-0.69
G3 X30.052 Y-0.395 I0.003 J0.295
G1 Y14.889
G3 X29.462 I-0.295
G1 Y7.247
X29.757 Y-0.395
G3 X30.049 Y-0.679 I0.295 J0.011
G1 X30.934 Y-0.689
G3 X31.233 Y-0.394 I0.003 J0.295
G1 Y14.891
G3 X30.643 I-0.295
G1 Y7.248
X30.938 Y-0.394
G3 X31.229 Y-0.678 I0.295 J0.011
G1 X32.115 Y-0.688
G3 X32.413 Y-0.393 I0.003 J0.295
G1 Y14.892
G3 X31.823 I-0.295
G1 Y7.25
X32.118 Y-0.393
G3 X32.409 Y-0.676 I0.295 J0.011
G1 X33.295 Y-0.686
G3 X33.593 Y-0.391 I0.003 J0.295
G1 Y14.893
G3 X33.003 I-0.295
G1 Y7.251
X33.298 Y-0.391
G3 X33.59 Y-0.675 I0.295 J0.011
G1 X34.475 Y-0.685
G3 X34.774 Y-0.39 I0.003 J0.295
G1 Y14.895
G3 X34.184 I-0.295
G1 Y7.252
X34.479 Y-0.39
G3 X34.766 Y-0.673 I0.295 J0.011
G1 X35.652 Y-0.694
G3 X35.954 Y-0.399 I0.007 J0.295
G1 Y14.896
G3 X35.364 I-0.295
G1 Y7.248
X35.659 Y-0.399
G3 X35.95 Y-0.683 I0.295 J0.011
G1 X36.836 Y-0.693
G3 X37.134 Y-0.398 I0.003 J0.295
G1 Y14.898
G3 X36.544 I-0.295
G1 Y7.25
X36.839 Y-0.398
G3 X37.131 Y-0.682 I0.295 J0.011
G1 X38.016 Y-0.692
G3 X38.315 Y-0.397 I0.003 J0.295
G1 Y14.899
G3 X37.725 I-0.295
G1 Y7.251
X38.02 Y-0.397
G3 X38.31 Y-0.68 I0.295 J0.011
G1 X39.2 Y-0.695
G3 X39.5 Y-0.4 I0.005 J0.295
G1 Y15.235
G3 X39.221 Y15.419 I-0.2
G1 X0.823 Y-1.07
G2 X0.544 Y-0.886 I-0.079 J0.184
G19 G2 Y-0.586 Z-10.3 K-0.3 F30
G1 Z-10.7
G3 Y-0.286 Z-11 J0.3
G1 Y-0.275
Y14.767 F50
G17 G3 X-0.046 I-0.295
G1 Y7.246
X0.249 Y-0.275
G3 X0.5 Y-0.555 I0.295 J0.012
G1 X1.386 Y-0.687
G3 X1.724 Y-0.395 I0.043 J0.292
G1 Y14.89
G3 X1.134 I-0.295
G1 Y7.248
X1.429 Y-0.395
G3 X1.721 Y-0.678 I0.295 J0.011
G1 X2.606 Y-0.688
G3 X2.905 Y-0.393 I0.003 J0.295
G1 Y14.891
G3 X2.315 I-0.295
G1 Y7.249
X2.61 Y-0.393
G3 X2.901 Y-0.677 I0.295 J0.011
G1 X3.787 Y-0.687
G3 X4.085 Y-0.392 I0.003 J0.295
G1 Y14.893
G3 X3.495 I-0.295
G1 Y7.25
X3.79 Y-0.392
G3 X4.082 Y-0.676 I0.295 J0.011
G1 X4.967 Y-0.686
G3 X5.265 Y-0.391 I0.003 J0.295
G1 Y14.894
G3 X4.675 I-0.295
G1 Y7.252
X4.97 Y-0.391
G3 X5.262 Y-0.674 I0.295 J0.011
G1 X6.147 Y-0.684
G3 X6.446 Y-0.389 I0.003 J0.295
G1 Y14.895
G3 X5.856 I-0.295
G1 Y7.253
X6.151 Y-0.389
G3 X6.439 Y-0.673 I0.295 J0.011
G1 X7.324 Y-0.694
G3 X7.626 Y-0.399 I0.007 J0.295
G1 Y14.897
G3 X7.036 I-0.295
G1 Y7.249
X7.331 Y-0.399
G3 X7.623 Y-0.683 I0.295 J0.011
G1 X8.508 Y-0.693
G3 X8.806 Y-0.398 I0.003 J0.295
G1 Y14.898
G3 X8.216 I-0.295
G1 Y7.25
X8.511 Y-0.398
G3 X8.803 Y-0.681 I0.295 J0.011
G1 X9.688 Y-0.691
G3 X9.987 Y-0.396 I0.003 J0.295
G1 Y14.899
G3 X9.397 I-0.295
G1 Y7.252
X9.692 Y-0.396
G3 X9.983 Y-0.68 I0.295 J0.011
G1 X10.869 Y-0.69
G3 X11.167 Y-0.395 I0.003 J0.295
G1 Y14.89
G3 X10.577 I-0.295
G1 Y7.247
X10.872 Y-0.395
G3 X11.164 Y-0.679 I0.295 J0.011
G1 X12.049 Y-0.689
G3 X12.347 Y-0.393 I0.003 J0.295
G1 Y14.891
G3 X11.757 I-0.295
G1 Y7.249
X12.052 Y-0.393
G3 X12.639 Y-0.427 I0.295 J0.011
G1 X13.528 Y5.329
Y14.892
G3 X12.938 Y14.893 I-0.295
G1 Y10.111
X13.233 Y5.329
G3 X13.529 Y5.052 I0.295 J0.018
G1 X14.415 Y5.057
G3 X14.708 Y5.352 I-0.002 J0.295
G1 Y14.894
G3 X14.118 I-0.295
G1 Y10.123
X14.413 Y5.352
G3 X14.702 Y5.075 I0.295 J0.018
G1 X15.588 Y5.058
G3 X15.888 Y5.353 I0.006 J0.295
G1 Y14.895
G3 X15.298 I-0.295
G1 Y10.124
X15.593 Y5.353
G3 X15.882 Y5.077 I0.295 J0.018
G1 X16.735 Y5.059
G3 X17.036 Y5.355 I0.006 J0.295
G1 X17.024 Y14.897
G3 X16.434 Y14.896 I-0.295
G1 X16.44 Y10.125
X16.741 Y5.354
G3 X17.03 Y5.078 I0.294 J0.019
G1 X17.949 Y5.061
G3 X18.249 Y5.356 I0.005 J0.295
G1 Y14.898
G3 X17.659 I-0.295
G1 Y10.127
X17.954 Y5.356
G3 X18.243 Y5.079 I0.295 J0.018
G1 X19.129 Y5.062
G3 X19.429 Y5.357 I0.006 J0.295
G1 Y14.899
G3 X18.839 I-0.295
G1 Y10.128
X19.134 Y5.357
G3 X19.423 Y5.081 I0.295 J0.018
G1 X20.309 Y5.064
G3 X20.61 Y5.359 I0.006 J0.295
G1 Y14.89
G3 X20.02 I-0.295
G1 Y10.124
X20.315 Y5.359
G3 X20.604 Y5.082 I0.295 J0.018
G1 X21.489 Y5.065
G3 X21.79 Y5.36 I0.006 J0.295
G1 Y14.891
G3 X21.2 I-0.295
G1 Y10.126
X21.495 Y5.36
G3 X21.78 Y5.083 I0.295 J0.018
G1 X22.666 Y5.056
G3 X22.97 Y5.35 I0.009 J0.295
G1 Y14.892
G3 X22.38 I-0.295
G1 Y10.121
X22.675 Y5.35
G3 X22.964 Y5.074 I0.295 J0.018
G1 X23.85 Y5.057
G3 X24.151 Y5.352 I0.006 J0.295
G1 Y14.894
G3 X23.561 I-0.295
G1 Y10.123
X23.856 Y5.352
G3 X24.145 Y5.075 I0.295 J0.018
G1 X25.03 Y5.058
G3 X25.331 Y5.353 I0.006 J0.295
G1 Y14.895
G3 X24.741 I-0.295
G1 Y10.124
X25.036 Y5.353
G3 X25.325 Y5.076 I0.295 J0.018
G1 X26.211 Y5.059
G3 X26.511 Y5.355 I0.006 J0.295
G1 Y14.896
G3 X25.921 I-0.295
G1 Y10.125
X26.216 Y5.355
G3 X26.505 Y5.078 I0.295 J0.018
G1 X27.391 Y5.061
G3 X27.692 Y5.356 I0.006 J0.295
G1 Y14.898
G3 X27.48 Y15.035 I-0.15
G1 X10.237 Y7.288
X10.199 Y7.263
X10.17 Y7.227
X10.153 Y7.185
X10.149 Y7.139
X10.16 Y7.094
X13.239 Y-0.449
G3 X13.528 Y-0.392 I0.139 J0.057
G1 Y4.677
G3 X12.938 I-0.295
G1 Y2.142
X13.233 Y-0.392
G3 X13.515 Y-0.653 I0.293 J0.034
G1 X14.402 Y-0.686
G3 X14.708 Y-0.391 I0.011 J0.295
G1 Y4.645
G3 X14.118 I-0.295
G1 Y2.127
X14.413 Y-0.391
G3 X14.695 Y-0.651 I0.293 J0.034
G1 X15.582 Y-0.684
G3 X15.888 Y-0.389 I0.011 J0.295
G1 Y4.647
G3 X15.298 I-0.295
G1 Y2.129
X15.593 Y-0.389
G3 X15.871 Y-0.65 I0.293 J0.034
G1 X16.733 Y-0.694
G3 X17.043 Y-0.399 I0.015 J0.295
G1 X17.037 Y4.648
G3 X16.447 Y4.647 I-0.295
G1 X16.45 Y2.124
X16.748 Y-0.399
G3 X17.031 Y-0.66 I0.293 J0.035
G1 X17.943 Y-0.693
G3 X18.249 Y-0.398 I0.011 J0.295
G1 Y4.649
G3 X17.659 I-0.295
G1 Y2.126
X17.954 Y-0.398
G3 X18.236 Y-0.658 I0.293 J0.034
G1 X19.123 Y-0.691
G3 X19.429 Y-0.396 I0.011 J0.295
G1 Y4.64
G3 X18.839 I-0.295
G1 Y2.122
X19.134 Y-0.396
G3 X19.416 Y-0.657 I0.293 J0.034
G1 X20.304 Y-0.69
G3 X20.61 Y-0.395 I0.011 J0.295
G1 Y4.641
G3 X20.02 I-0.295
G1 Y2.123
X20.315 Y-0.395
G3 X20.597 Y-0.656 I0.293 J0.034
G1 X21.484 Y-0.689
G3 X21.79 Y-0.394 I0.011 J0.295
G1 Y4.642
G3 X21.2 Y4.643 I-0.295
G1 Y2.124
X21.495 Y-0.394
G3 X21.777 Y-0.654 I0.293 J0.034
G1 X22.664 Y-0.687
G3 X22.97 Y-0.392 I0.011 J0.295
G1 Y4.644
G3 X22.38 I-0.295
G1 Y2.126
X22.675 Y-0.392
G3 X22.957 Y-0.653 I0.293 J0.034
G1 X23.845 Y-0.686
G3 X24.151 Y-0.391 I0.011 J0.295
G1 Y4.645
G3 X23.561 I-0.295
G1 Y2.127
X23.856 Y-0.391
G3 X24.138 Y-0.652 I0.293 J0.034
G1 X25.025 Y-0.684
G3 X25.331 Y-0.39 I0.011 J0.295
G1 Y4.646
G3 X24.741 Y4.647 I-0.295
G1 Y2.128
X25.036 Y-0.39
G3 X25.314 Y-0.65 I0.293 J0.034
G1 X26.202 Y-0.694
G3 X26.511 Y-0.399 I0.015 J0.295
G1 Y4.648
G3 X25.921 I-0.295
G1 Y2.124
X26.216 Y-0.399
G3 X26.498 Y-0.66 I0.293 J0.034
G1 X27.386 Y-0.693
G3 X27.692 Y-0.398 I0.011 J0.295
G1 Y4.649
G3 X27.102 I-0.295
G1 Y2.126
X27.397 Y-0.398
G3 X27.679 Y-0.659 I0.293 J0.034
G1 X28.566 Y-0.691
G3 X28.872 Y-0.397 I0.011 J0.295
G1 Y14.899
G3 X28.282 I-0.295
G1 Y7.251
X28.577 Y-0.397
G3 X28.868 Y-0.68 I0.295 J0.011
G1 X29.754 Y-0.69
G3 X30.052 Y-0.395 I0.003 J0.295
G1 Y14.889
G3 X29.462 I-0.295
G1 Y7.247
X29.757 Y-0.395
G3 X30.049 Y-0.679 I0.295 J0.011
G1 X30.934 Y-0.689
G3 X31.233 Y-0.394 I0.003 J0.295
G1 Y14.891
G3 X30.643 I-0.295
G1 Y7.248
X30.938 Y-0.394
G3 X31.229 Y-0.678 I0.295 J0.011
G1 X32.115 Y-0.688
G3 X32.413 Y-0.393 I0.003 J0.295
G1 Y14.892
G3 X31.823 I-0.295
G1 Y7.25
X32.118 Y-0.393
G3 X32.409 Y-0.676 I0.295 J0.011
G1 X33.295 Y-0.686
G3 X33.593 Y-0.391 I0.003 J0.295
G1 Y14.893
G3 X33.003 I-0.295
G1 Y7.251
X33.298 Y-0.391
G3 X33.59 Y-0.675 I0.295 J0.011
G1 X34.475 Y-0.685
G3 X34.774 Y-0.39 I0.003 J0.295
G1 Y14.895
G3 X34.184 I-0.295
G1 Y7.252
X34.479 Y-0.39
G3 X34.766 Y-0.673 I0.295 J0.011
G1 X35.652 Y-0.694
G3 X35.954 Y-0.399 I0.007 J0.295
G1 Y14.896
G3 X35.364 I-0.295
G1 Y7.248
X35.659 Y-0.399
G3 X35.95 Y-0.683 I0.295 J0.011
G1 X36.836 Y-0.693
G3 X37.134 Y-0.398 I0.003 J0.295
G1 Y14.898
G3 X36.544 I-0.295
G1 Y7.25
X36.839 Y-0.398
G3 X37.131 Y-0.682 I0.295 J0.011
G1 X38.016 Y-0.692
G3 X38.315 Y-0.397 I0.003 J0.295
G1 Y14.899
G3 X37.725 I-0.295
G1 Y7.251
X38.02 Y-0.397
G3 X38.31 Y-0.68 I0.295 J0.011
G1 X39.2 Y-0.695
G3 X39.5 Y-0.4 I0.005 J0.295
G1 Y15.235
X39.496 Y15.282 F100
X39.262 Y16.764
X39.251 Y16.83 Z-10.992
X39.241 Y16.892 Z-10.97
X39.232 Y16.949 Z-10.935
X39.225 Y16.996 Z-10.887
X39.219 Y17.031 Z-10.83
X39.216 Y17.053 Z-10.767
X39.215 Y17.06 Z-10.7
G0 Z2

(2D Pocket3)
X28.5 Y5.25
G1 Z2 F33
Z-1
X13.5 F50
G3 Y4.75 J-0.25
G1 X28.5
G3 Y5.25 J0.25
G1 Z-2 F33
X13.5 F50
G3 Y4.75 J-0.25
G1 X28.5
G3 Y5.25 J0.25
G1 Z-3 F33
X13.5 F50
G3 Y4.75 J-0.25
G1 X28.5
G3 Y5.25 J0.25
G1 Z-4 F33
X13.5 F50
G3 Y4.75 J-0.25
G1 X28.5
G3 Y5.25 J0.25
G1 Z-5 F33
X13.5 F50
G3 Y4.75 J-0.25
G1 X28.5
G3 Y5.25 J0.25
G1 Z-6 F33
X13.5 F50
G3 Y4.75 J-0.25
G1 X28.5
G3 Y5.25 J0.25
G1 Z-7 F33
X13.5 F50
G3 Y4.75 J-0.25
G1 X28.5
G3 Y5.25 J0.25
G1 Z-8 F33
X13.5 F50
G3 Y4.75 J-0.25
G1 X28.5
G3 Y5.25 J0.25
G1 Z-9 F33
X13.5 F50
G3 Y4.75 J-0.25
G1 X28.5
G3 Y5.25 J0.25
G1 Z-10 F33
X13.5 F50
G3 Y4.75 J-0.25
G1 X28.5
G3 Y5.25 J0.25
G1 Z-11 F33
X13.5 F50
G3 Y4.75 J-0.25
G1 X28.5
G3 Y5.25 J0.25
G1 Z-12 F33
X13.5 F50
G3 Y4.75 J-0.25
G1 X28.5
G3 Y5.25 J0.25
G1 Z-13 F33
X13.5 F50
G3 Y4.75 J-0.25
G1 X28.5
G3 Y5.25 J0.25
G1 Z-14 F33
X13.5 F50
G3 Y4.75 J-0.25
G1 X28.5
G3 Y5.25 J0.25
G1 Z-15 F33
X13.5 F50
G3 Y4.75 J-0.25
G1 X28.5
G3 Y5.25 J0.25
G1 Z-16 F33
X13.5 F50
G3 Y4.75 J-0.25
G1 X28.5
G3 Y5.25 J0.25
G1 Z-17 F33
X13.5 F50
G3 Y4.75 J-0.25
G1 X28.5
G3 Y5.25 J0.25
G1 Z-18 F33
X13.5 F50
G3 Y4.75 J-0.25
G1 X28.5
G3 Y5.25 J0.25
G1 Z-19 F33
X13.5 F50
G3 Y4.75 J-0.25
G1 X28.5
G3 Y5.25 J0.25
G18 G3 X28.2 Z-18.7 K0.3 F100
G0 Z2
G17

(2D Contour1)
G0 X0.7 Y15.9
G1 Z2 F33
Z-0.7
G19 G2 Y15.6 Z-1 J-0.3
G1 Y15.3 F30
G17 G3 X1 Y15 I0.3
G1 X39 F60
G3 X39.5 Y15.5 J0.5
G1 Y26
G2 X41 Y27.5 I1.5
G1 X51
G2 X52.5 Y26 J-1.5
G1 Y1
G2 X51 Y-0.5 I-1.5
G1 X1
G2 X-0.5 Y1 J1.5
G1 Y13.5
G2 X1 Y15 I1.5
G3 X1.3 Y15.3 J0.3 F100
G1 Y15.6
G19 G3 Y15.9 Z-0.7 K0.3
G1 X0.7 F60
Z-1.7 F33
G2 Y15.6 Z-2 J-0.3
G1 Y15.3 F30
G17 G3 X1 Y15 I0.3
G1 X39 F60
G3 X39.5 Y15.5 J0.5
G1 Y26
G2 X41 Y27.5 I1.5
G1 X51
G2 X52.5 Y26 J-1.5
G1 Y1
G2 X51 Y-0.5 I-1.5
G1 X1
G2 X-0.5 Y1 J1.5
G1 Y13.5
G2 X1 Y15 I1.5
G3 X1.3 Y15.3 J0.3 F100
G1 Y15.6
G19 G3 Y15.9 Z-1.7 K0.3
G1 X0.7 F60
Z-2.7 F33
G2 Y15.6 Z-3 J-0.3
G1 Y15.3 F30
G17 G3 X1 Y15 I0.3
G1 X39 F60
G3 X39.5 Y15.5 J0.5
G1 Y26
G2 X41 Y27.5 I1.5
G1 X51
G2 X52.5 Y26 J-1.5
G1 Y1
G2 X51 Y-0.5 I-1.5
G1 X1
G2 X-0.5 Y1 J1.5
G1 Y13.5
G2 X1 Y15 I1.5
G3 X1.3 Y15.3 J0.3 F100
G1 Y15.6
G19 G3 Y15.9 Z-2.7 K0.3
G1 X0.7 F60
Z-3.7 F33
G2 Y15.6 Z-4 J-0.3
G1 Y15.3 F30
G17 G3 X1 Y15 I0.3
G1 X39 F60
G3 X39.5 Y15.5 J0.5
G1 Y26
G2 X41 Y27.5 I1.5
G1 X51
G2 X52.5 Y26 J-1.5
G1 Y1
G2 X51 Y-0.5 I-1.5
G1 X1
G2 X-0.5 Y1 J1.5
G1 Y13.5
G2 X1 Y15 I1.5
G3 X1.3 Y15.3 J0.3 F100
G1 Y15.6
G19 G3 Y15.9 Z-3.7 K0.3
G1 X0.7 F60
Z-4.7 F33
G2 Y15.6 Z-5 J-0.3
G1 Y15.3 F30
G17 G3 X1 Y15 I0.3
G1 X39 F60
G3 X39.5 Y15.5 J0.5
G1 Y26
G2 X41 Y27.5 I1.5
G1 X51
G2 X52.5 Y26 J-1.5
G1 Y1
G2 X51 Y-0.5 I-1.5
G1 X1
G2 X-0.5 Y1 J1.5
G1 Y13.5
G2 X1 Y15 I1.5
G3 X1.3 Y15.3 J0.3 F100
G1 Y15.6
G19 G3 Y15.9 Z-4.7 K0.3
G1 X0.7 F60
Z-5.7 F33
G2 Y15.6 Z-6 J-0.3
G1 Y15.3 F30
G17 G3 X1 Y15 I0.3
G1 X39 F60
G3 X39.5 Y15.5 J0.5
G1 Y26
G2 X41 Y27.5 I1.5
G1 X51
G2 X52.5 Y26 J-1.5
G1 Y1
G2 X51 Y-0.5 I-1.5
G1 X1
G2 X-0.5 Y1 J1.5
G1 Y13.5
G2 X1 Y15 I1.5
G3 X1.3 Y15.3 J0.3 F100
G1 Y15.6
G19 G3 Y15.9 Z-5.7 K0.3
G1 X0.7 F60
Z-6.7 F33
G2 Y15.6 Z-7 J-0.3
G1 Y15.3 F30
G17 G3 X1 Y15 I0.3
G1 X39 F60
G3 X39.5 Y15.5 J0.5
G1 Y26
G2 X41 Y27.5 I1.5
G1 X51
G2 X52.5 Y26 J-1.5
G1 Y1
G2 X51 Y-0.5 I-1.5
G1 X1
G2 X-0.5 Y1 J1.5
G1 Y13.5
G2 X1 Y15 I1.5
G3 X1.3 Y15.3 J0.3 F100
G1 Y15.6
G19 G3 Y15.9 Z-6.7 K0.3
G1 X0.7 F60
Z-7.7 F33
G2 Y15.6 Z-8 J-0.3
G1 Y15.3 F30
G17 G3 X1 Y15 I0.3
G1 X39 F60
G3 X39.5 Y15.5 J0.5
G1 Y26
G2 X41 Y27.5 I1.5
G1 X51
G2 X52.5 Y26 J-1.5
G1 Y1
G2 X51 Y-0.5 I-1.5
G1 X1
G2 X-0.5 Y1 J1.5
G1 Y13.5
G2 X1 Y15 I1.5
G3 X1.3 Y15.3 J0.3 F100
G1 Y15.6
G19 G3 Y15.9 Z-7.7 K0.3
G1 X0.7 F60
Z-8.7 F33
G2 Y15.6 Z-9 J-0.3
G1 Y15.3 F30
G17 G3 X1 Y15 I0.3
G1 X39 F60
G3 X39.5 Y15.5 J0.5
G1 Y26
G2 X41 Y27.5 I1.5
G1 X51
G2 X52.5 Y26 J-1.5
G1 Y1
G2 X51 Y-0.5 I-1.5
G1 X1
G2 X-0.5 Y1 J1.5
G1 Y13.5
G2 X1 Y15 I1.5
G3 X1.3 Y15.3 J0.3 F100
G1 Y15.6
G19 G3 Y15.9 Z-8.7 K0.3
G1 X0.7 F60
Z-9.7 F33
G2 Y15.6 Z-10 J-0.3
G1 Y15.3 F30
G17 G3 X1 Y15 I0.3
G1 X39 F60
G3 X39.5 Y15.5 J0.5
G1 Y26
G2 X41 Y27.5 I1.5
G1 X51
G2 X52.5 Y26 J-1.5
G1 Y1
G2 X51 Y-0.5 I-1.5
G1 X1
G2 X-0.5 Y1 J1.5
G1 Y13.5
G2 X1 Y15 I1.5
G3 X1.3 Y15.3 J0.3 F100
G1 Y15.6
G19 G3 Y15.9 Z-9.7 K0.3
G1 X0.7 F60
Z-10.7 F33
G2 Y15.6 Z-11 J-0.3
G1 Y15.3 F30
G17 G3 X1 Y15 I0.3
G1 X39 F60
G3 X39.5 Y15.5 J0.5
G1 Y26
G2 X41 Y27.5 I1.5
G1 X51
G2 X52.5 Y26 J-1.5
G1 Y1
G2 X51 Y-0.5 I-1.5
G1 X1
G2 X-0.5 Y1 J1.5
G1 Y13.5
G2 X1 Y15 I1.5
G3 X1.3 Y15.3 J0.3 F100
G1 Y15.6
G19 G3 Y15.9 Z-10.7 K0.3
G1 X0.7 F60
Z-11.7 F33
G2 Y15.6 Z-12 J-0.3
G1 Y15.3 F30
G17 G3 X1 Y15 I0.3
G1 X39 F60
G3 X39.5 Y15.5 J0.5
G1 Y26
G2 X41 Y27.5 I1.5
G1 X51
G2 X52.5 Y26 J-1.5
G1 Y1
G2 X51 Y-0.5 I-1.5
G1 X1
G2 X-0.5 Y1 J1.5
G1 Y13.5
G2 X1 Y15 I1.5
G3 X1.3 Y15.3 J0.3 F100
G1 Y15.6
G19 G3 Y15.9 Z-11.7 K0.3
G1 X0.7 F60
Z-12.7 F33
G2 Y15.6 Z-13 J-0.3
G1 Y15.3 F30
G17 G3 X1 Y15 I0.3
G1 X39 F60
G3 X39.5 Y15.5 J0.5
G1 Y26
G2 X41 Y27.5 I1.5
G1 X51
G2 X52.5 Y26 J-1.5
G1 Y1
G2 X51 Y-0.5 I-1.5
G1 X1
G2 X-0.5 Y1 J1.5
G1 Y13.5
G2 X1 Y15 I1.5
G3 X1.3 Y15.3 J0.3 F100
G1 Y15.6
G19 G3 Y15.9 Z-12.7 K0.3
G1 X0.7 F60
Z-13.7 F33
G2 Y15.6 Z-14 J-0.3
G1 Y15.3 F30
G17 G3 X1 Y15 I0.3
G1 X39 F60
G3 X39.5 Y15.5 J0.5
G1 Y26
G2 X41 Y27.5 I1.5
G1 X51
G2 X52.5 Y26 J-1.5
G1 Y1
G2 X51 Y-0.5 I-1.5
G1 X1
G2 X-0.5 Y1 J1.5
G1 Y13.5
G2 X1 Y15 I1.5
G3 X1.3 Y15.3 J0.3 F100
G1 Y15.6
G19 G3 Y15.9 Z-13.7 K0.3
G1 X0.7 F60
Z-14.7 F33
G2 Y15.6 Z-15 J-0.3
G1 Y15.3 F30
G17 G3 X1 Y15 I0.3
G1 X39 F60
G3 X39.5 Y15.5 J0.5
G1 Y26
G2 X41 Y27.5 I1.5
G1 X51
G2 X52.5 Y26 J-1.5
G1 Y1
G2 X51 Y-0.5 I-1.5
G1 X1
G2 X-0.5 Y1 J1.5
G1 Y13.5
G2 X1 Y15 I1.5
G3 X1.3 Y15.3 J0.3 F100
G1 Y15.6
G19 G3 Y15.9 Z-14.7 K0.3
G1 X0.7 F60
Z-15.7 F33
G2 Y15.6 Z-16 J-0.3
G1 Y15.3 F30
G17 G3 X1 Y15 I0.3
G1 X39 F60
G3 X39.5 Y15.5 J0.5
G1 Y26
G2 X41 Y27.5 I1.5
G1 X51
G2 X52.5 Y26 J-1.5
G1 Y1
G2 X51 Y-0.5 I-1.5
G1 X1
G2 X-0.5 Y1 J1.5
G1 Y13.5
G2 X1 Y15 I1.5
G3 X1.3 Y15.3 J0.3 F100
G1 Y15.6
G19 G3 Y15.9 Z-15.7 K0.3
G1 X0.7 F60
Z-16.7 F33
G2 Y15.6 Z-17 J-0.3
G1 Y15.3 F30
G17 G3 X1 Y15 I0.3
G1 X39 F60
G3 X39.5 Y15.5 J0.5
G1 Y26
G2 X41 Y27.5 I1.5
G1 X51
G2 X52.5 Y26 J-1.5
G1 Y1
G2 X51 Y-0.5 I-1.5
G1 X1
G2 X-0.5 Y1 J1.5
G1 Y13.5
G2 X1 Y15 I1.5
G3 X1.3 Y15.3 J0.3 F100
G1 Y15.6
G19 G3 Y15.9 Z-16.7 K0.3
G1 X0.7 F60
Z-17.7 F33
G2 Y15.6 Z-18 J-0.3
G1 Y15.3 F30
G17 G3 X1 Y15 I0.3
G1 X39 F60
G3 X39.5 Y15.5 J0.5
G1 Y26
G2 X41 Y27.5 I1.5
G1 X51
G2 X52.5 Y26 J-1.5
G1 Y1
G2 X51 Y-0.5 I-1.5
G1 X1
G2 X-0.5 Y1 J1.5
G1 Y13.5
G2 X1 Y15 I1.5
G3 X1.3 Y15.3 J0.3 F100
G1 Y15.6
G19 G3 Y15.9 Z-17.7 K0.3
G1 X0.7 F60
Z-18.7 F33
G2 Y15.6 Z-19 J-0.3
G1 Y15.3 F30
G17 G3 X1 Y15 I0.3
G1 X39 F60
G3 X39.5 Y15.5 J0.5
G1 Y26
G2 X41 Y27.5 I1.5
G1 X51
G2 X52.5 Y26 J-1.5
G1 Y1
G2 X51 Y-0.5 I-1.5
G1 X1
G2 X-0.5 Y1 J1.5
G1 Y13.5
G2 X1 Y15 I1.5
G3 X1.3 Y15.3 J0.3 F100
G1 Y15.6
G19 G3 Y15.9 Z-18.7 K0.3
G0 Z1.3
G17
M9
G28 G91 Z0
G90
G28 G91 X0 Y0
G90
M30
%
