%
(1001)
(T1  D=3 CR=0.75 - ZMIN=-9 - bullnose end mill)
G90 G94
G17
G21
G28 G91 Z6
G90

(2D Contour1)
M9
T1 M6
S1000 M3
G54
M8
G0 X-2.414 Y11.885
Z5
Z2
G1 Z-0.7 F33
X-2.407 Y11.883 Z-0.767
X-2.385 Y11.879 Z-0.83
X-2.35 Y11.873 Z-0.887
X-2.303 Y11.864 Z-0.935
X-2.247 Y11.853 Z-0.97
X-2.185 Y11.841 Z-0.992
X-2.119 Y11.829 Z-1
X-1.824 Y11.774 F30
G3 X-1.474 Y12.013 I0.056 J0.295
G2 X0 Y13.235 I1.474 J-0.278 F60
G1 X47.75
Y41.265
X0
G2 X-1.5 Y42.765 J1.5
G1 Y54.5
G2 X0 Y56 I1.5
G1 X66
G2 X67.5 Y54.5 J-1.5
G1 Y0
G2 X66 Y-1.5 I-1.5
G1 X0
G2 X-1.5 Y0 J1.5
G1 Y11.735
G2 X-1.474 Y12.013 I1.5
G3 X-1.713 Y12.363 I-0.295 J0.056 F100
G1 X-2.008 Y12.419
X-2.074 Y12.431 Z-0.992
X-2.136 Y12.443 Z-0.97
X-2.192 Y12.453 Z-0.935
X-2.239 Y12.462 Z-0.887
X-2.274 Y12.469 Z-0.83
X-2.296 Y12.473 Z-0.767
X-2.303 Y12.474 Z-0.7
X-2.414 Y11.885 F60
Z-1.7 F33
X-2.407 Y11.883 Z-1.767
X-2.385 Y11.879 Z-1.83
X-2.35 Y11.873 Z-1.887
X-2.303 Y11.864 Z-1.935
X-2.247 Y11.853 Z-1.97
X-2.185 Y11.841 Z-1.992
X-2.119 Y11.829 Z-2
X-1.824 Y11.774 F30
G3 X-1.474 Y12.013 I0.056 J0.295
G2 X0 Y13.235 I1.474 J-0.278 F60
G1 X47.75
Y41.265
X0
G2 X-1.5 Y42.765 J1.5
G1 Y54.5
G2 X0 Y56 I1.5
G1 X66
G2 X67.5 Y54.5 J-1.5
G1 Y0
G2 X66 Y-1.5 I-1.5
G1 X0
G2 X-1.5 Y0 J1.5
G1 Y11.735
G2 X-1.474 Y12.013 I1.5
G3 X-1.713 Y12.363 I-0.295 J0.056 F100
G1 X-2.008 Y12.419
X-2.074 Y12.431 Z-1.992
X-2.136 Y12.443 Z-1.97
X-2.192 Y12.453 Z-1.935
X-2.239 Y12.462 Z-1.887
X-2.274 Y12.469 Z-1.83
X-2.296 Y12.473 Z-1.767
X-2.303 Y12.474 Z-1.7
X-2.414 Y11.885 F60
Z-2.7 F33
X-2.407 Y11.883 Z-2.767
X-2.385 Y11.879 Z-2.83
X-2.35 Y11.873 Z-2.887
X-2.303 Y11.864 Z-2.935
X-2.247 Y11.853 Z-2.97
X-2.185 Y11.841 Z-2.992
X-2.119 Y11.829 Z-3
X-1.824 Y11.774 F30
G3 X-1.474 Y12.013 I0.056 J0.295
G2 X0 Y13.235 I1.474 J-0.278 F60
G1 X47.75
Y41.265
X0
G2 X-1.5 Y42.765 J1.5
G1 Y54.5
G2 X0 Y56 I1.5
G1 X66
G2 X67.5 Y54.5 J-1.5
G1 Y0
G2 X66 Y-1.5 I-1.5
G1 X0
G2 X-1.5 Y0 J1.5
G1 Y11.735
G2 X-1.474 Y12.013 I1.5
G3 X-1.713 Y12.363 I-0.295 J0.056 F100
G1 X-2.008 Y12.419
X-2.074 Y12.431 Z-2.992
X-2.136 Y12.443 Z-2.97
X-2.192 Y12.453 Z-2.935
X-2.239 Y12.462 Z-2.887
X-2.274 Y12.469 Z-2.83
X-2.296 Y12.473 Z-2.767
X-2.303 Y12.474 Z-2.7
X-2.414 Y11.885 F60
Z-3.7 F33
X-2.407 Y11.883 Z-3.767
X-2.385 Y11.879 Z-3.83
X-2.35 Y11.873 Z-3.887
X-2.303 Y11.864 Z-3.935
X-2.247 Y11.853 Z-3.97
X-2.185 Y11.841 Z-3.992
X-2.119 Y11.829 Z-4
X-1.824 Y11.774 F30
G3 X-1.474 Y12.013 I0.056 J0.295
G2 X0 Y13.235 I1.474 J-0.278 F60
G1 X47.75
Y41.265
X0
G2 X-1.5 Y42.765 J1.5
G1 Y54.5
G2 X0 Y56 I1.5
G1 X66
G2 X67.5 Y54.5 J-1.5
G1 Y0
G2 X66 Y-1.5 I-1.5
G1 X0
G2 X-1.5 Y0 J1.5
G1 Y11.735
G2 X-1.474 Y12.013 I1.5
G3 X-1.713 Y12.363 I-0.295 J0.056 F100
G1 X-2.008 Y12.419
X-2.074 Y12.431 Z-3.992
X-2.136 Y12.443 Z-3.97
X-2.192 Y12.453 Z-3.935
X-2.239 Y12.462 Z-3.887
X-2.274 Y12.469 Z-3.83
X-2.296 Y12.473 Z-3.767
X-2.303 Y12.474 Z-3.7
X-2.414 Y11.885 F60
Z-4.7 F33
X-2.407 Y11.883 Z-4.767
X-2.385 Y11.879 Z-4.83
X-2.35 Y11.873 Z-4.887
X-2.303 Y11.864 Z-4.935
X-2.247 Y11.853 Z-4.97
X-2.185 Y11.841 Z-4.992
X-2.119 Y11.829 Z-5
X-1.824 Y11.774 F30
G3 X-1.474 Y12.013 I0.056 J0.295
G2 X0 Y13.235 I1.474 J-0.278 F60
G1 X47.75
Y41.265
X0
G2 X-1.5 Y42.765 J1.5
G1 Y54.5
G2 X0 Y56 I1.5
G1 X66
G2 X67.5 Y54.5 J-1.5
G1 Y0
G2 X66 Y-1.5 I-1.5
G1 X0
G2 X-1.5 Y0 J1.5
G1 Y11.735
G2 X-1.474 Y12.013 I1.5
G3 X-1.713 Y12.363 I-0.295 J0.056 F100
G1 X-2.008 Y12.419
X-2.074 Y12.431 Z-4.992
X-2.136 Y12.443 Z-4.97
X-2.192 Y12.453 Z-4.935
X-2.239 Y12.462 Z-4.887
X-2.274 Y12.469 Z-4.83
X-2.296 Y12.473 Z-4.767
X-2.303 Y12.474 Z-4.7
X-2.414 Y11.885 F60
Z-5.7 F33
X-2.407 Y11.883 Z-5.767
X-2.385 Y11.879 Z-5.83
X-2.35 Y11.873 Z-5.887
X-2.303 Y11.864 Z-5.935
X-2.247 Y11.853 Z-5.97
X-2.185 Y11.841 Z-5.992
X-2.119 Y11.829 Z-6
X-1.824 Y11.774 F30
G3 X-1.474 Y12.013 I0.056 J0.295
G2 X0 Y13.235 I1.474 J-0.278 F60
G1 X47.75
Y41.265
X0
G2 X-1.5 Y42.765 J1.5
G1 Y54.5
G2 X0 Y56 I1.5
G1 X66
G2 X67.5 Y54.5 J-1.5
G1 Y0
G2 X66 Y-1.5 I-1.5
G1 X0
G2 X-1.5 Y0 J1.5
G1 Y11.735
G2 X-1.474 Y12.013 I1.5
G3 X-1.713 Y12.363 I-0.295 J0.056 F100
G1 X-2.008 Y12.419
X-2.074 Y12.431 Z-5.992
X-2.136 Y12.443 Z-5.97
X-2.192 Y12.453 Z-5.935
X-2.239 Y12.462 Z-5.887
X-2.274 Y12.469 Z-5.83
X-2.296 Y12.473 Z-5.767
X-2.303 Y12.474 Z-5.7
X-2.414 Y11.885 F60
Z-6.7 F33
X-2.407 Y11.883 Z-6.767
X-2.385 Y11.879 Z-6.83
X-2.35 Y11.873 Z-6.887
X-2.303 Y11.864 Z-6.935
X-2.247 Y11.853 Z-6.97
X-2.185 Y11.841 Z-6.992
X-2.119 Y11.829 Z-7
X-1.824 Y11.774 F30
G3 X-1.474 Y12.013 I0.056 J0.295
G2 X0 Y13.235 I1.474 J-0.278 F60
G1 X47.75
Y41.265
X0
G2 X-1.5 Y42.765 J1.5
G1 Y54.5
G2 X0 Y56 I1.5
G1 X66
G2 X67.5 Y54.5 J-1.5
G1 Y0
G2 X66 Y-1.5 I-1.5
G1 X0
G2 X-1.5 Y0 J1.5
G1 Y11.735
G2 X-1.474 Y12.013 I1.5
G3 X-1.713 Y12.363 I-0.295 J0.056 F100
G1 X-2.008 Y12.419
X-2.074 Y12.431 Z-6.992
X-2.136 Y12.443 Z-6.97
X-2.192 Y12.453 Z-6.935
X-2.239 Y12.462 Z-6.887
X-2.274 Y12.469 Z-6.83
X-2.296 Y12.473 Z-6.767
X-2.303 Y12.474 Z-6.7
X-2.414 Y11.885 F60
Z-7.7 F33
X-2.407 Y11.883 Z-7.767
X-2.385 Y11.879 Z-7.83
X-2.35 Y11.873 Z-7.887
X-2.303 Y11.864 Z-7.935
X-2.247 Y11.853 Z-7.97
X-2.185 Y11.841 Z-7.992
X-2.119 Y11.829 Z-8
X-1.824 Y11.774 F30
G3 X-1.474 Y12.013 I0.056 J0.295
G2 X0 Y13.235 I1.474 J-0.278 F60
G1 X47.75
Y41.265
X0
G2 X-1.5 Y42.765 J1.5
G1 Y54.5
G2 X0 Y56 I1.5
G1 X66
G2 X67.5 Y54.5 J-1.5
G1 Y0
G2 X66 Y-1.5 I-1.5
G1 X0
G2 X-1.5 Y0 J1.5
G1 Y11.735
G2 X-1.474 Y12.013 I1.5
G3 X-1.713 Y12.363 I-0.295 J0.056 F100
G1 X-2.008 Y12.419
X-2.074 Y12.431 Z-7.992
X-2.136 Y12.443 Z-7.97
X-2.192 Y12.453 Z-7.935
X-2.239 Y12.462 Z-7.887
X-2.274 Y12.469 Z-7.83
X-2.296 Y12.473 Z-7.767
X-2.303 Y12.474 Z-7.7
X-2.414 Y11.885 F60
Z-8.7 F33
X-2.407 Y11.883 Z-8.767
X-2.385 Y11.879 Z-8.83
X-2.35 Y11.873 Z-8.887
X-2.303 Y11.864 Z-8.935
X-2.247 Y11.853 Z-8.97
X-2.185 Y11.841 Z-8.992
X-2.119 Y11.829 Z-9
X-1.824 Y11.774 F30
G3 X-1.474 Y12.013 I0.056 J0.295
G2 X0 Y13.235 I1.474 J-0.278 F60
G1 X47.75
Y41.265
X0
G2 X-1.5 Y42.765 J1.5
G1 Y54.5
G2 X0 Y56 I1.5
G1 X66
G2 X67.5 Y54.5 J-1.5
G1 Y0
G2 X66 Y-1.5 I-1.5
G1 X0
G2 X-1.5 Y0 J1.5
G1 Y11.735
G2 X-1.474 Y12.013 I1.5
G3 X-1.713 Y12.363 I-0.295 J0.056 F100
G1 X-2.008 Y12.419
X-2.074 Y12.431 Z-8.992
X-2.136 Y12.443 Z-8.97
X-2.192 Y12.453 Z-8.935
X-2.239 Y12.462 Z-8.887
X-2.274 Y12.469 Z-8.83
X-2.296 Y12.473 Z-8.767
X-2.303 Y12.474 Z-8.7
G0 Z5
M9
G28 G91 Z0
G90
G28 G91 X0 Y0
G90
M30
%
