%
(1001)
(T1  D=3 CR=0.75 - ZMIN=-9 - bullnose end mill)
G90 G94
G17
G21
G28 G91 Z6
G90

(2D Pocket1)
M9
T1 M6
S1000 M3
G54
M8
G0 X33.999 Y48.5
Z5
Z2
G1 Z-1 F33
G3 X34.499 I0.25 F50
X33.999 I-0.25
G1 Z-2 F33
G3 X34.499 I0.25 F50
X33.999 I-0.25
G1 Z-3 F33
G3 X34.499 I0.25 F50
X33.999 I-0.25
G1 Z-4 F33
G3 X34.499 I0.25 F50
X33.999 I-0.25
G1 Z-5 F33
G3 X34.499 I0.25 F50
X33.999 I-0.25
G1 Z-6 F33
G3 X34.499 I0.25 F50
X33.999 I-0.25
G1 Z-7 F33
G3 X34.499 I0.25 F50
X33.999 I-0.25
G1 Z-8 F33
G3 X34.499 I0.25 F50
X33.999 I-0.25
G1 Z-9 F33
G3 X34.499 I0.25 F50
X33.999 I-0.25
G1 X34.003 Y48.453 Z-8.996 F100
X34.016 Y48.409 Z-8.985
X34.035 Y48.37 Z-8.967
X34.058 Y48.338 Z-8.943
X34.084 Y48.312 Z-8.912
X34.108 Y48.294 Z-8.876
X34.129 Y48.281 Z-8.836
X34.145 Y48.273 Z-8.793
X34.155 Y48.268 Z-8.747
X34.158 Y48.267 Z-8.7
G0 Z2
X56.862 Y45.748
G1 Z-0.7 F33
X56.865 Y45.75 Z-0.747
X56.874 Y45.756 Z-0.793
X56.889 Y45.767 Z-0.836
X56.907 Y45.783 Z-0.876
X56.928 Y45.805 Z-0.912
X56.95 Y45.834 Z-0.943
X56.97 Y45.868 Z-0.967
X56.986 Y45.909 Z-0.985
X56.996 Y45.953 Z-0.996
X57 Y46 Z-1
G3 X56 I-0.5 F50
X57 I0.5
G1 X56.993 Y46.031
X56.974 Y46.055
X56.946 Y46.07
X56.914 Y46.071
X56.886 Y46.058
X56.865 Y46.034
X56.76 Y45.843
X56.751 Y45.812
X56.756 Y45.781
X56.774 Y45.755
X56.801 Y45.74
X56.833 Y45.737
X56.862 Y45.748
Z-1.7 F33
X56.865 Y45.75 Z-1.747
X56.874 Y45.756 Z-1.793
X56.889 Y45.767 Z-1.836
X56.907 Y45.783 Z-1.876
X56.928 Y45.805 Z-1.912
X56.95 Y45.834 Z-1.943
X56.97 Y45.868 Z-1.967
X56.986 Y45.909 Z-1.985
X56.996 Y45.953 Z-1.996
X57 Y46 Z-2
G3 X56 I-0.5 F50
X57 I0.5
G1 X56.993 Y46.031
X56.974 Y46.055
X56.946 Y46.07
X56.914 Y46.071
X56.886 Y46.058
X56.865 Y46.034
X56.76 Y45.843
X56.751 Y45.812
X56.756 Y45.781
X56.774 Y45.755
X56.801 Y45.74
X56.833 Y45.737
X56.862 Y45.748
Z-2.7 F33
X56.865 Y45.75 Z-2.747
X56.874 Y45.756 Z-2.793
X56.889 Y45.767 Z-2.836
X56.907 Y45.783 Z-2.876
X56.928 Y45.805 Z-2.912
X56.95 Y45.834 Z-2.943
X56.97 Y45.868 Z-2.967
X56.986 Y45.909 Z-2.985
X56.996 Y45.953 Z-2.996
X57 Y46 Z-3
G3 X56 I-0.5 F50
X57 I0.5
G1 X56.993 Y46.031
X56.974 Y46.055
X56.946 Y46.07
X56.914 Y46.071
X56.886 Y46.058
X56.865 Y46.034
X56.76 Y45.843
X56.751 Y45.812
X56.756 Y45.781
X56.774 Y45.755
X56.801 Y45.74
X56.833 Y45.737
X56.862 Y45.748
Z-3.7 F33
X56.865 Y45.75 Z-3.747
X56.874 Y45.756 Z-3.793
X56.889 Y45.767 Z-3.836
X56.907 Y45.783 Z-3.876
X56.928 Y45.805 Z-3.912
X56.95 Y45.834 Z-3.943
X56.97 Y45.868 Z-3.967
X56.986 Y45.909 Z-3.985
X56.996 Y45.953 Z-3.996
X57 Y46 Z-4
G3 X56 I-0.5 F50
X57 I0.5
G1 X56.993 Y46.031
X56.974 Y46.055
X56.946 Y46.07
X56.914 Y46.071
X56.886 Y46.058
X56.865 Y46.034
X56.76 Y45.843
X56.751 Y45.812
X56.756 Y45.781
X56.774 Y45.755
X56.801 Y45.74
X56.833 Y45.737
X56.862 Y45.748
Z-4.7 F33
X56.865 Y45.75 Z-4.747
X56.874 Y45.756 Z-4.793
X56.889 Y45.767 Z-4.836
X56.907 Y45.783 Z-4.876
X56.928 Y45.805 Z-4.912
X56.95 Y45.834 Z-4.943
X56.97 Y45.868 Z-4.967
X56.986 Y45.909 Z-4.985
X56.996 Y45.953 Z-4.996
X57 Y46 Z-5
G3 X56 I-0.5 F50
X57 I0.5
G1 X56.993 Y46.031
X56.974 Y46.055
X56.946 Y46.07
X56.914 Y46.071
X56.886 Y46.058
X56.865 Y46.034
X56.76 Y45.843
X56.751 Y45.812
X56.756 Y45.781
X56.774 Y45.755
X56.801 Y45.74
X56.833 Y45.737
X56.862 Y45.748
Z-5.7 F33
X56.865 Y45.75 Z-5.747
X56.874 Y45.756 Z-5.793
X56.889 Y45.767 Z-5.836
X56.907 Y45.783 Z-5.876
X56.928 Y45.805 Z-5.912
X56.95 Y45.834 Z-5.943
X56.97 Y45.868 Z-5.967
X56.986 Y45.909 Z-5.985
X56.996 Y45.953 Z-5.996
X57 Y46 Z-6
G3 X56 I-0.5 F50
X57 I0.5
G1 X56.993 Y46.031
X56.974 Y46.055
X56.946 Y46.07
X56.914 Y46.071
X56.886 Y46.058
X56.865 Y46.034
X56.76 Y45.843
X56.751 Y45.812
X56.756 Y45.781
X56.774 Y45.755
X56.801 Y45.74
X56.833 Y45.737
X56.862 Y45.748
Z-6.7 F33
X56.865 Y45.75 Z-6.747
X56.874 Y45.756 Z-6.793
X56.889 Y45.767 Z-6.836
X56.907 Y45.783 Z-6.876
X56.928 Y45.805 Z-6.912
X56.95 Y45.834 Z-6.943
X56.97 Y45.868 Z-6.967
X56.986 Y45.909 Z-6.985
X56.996 Y45.953 Z-6.996
X57 Y46 Z-7
G3 X56 I-0.5 F50
X57 I0.5
G1 X56.993 Y46.031
X56.974 Y46.055
X56.946 Y46.07
X56.914 Y46.071
X56.886 Y46.058
X56.865 Y46.034
X56.76 Y45.843
X56.751 Y45.812
X56.756 Y45.781
X56.774 Y45.755
X56.801 Y45.74
X56.833 Y45.737
X56.862 Y45.748
Z-7.7 F33
X56.865 Y45.75 Z-7.747
X56.874 Y45.756 Z-7.793
X56.889 Y45.767 Z-7.836
X56.907 Y45.783 Z-7.876
X56.928 Y45.805 Z-7.912
X56.95 Y45.834 Z-7.943
X56.97 Y45.868 Z-7.967
X56.986 Y45.909 Z-7.985
X56.996 Y45.953 Z-7.996
X57 Y46 Z-8
G3 X56 I-0.5 F50
X57 I0.5
G1 X56.993 Y46.031
X56.974 Y46.055
X56.946 Y46.07
X56.914 Y46.071
X56.886 Y46.058
X56.865 Y46.034
X56.76 Y45.843
X56.751 Y45.812
X56.756 Y45.781
X56.774 Y45.755
X56.801 Y45.74
X56.833 Y45.737
X56.862 Y45.748
Z-8.7 F33
X56.865 Y45.75 Z-8.747
X56.874 Y45.756 Z-8.793
X56.889 Y45.767 Z-8.836
X56.907 Y45.783 Z-8.876
X56.928 Y45.805 Z-8.912
X56.95 Y45.834 Z-8.943
X56.97 Y45.868 Z-8.967
X56.986 Y45.909 Z-8.985
X56.996 Y45.953 Z-8.996
X57 Y46 Z-9
G3 X56 I-0.5 F50
X57 I0.5
G1 X56.996 Y46.047 Z-8.996 F100
X56.986 Y46.091 Z-8.985
X56.97 Y46.132 Z-8.967
X56.95 Y46.166 Z-8.943
X56.928 Y46.195 Z-8.912
X56.907 Y46.217 Z-8.876
X56.889 Y46.233 Z-8.836
X56.874 Y46.244 Z-8.793
X56.865 Y46.25 Z-8.747
X56.862 Y46.252 Z-8.7
G0 Z2
X56.752 Y61.362
G1 Z-0.7 F33
X56.75 Y61.365 Z-0.747
X56.744 Y61.374 Z-0.793
X56.733 Y61.389 Z-0.836
X56.717 Y61.407 Z-0.876
X56.695 Y61.428 Z-0.912
X56.666 Y61.45 Z-0.943
X56.632 Y61.47 Z-0.967
X56.591 Y61.486 Z-0.985
X56.547 Y61.496 Z-0.996
X56.5 Y61.5 Z-1
G3 Y60.5 J-0.5 F50
Y61.5 J0.5
G1 X56.469 Y61.493
X56.445 Y61.474
X56.43 Y61.446
X56.429 Y61.414
X56.442 Y61.386
X56.466 Y61.365
X56.657 Y61.26
X56.688 Y61.251
X56.719 Y61.256
X56.745 Y61.274
X56.76 Y61.301
X56.763 Y61.333
X56.752 Y61.362
Z-1.7 F33
X56.75 Y61.365 Z-1.747
X56.744 Y61.374 Z-1.793
X56.733 Y61.389 Z-1.836
X56.717 Y61.407 Z-1.876
X56.695 Y61.428 Z-1.912
X56.666 Y61.45 Z-1.943
X56.632 Y61.47 Z-1.967
X56.591 Y61.486 Z-1.985
X56.547 Y61.496 Z-1.996
X56.5 Y61.5 Z-2
G3 Y60.5 J-0.5 F50
Y61.5 J0.5
G1 X56.469 Y61.493
X56.445 Y61.474
X56.43 Y61.446
X56.429 Y61.414
X56.442 Y61.386
X56.466 Y61.365
X56.657 Y61.26
X56.688 Y61.251
X56.719 Y61.256
X56.745 Y61.274
X56.76 Y61.301
X56.763 Y61.333
X56.752 Y61.362
Z-2.7 F33
X56.75 Y61.365 Z-2.747
X56.744 Y61.374 Z-2.793
X56.733 Y61.389 Z-2.836
X56.717 Y61.407 Z-2.876
X56.695 Y61.428 Z-2.912
X56.666 Y61.45 Z-2.943
X56.632 Y61.47 Z-2.967
X56.591 Y61.486 Z-2.985
X56.547 Y61.496 Z-2.996
X56.5 Y61.5 Z-3
G3 Y60.5 J-0.5 F50
Y61.5 J0.5
G1 X56.469 Y61.493
X56.445 Y61.474
X56.43 Y61.446
X56.429 Y61.414
X56.442 Y61.386
X56.466 Y61.365
X56.657 Y61.26
X56.688 Y61.251
X56.719 Y61.256
X56.745 Y61.274
X56.76 Y61.301
X56.763 Y61.333
X56.752 Y61.362
Z-3.7 F33
X56.75 Y61.365 Z-3.747
X56.744 Y61.374 Z-3.793
X56.733 Y61.389 Z-3.836
X56.717 Y61.407 Z-3.876
X56.695 Y61.428 Z-3.912
X56.666 Y61.45 Z-3.943
X56.632 Y61.47 Z-3.967
X56.591 Y61.486 Z-3.985
X56.547 Y61.496 Z-3.996
X56.5 Y61.5 Z-4
G3 Y60.5 J-0.5 F50
Y61.5 J0.5
G1 X56.469 Y61.493
X56.445 Y61.474
X56.43 Y61.446
X56.429 Y61.414
X56.442 Y61.386
X56.466 Y61.365
X56.657 Y61.26
X56.688 Y61.251
X56.719 Y61.256
X56.745 Y61.274
X56.76 Y61.301
X56.763 Y61.333
X56.752 Y61.362
Z-4.7 F33
X56.75 Y61.365 Z-4.747
X56.744 Y61.374 Z-4.793
X56.733 Y61.389 Z-4.836
X56.717 Y61.407 Z-4.876
X56.695 Y61.428 Z-4.912
X56.666 Y61.45 Z-4.943
X56.632 Y61.47 Z-4.967
X56.591 Y61.486 Z-4.985
X56.547 Y61.496 Z-4.996
X56.5 Y61.5 Z-5
G3 Y60.5 J-0.5 F50
Y61.5 J0.5
G1 X56.469 Y61.493
X56.445 Y61.474
X56.43 Y61.446
X56.429 Y61.414
X56.442 Y61.386
X56.466 Y61.365
X56.657 Y61.26
X56.688 Y61.251
X56.719 Y61.256
X56.745 Y61.274
X56.76 Y61.301
X56.763 Y61.333
X56.752 Y61.362
Z-5.7 F33
X56.75 Y61.365 Z-5.747
X56.744 Y61.374 Z-5.793
X56.733 Y61.389 Z-5.836
X56.717 Y61.407 Z-5.876
X56.695 Y61.428 Z-5.912
X56.666 Y61.45 Z-5.943
X56.632 Y61.47 Z-5.967
X56.591 Y61.486 Z-5.985
X56.547 Y61.496 Z-5.996
X56.5 Y61.5 Z-6
G3 Y60.5 J-0.5 F50
Y61.5 J0.5
G1 X56.469 Y61.493
X56.445 Y61.474
X56.43 Y61.446
X56.429 Y61.414
X56.442 Y61.386
X56.466 Y61.365
X56.657 Y61.26
X56.688 Y61.251
X56.719 Y61.256
X56.745 Y61.274
X56.76 Y61.301
X56.763 Y61.333
X56.752 Y61.362
Z-6.7 F33
X56.75 Y61.365 Z-6.747
X56.744 Y61.374 Z-6.793
X56.733 Y61.389 Z-6.836
X56.717 Y61.407 Z-6.876
X56.695 Y61.428 Z-6.912
X56.666 Y61.45 Z-6.943
X56.632 Y61.47 Z-6.967
X56.591 Y61.486 Z-6.985
X56.547 Y61.496 Z-6.996
X56.5 Y61.5 Z-7
G3 Y60.5 J-0.5 F50
Y61.5 J0.5
G1 X56.469 Y61.493
X56.445 Y61.474
X56.43 Y61.446
X56.429 Y61.414
X56.442 Y61.386
X56.466 Y61.365
X56.657 Y61.26
X56.688 Y61.251
X56.719 Y61.256
X56.745 Y61.274
X56.76 Y61.301
X56.763 Y61.333
X56.752 Y61.362
Z-7.7 F33
X56.75 Y61.365 Z-7.747
X56.744 Y61.374 Z-7.793
X56.733 Y61.389 Z-7.836
X56.717 Y61.407 Z-7.876
X56.695 Y61.428 Z-7.912
X56.666 Y61.45 Z-7.943
X56.632 Y61.47 Z-7.967
X56.591 Y61.486 Z-7.985
X56.547 Y61.496 Z-7.996
X56.5 Y61.5 Z-8
G3 Y60.5 J-0.5 F50
Y61.5 J0.5
G1 X56.469 Y61.493
X56.445 Y61.474
X56.43 Y61.446
X56.429 Y61.414
X56.442 Y61.386
X56.466 Y61.365
X56.657 Y61.26
X56.688 Y61.251
X56.719 Y61.256
X56.745 Y61.274
X56.76 Y61.301
X56.763 Y61.333
X56.752 Y61.362
Z-8.7 F33
X56.75 Y61.365 Z-8.747
X56.744 Y61.374 Z-8.793
X56.733 Y61.389 Z-8.836
X56.717 Y61.407 Z-8.876
X56.695 Y61.428 Z-8.912
X56.666 Y61.45 Z-8.943
X56.632 Y61.47 Z-8.967
X56.591 Y61.486 Z-8.985
X56.547 Y61.496 Z-8.996
X56.5 Y61.5 Z-9
G3 Y60.5 J-0.5 F50
Y61.5 J0.5
G1 X56.453 Y61.496 Z-8.996 F100
X56.409 Y61.486 Z-8.985
X56.368 Y61.47 Z-8.967
X56.334 Y61.45 Z-8.943
X56.305 Y61.428 Z-8.912
X56.283 Y61.407 Z-8.876
X56.267 Y61.389 Z-8.836
X56.256 Y61.374 Z-8.793
X56.25 Y61.365 Z-8.747
X56.248 Y61.362 Z-8.7
G0 Z2
X83.138 Y61.252
G1 Z-0.7 F33
X83.135 Y61.25 Z-0.747
X83.126 Y61.244 Z-0.793
X83.111 Y61.233 Z-0.836
X83.093 Y61.217 Z-0.876
X83.072 Y61.195 Z-0.912
X83.05 Y61.166 Z-0.943
X83.03 Y61.132 Z-0.967
X83.014 Y61.091 Z-0.985
X83.004 Y61.047 Z-0.996
X83 Y61 Z-1
G3 X84 I0.5 F50
X83 I-0.5
G1 X83.007 Y60.969
X83.026 Y60.945
X83.054 Y60.93
X83.086 Y60.929
X83.114 Y60.942
X83.135 Y60.966
X83.24 Y61.157
X83.249 Y61.188
X83.244 Y61.219
X83.226 Y61.245
X83.199 Y61.26
X83.167 Y61.263
X83.138 Y61.252
Z-1.7 F33
X83.135 Y61.25 Z-1.747
X83.126 Y61.244 Z-1.793
X83.111 Y61.233 Z-1.836
X83.093 Y61.217 Z-1.876
X83.072 Y61.195 Z-1.912
X83.05 Y61.166 Z-1.943
X83.03 Y61.132 Z-1.967
X83.014 Y61.091 Z-1.985
X83.004 Y61.047 Z-1.996
X83 Y61 Z-2
G3 X84 I0.5 F50
X83 I-0.5
G1 X83.007 Y60.969
X83.026 Y60.945
X83.054 Y60.93
X83.086 Y60.929
X83.114 Y60.942
X83.135 Y60.966
X83.24 Y61.157
X83.249 Y61.188
X83.244 Y61.219
X83.226 Y61.245
X83.199 Y61.26
X83.167 Y61.263
X83.138 Y61.252
Z-2.7 F33
X83.135 Y61.25 Z-2.747
X83.126 Y61.244 Z-2.793
X83.111 Y61.233 Z-2.836
X83.093 Y61.217 Z-2.876
X83.072 Y61.195 Z-2.912
X83.05 Y61.166 Z-2.943
X83.03 Y61.132 Z-2.967
X83.014 Y61.091 Z-2.985
X83.004 Y61.047 Z-2.996
X83 Y61 Z-3
G3 X84 I0.5 F50
X83 I-0.5
G1 X83.007 Y60.969
X83.026 Y60.945
X83.054 Y60.93
X83.086 Y60.929
X83.114 Y60.942
X83.135 Y60.966
X83.24 Y61.157
X83.249 Y61.188
X83.244 Y61.219
X83.226 Y61.245
X83.199 Y61.26
X83.167 Y61.263
X83.138 Y61.252
Z-3.7 F33
X83.135 Y61.25 Z-3.747
X83.126 Y61.244 Z-3.793
X83.111 Y61.233 Z-3.836
X83.093 Y61.217 Z-3.876
X83.072 Y61.195 Z-3.912
X83.05 Y61.166 Z-3.943
X83.03 Y61.132 Z-3.967
X83.014 Y61.091 Z-3.985
X83.004 Y61.047 Z-3.996
X83 Y61 Z-4
G3 X84 I0.5 F50
X83 I-0.5
G1 X83.007 Y60.969
X83.026 Y60.945
X83.054 Y60.93
X83.086 Y60.929
X83.114 Y60.942
X83.135 Y60.966
X83.24 Y61.157
X83.249 Y61.188
X83.244 Y61.219
X83.226 Y61.245
X83.199 Y61.26
X83.167 Y61.263
X83.138 Y61.252
Z-4.7 F33
X83.135 Y61.25 Z-4.747
X83.126 Y61.244 Z-4.793
X83.111 Y61.233 Z-4.836
X83.093 Y61.217 Z-4.876
X83.072 Y61.195 Z-4.912
X83.05 Y61.166 Z-4.943
X83.03 Y61.132 Z-4.967
X83.014 Y61.091 Z-4.985
X83.004 Y61.047 Z-4.996
X83 Y61 Z-5
G3 X84 I0.5 F50
X83 I-0.5
G1 X83.007 Y60.969
X83.026 Y60.945
X83.054 Y60.93
X83.086 Y60.929
X83.114 Y60.942
X83.135 Y60.966
X83.24 Y61.157
X83.249 Y61.188
X83.244 Y61.219
X83.226 Y61.245
X83.199 Y61.26
X83.167 Y61.263
X83.138 Y61.252
Z-5.7 F33
X83.135 Y61.25 Z-5.747
X83.126 Y61.244 Z-5.793
X83.111 Y61.233 Z-5.836
X83.093 Y61.217 Z-5.876
X83.072 Y61.195 Z-5.912
X83.05 Y61.166 Z-5.943
X83.03 Y61.132 Z-5.967
X83.014 Y61.091 Z-5.985
X83.004 Y61.047 Z-5.996
X83 Y61 Z-6
G3 X84 I0.5 F50
X83 I-0.5
G1 X83.007 Y60.969
X83.026 Y60.945
X83.054 Y60.93
X83.086 Y60.929
X83.114 Y60.942
X83.135 Y60.966
X83.24 Y61.157
X83.249 Y61.188
X83.244 Y61.219
X83.226 Y61.245
X83.199 Y61.26
X83.167 Y61.263
X83.138 Y61.252
Z-6.7 F33
X83.135 Y61.25 Z-6.747
X83.126 Y61.244 Z-6.793
X83.111 Y61.233 Z-6.836
X83.093 Y61.217 Z-6.876
X83.072 Y61.195 Z-6.912
X83.05 Y61.166 Z-6.943
X83.03 Y61.132 Z-6.967
X83.014 Y61.091 Z-6.985
X83.004 Y61.047 Z-6.996
X83 Y61 Z-7
G3 X84 I0.5 F50
X83 I-0.5
G1 X83.007 Y60.969
X83.026 Y60.945
X83.054 Y60.93
X83.086 Y60.929
X83.114 Y60.942
X83.135 Y60.966
X83.24 Y61.157
X83.249 Y61.188
X83.244 Y61.219
X83.226 Y61.245
X83.199 Y61.26
X83.167 Y61.263
X83.138 Y61.252
Z-7.7 F33
X83.135 Y61.25 Z-7.747
X83.126 Y61.244 Z-7.793
X83.111 Y61.233 Z-7.836
X83.093 Y61.217 Z-7.876
X83.072 Y61.195 Z-7.912
X83.05 Y61.166 Z-7.943
X83.03 Y61.132 Z-7.967
X83.014 Y61.091 Z-7.985
X83.004 Y61.047 Z-7.996
X83 Y61 Z-8
G3 X84 I0.5 F50
X83 I-0.5
G1 X83.007 Y60.969
X83.026 Y60.945
X83.054 Y60.93
X83.086 Y60.929
X83.114 Y60.942
X83.135 Y60.966
X83.24 Y61.157
X83.249 Y61.188
X83.244 Y61.219
X83.226 Y61.245
X83.199 Y61.26
X83.167 Y61.263
X83.138 Y61.252
Z-8.7 F33
X83.135 Y61.25 Z-8.747
X83.126 Y61.244 Z-8.793
X83.111 Y61.233 Z-8.836
X83.093 Y61.217 Z-8.876
X83.072 Y61.195 Z-8.912
X83.05 Y61.166 Z-8.943
X83.03 Y61.132 Z-8.967
X83.014 Y61.091 Z-8.985
X83.004 Y61.047 Z-8.996
X83 Y61 Z-9
G3 X84 I0.5 F50
X83 I-0.5
G1 X83.004 Y60.953 Z-8.996 F100
X83.014 Y60.909 Z-8.985
X83.03 Y60.868 Z-8.967
X83.05 Y60.834 Z-8.943
X83.072 Y60.805 Z-8.912
X83.093 Y60.783 Z-8.876
X83.111 Y60.767 Z-8.836
X83.126 Y60.756 Z-8.793
X83.135 Y60.75 Z-8.747
X83.138 Y60.748 Z-8.7
G0 Z2
Y46.252
G1 Z-0.7 F33
X83.135 Y46.25 Z-0.747
X83.126 Y46.244 Z-0.793
X83.111 Y46.233 Z-0.836
X83.093 Y46.217 Z-0.876
X83.072 Y46.195 Z-0.912
X83.05 Y46.166 Z-0.943
X83.03 Y46.132 Z-0.967
X83.014 Y46.091 Z-0.985
X83.004 Y46.047 Z-0.996
X83 Y46 Z-1
G3 X84 I0.5 F50
X83 I-0.5
G1 X83.007 Y45.969
X83.026 Y45.945
X83.054 Y45.93
X83.086 Y45.929
X83.114 Y45.942
X83.135 Y45.966
X83.24 Y46.157
X83.249 Y46.188
X83.244 Y46.219
X83.226 Y46.245
X83.199 Y46.26
X83.167 Y46.263
X83.138 Y46.252
Z-1.7 F33
X83.135 Y46.25 Z-1.747
X83.126 Y46.244 Z-1.793
X83.111 Y46.233 Z-1.836
X83.093 Y46.217 Z-1.876
X83.072 Y46.195 Z-1.912
X83.05 Y46.166 Z-1.943
X83.03 Y46.132 Z-1.967
X83.014 Y46.091 Z-1.985
X83.004 Y46.047 Z-1.996
X83 Y46 Z-2
G3 X84 I0.5 F50
X83 I-0.5
G1 X83.007 Y45.969
X83.026 Y45.945
X83.054 Y45.93
X83.086 Y45.929
X83.114 Y45.942
X83.135 Y45.966
X83.24 Y46.157
X83.249 Y46.188
X83.244 Y46.219
X83.226 Y46.245
X83.199 Y46.26
X83.167 Y46.263
X83.138 Y46.252
Z-2.7 F33
X83.135 Y46.25 Z-2.747
X83.126 Y46.244 Z-2.793
X83.111 Y46.233 Z-2.836
X83.093 Y46.217 Z-2.876
X83.072 Y46.195 Z-2.912
X83.05 Y46.166 Z-2.943
X83.03 Y46.132 Z-2.967
X83.014 Y46.091 Z-2.985
X83.004 Y46.047 Z-2.996
X83 Y46 Z-3
G3 X84 I0.5 F50
X83 I-0.5
G1 X83.007 Y45.969
X83.026 Y45.945
X83.054 Y45.93
X83.086 Y45.929
X83.114 Y45.942
X83.135 Y45.966
X83.24 Y46.157
X83.249 Y46.188
X83.244 Y46.219
X83.226 Y46.245
X83.199 Y46.26
X83.167 Y46.263
X83.138 Y46.252
Z-3.7 F33
X83.135 Y46.25 Z-3.747
X83.126 Y46.244 Z-3.793
X83.111 Y46.233 Z-3.836
X83.093 Y46.217 Z-3.876
X83.072 Y46.195 Z-3.912
X83.05 Y46.166 Z-3.943
X83.03 Y46.132 Z-3.967
X83.014 Y46.091 Z-3.985
X83.004 Y46.047 Z-3.996
X83 Y46 Z-4
G3 X84 I0.5 F50
X83 I-0.5
G1 X83.007 Y45.969
X83.026 Y45.945
X83.054 Y45.93
X83.086 Y45.929
X83.114 Y45.942
X83.135 Y45.966
X83.24 Y46.157
X83.249 Y46.188
X83.244 Y46.219
X83.226 Y46.245
X83.199 Y46.26
X83.167 Y46.263
X83.138 Y46.252
Z-4.7 F33
X83.135 Y46.25 Z-4.747
X83.126 Y46.244 Z-4.793
X83.111 Y46.233 Z-4.836
X83.093 Y46.217 Z-4.876
X83.072 Y46.195 Z-4.912
X83.05 Y46.166 Z-4.943
X83.03 Y46.132 Z-4.967
X83.014 Y46.091 Z-4.985
X83.004 Y46.047 Z-4.996
X83 Y46 Z-5
G3 X84 I0.5 F50
X83 I-0.5
G1 X83.007 Y45.969
X83.026 Y45.945
X83.054 Y45.93
X83.086 Y45.929
X83.114 Y45.942
X83.135 Y45.966
X83.24 Y46.157
X83.249 Y46.188
X83.244 Y46.219
X83.226 Y46.245
X83.199 Y46.26
X83.167 Y46.263
X83.138 Y46.252
Z-5.7 F33
X83.135 Y46.25 Z-5.747
X83.126 Y46.244 Z-5.793
X83.111 Y46.233 Z-5.836
X83.093 Y46.217 Z-5.876
X83.072 Y46.195 Z-5.912
X83.05 Y46.166 Z-5.943
X83.03 Y46.132 Z-5.967
X83.014 Y46.091 Z-5.985
X83.004 Y46.047 Z-5.996
X83 Y46 Z-6
G3 X84 I0.5 F50
X83 I-0.5
G1 X83.007 Y45.969
X83.026 Y45.945
X83.054 Y45.93
X83.086 Y45.929
X83.114 Y45.942
X83.135 Y45.966
X83.24 Y46.157
X83.249 Y46.188
X83.244 Y46.219
X83.226 Y46.245
X83.199 Y46.26
X83.167 Y46.263
X83.138 Y46.252
Z-6.7 F33
X83.135 Y46.25 Z-6.747
X83.126 Y46.244 Z-6.793
X83.111 Y46.233 Z-6.836
X83.093 Y46.217 Z-6.876
X83.072 Y46.195 Z-6.912
X83.05 Y46.166 Z-6.943
X83.03 Y46.132 Z-6.967
X83.014 Y46.091 Z-6.985
X83.004 Y46.047 Z-6.996
X83 Y46 Z-7
G3 X84 I0.5 F50
X83 I-0.5
G1 X83.007 Y45.969
X83.026 Y45.945
X83.054 Y45.93
X83.086 Y45.929
X83.114 Y45.942
X83.135 Y45.966
X83.24 Y46.157
X83.249 Y46.188
X83.244 Y46.219
X83.226 Y46.245
X83.199 Y46.26
X83.167 Y46.263
X83.138 Y46.252
Z-7.7 F33
X83.135 Y46.25 Z-7.747
X83.126 Y46.244 Z-7.793
X83.111 Y46.233 Z-7.836
X83.093 Y46.217 Z-7.876
X83.072 Y46.195 Z-7.912
X83.05 Y46.166 Z-7.943
X83.03 Y46.132 Z-7.967
X83.014 Y46.091 Z-7.985
X83.004 Y46.047 Z-7.996
X83 Y46 Z-8
G3 X84 I0.5 F50
X83 I-0.5
G1 X83.007 Y45.969
X83.026 Y45.945
X83.054 Y45.93
X83.086 Y45.929
X83.114 Y45.942
X83.135 Y45.966
X83.24 Y46.157
X83.249 Y46.188
X83.244 Y46.219
X83.226 Y46.245
X83.199 Y46.26
X83.167 Y46.263
X83.138 Y46.252
Z-8.7 F33
X83.135 Y46.25 Z-8.747
X83.126 Y46.244 Z-8.793
X83.111 Y46.233 Z-8.836
X83.093 Y46.217 Z-8.876
X83.072 Y46.195 Z-8.912
X83.05 Y46.166 Z-8.943
X83.03 Y46.132 Z-8.967
X83.014 Y46.091 Z-8.985
X83.004 Y46.047 Z-8.996
X83 Y46 Z-9
G3 X84 I0.5 F50
X83 I-0.5
G1 X83.004 Y45.953 Z-8.996 F100
X83.014 Y45.909 Z-8.985
X83.03 Y45.868 Z-8.967
X83.05 Y45.834 Z-8.943
X83.072 Y45.805 Z-8.912
X83.093 Y45.783 Z-8.876
X83.111 Y45.767 Z-8.836
X83.126 Y45.756 Z-8.793
X83.135 Y45.75 Z-8.747
X83.138 Y45.748 Z-8.7
G0 Z2
Y20.252
G1 Z-0.7 F33
X83.135 Y20.25 Z-0.747
X83.126 Y20.244 Z-0.793
X83.111 Y20.233 Z-0.836
X83.093 Y20.217 Z-0.876
X83.072 Y20.195 Z-0.912
X83.05 Y20.166 Z-0.943
X83.03 Y20.132 Z-0.967
X83.014 Y20.091 Z-0.985
X83.004 Y20.047 Z-0.996
X83 Y20 Z-1
G3 X84 I0.5 F50
X83 I-0.5
G1 X83.007 Y19.969
X83.026 Y19.945
X83.054 Y19.93
X83.086 Y19.929
X83.114 Y19.942
X83.135 Y19.966
X83.24 Y20.157
X83.249 Y20.188
X83.244 Y20.219
X83.226 Y20.245
X83.199 Y20.26
X83.167 Y20.263
X83.138 Y20.252
Z-1.7 F33
X83.135 Y20.25 Z-1.747
X83.126 Y20.244 Z-1.793
X83.111 Y20.233 Z-1.836
X83.093 Y20.217 Z-1.876
X83.072 Y20.195 Z-1.912
X83.05 Y20.166 Z-1.943
X83.03 Y20.132 Z-1.967
X83.014 Y20.091 Z-1.985
X83.004 Y20.047 Z-1.996
X83 Y20 Z-2
G3 X84 I0.5 F50
X83 I-0.5
G1 X83.007 Y19.969
X83.026 Y19.945
X83.054 Y19.93
X83.086 Y19.929
X83.114 Y19.942
X83.135 Y19.966
X83.24 Y20.157
X83.249 Y20.188
X83.244 Y20.219
X83.226 Y20.245
X83.199 Y20.26
X83.167 Y20.263
X83.138 Y20.252
Z-2.7 F33
X83.135 Y20.25 Z-2.747
X83.126 Y20.244 Z-2.793
X83.111 Y20.233 Z-2.836
X83.093 Y20.217 Z-2.876
X83.072 Y20.195 Z-2.912
X83.05 Y20.166 Z-2.943
X83.03 Y20.132 Z-2.967
X83.014 Y20.091 Z-2.985
X83.004 Y20.047 Z-2.996
X83 Y20 Z-3
G3 X84 I0.5 F50
X83 I-0.5
G1 X83.007 Y19.969
X83.026 Y19.945
X83.054 Y19.93
X83.086 Y19.929
X83.114 Y19.942
X83.135 Y19.966
X83.24 Y20.157
X83.249 Y20.188
X83.244 Y20.219
X83.226 Y20.245
X83.199 Y20.26
X83.167 Y20.263
X83.138 Y20.252
Z-3.7 F33
X83.135 Y20.25 Z-3.747
X83.126 Y20.244 Z-3.793
X83.111 Y20.233 Z-3.836
X83.093 Y20.217 Z-3.876
X83.072 Y20.195 Z-3.912
X83.05 Y20.166 Z-3.943
X83.03 Y20.132 Z-3.967
X83.014 Y20.091 Z-3.985
X83.004 Y20.047 Z-3.996
X83 Y20 Z-4
G3 X84 I0.5 F50
X83 I-0.5
G1 X83.007 Y19.969
X83.026 Y19.945
X83.054 Y19.93
X83.086 Y19.929
X83.114 Y19.942
X83.135 Y19.966
X83.24 Y20.157
X83.249 Y20.188
X83.244 Y20.219
X83.226 Y20.245
X83.199 Y20.26
X83.167 Y20.263
X83.138 Y20.252
Z-4.7 F33
X83.135 Y20.25 Z-4.747
X83.126 Y20.244 Z-4.793
X83.111 Y20.233 Z-4.836
X83.093 Y20.217 Z-4.876
X83.072 Y20.195 Z-4.912
X83.05 Y20.166 Z-4.943
X83.03 Y20.132 Z-4.967
X83.014 Y20.091 Z-4.985
X83.004 Y20.047 Z-4.996
X83 Y20 Z-5
G3 X84 I0.5 F50
X83 I-0.5
G1 X83.007 Y19.969
X83.026 Y19.945
X83.054 Y19.93
X83.086 Y19.929
X83.114 Y19.942
X83.135 Y19.966
X83.24 Y20.157
X83.249 Y20.188
X83.244 Y20.219
X83.226 Y20.245
X83.199 Y20.26
X83.167 Y20.263
X83.138 Y20.252
Z-5.7 F33
X83.135 Y20.25 Z-5.747
X83.126 Y20.244 Z-5.793
X83.111 Y20.233 Z-5.836
X83.093 Y20.217 Z-5.876
X83.072 Y20.195 Z-5.912
X83.05 Y20.166 Z-5.943
X83.03 Y20.132 Z-5.967
X83.014 Y20.091 Z-5.985
X83.004 Y20.047 Z-5.996
X83 Y20 Z-6
G3 X84 I0.5 F50
X83 I-0.5
G1 X83.007 Y19.969
X83.026 Y19.945
X83.054 Y19.93
X83.086 Y19.929
X83.114 Y19.942
X83.135 Y19.966
X83.24 Y20.157
X83.249 Y20.188
X83.244 Y20.219
X83.226 Y20.245
X83.199 Y20.26
X83.167 Y20.263
X83.138 Y20.252
Z-6.7 F33
X83.135 Y20.25 Z-6.747
X83.126 Y20.244 Z-6.793
X83.111 Y20.233 Z-6.836
X83.093 Y20.217 Z-6.876
X83.072 Y20.195 Z-6.912
X83.05 Y20.166 Z-6.943
X83.03 Y20.132 Z-6.967
X83.014 Y20.091 Z-6.985
X83.004 Y20.047 Z-6.996
X83 Y20 Z-7
G3 X84 I0.5 F50
X83 I-0.5
G1 X83.007 Y19.969
X83.026 Y19.945
X83.054 Y19.93
X83.086 Y19.929
X83.114 Y19.942
X83.135 Y19.966
X83.24 Y20.157
X83.249 Y20.188
X83.244 Y20.219
X83.226 Y20.245
X83.199 Y20.26
X83.167 Y20.263
X83.138 Y20.252
Z-7.7 F33
X83.135 Y20.25 Z-7.747
X83.126 Y20.244 Z-7.793
X83.111 Y20.233 Z-7.836
X83.093 Y20.217 Z-7.876
X83.072 Y20.195 Z-7.912
X83.05 Y20.166 Z-7.943
X83.03 Y20.132 Z-7.967
X83.014 Y20.091 Z-7.985
X83.004 Y20.047 Z-7.996
X83 Y20 Z-8
G3 X84 I0.5 F50
X83 I-0.5
G1 X83.007 Y19.969
X83.026 Y19.945
X83.054 Y19.93
X83.086 Y19.929
X83.114 Y19.942
X83.135 Y19.966
X83.24 Y20.157
X83.249 Y20.188
X83.244 Y20.219
X83.226 Y20.245
X83.199 Y20.26
X83.167 Y20.263
X83.138 Y20.252
Z-8.7 F33
X83.135 Y20.25 Z-8.747
X83.126 Y20.244 Z-8.793
X83.111 Y20.233 Z-8.836
X83.093 Y20.217 Z-8.876
X83.072 Y20.195 Z-8.912
X83.05 Y20.166 Z-8.943
X83.03 Y20.132 Z-8.967
X83.014 Y20.091 Z-8.985
X83.004 Y20.047 Z-8.996
X83 Y20 Z-9
G3 X84 I0.5 F50
X83 I-0.5
G1 X83.004 Y19.953 Z-8.996 F100
X83.014 Y19.909 Z-8.985
X83.03 Y19.868 Z-8.967
X83.05 Y19.834 Z-8.943
X83.072 Y19.805 Z-8.912
X83.093 Y19.783 Z-8.876
X83.111 Y19.767 Z-8.836
X83.126 Y19.756 Z-8.793
X83.135 Y19.75 Z-8.747
X83.138 Y19.748 Z-8.7
G0 Z2
X83.862 Y4.748
G1 Z-0.7 F33
X83.865 Y4.75 Z-0.747
X83.874 Y4.756 Z-0.793
X83.889 Y4.767 Z-0.836
X83.907 Y4.783 Z-0.876
X83.928 Y4.805 Z-0.912
X83.95 Y4.834 Z-0.943
X83.97 Y4.868 Z-0.967
X83.986 Y4.909 Z-0.985
X83.996 Y4.953 Z-0.996
X84 Y5 Z-1
G3 X83 I-0.5 F50
X84 I0.5
G1 X83.993 Y5.031
X83.974 Y5.055
X83.946 Y5.07
X83.914 Y5.071
X83.886 Y5.058
X83.865 Y5.034
X83.76 Y4.843
X83.751 Y4.812
X83.756 Y4.781
X83.774 Y4.755
X83.801 Y4.74
X83.833 Y4.737
X83.862 Y4.748
Z-1.7 F33
X83.865 Y4.75 Z-1.747
X83.874 Y4.756 Z-1.793
X83.889 Y4.767 Z-1.836
X83.907 Y4.783 Z-1.876
X83.928 Y4.805 Z-1.912
X83.95 Y4.834 Z-1.943
X83.97 Y4.868 Z-1.967
X83.986 Y4.909 Z-1.985
X83.996 Y4.953 Z-1.996
X84 Y5 Z-2
G3 X83 I-0.5 F50
X84 I0.5
G1 X83.993 Y5.031
X83.974 Y5.055
X83.946 Y5.07
X83.914 Y5.071
X83.886 Y5.058
X83.865 Y5.034
X83.76 Y4.843
X83.751 Y4.812
X83.756 Y4.781
X83.774 Y4.755
X83.801 Y4.74
X83.833 Y4.737
X83.862 Y4.748
Z-2.7 F33
X83.865 Y4.75 Z-2.747
X83.874 Y4.756 Z-2.793
X83.889 Y4.767 Z-2.836
X83.907 Y4.783 Z-2.876
X83.928 Y4.805 Z-2.912
X83.95 Y4.834 Z-2.943
X83.97 Y4.868 Z-2.967
X83.986 Y4.909 Z-2.985
X83.996 Y4.953 Z-2.996
X84 Y5 Z-3
G3 X83 I-0.5 F50
X84 I0.5
G1 X83.993 Y5.031
X83.974 Y5.055
X83.946 Y5.07
X83.914 Y5.071
X83.886 Y5.058
X83.865 Y5.034
X83.76 Y4.843
X83.751 Y4.812
X83.756 Y4.781
X83.774 Y4.755
X83.801 Y4.74
X83.833 Y4.737
X83.862 Y4.748
Z-3.7 F33
X83.865 Y4.75 Z-3.747
X83.874 Y4.756 Z-3.793
X83.889 Y4.767 Z-3.836
X83.907 Y4.783 Z-3.876
X83.928 Y4.805 Z-3.912
X83.95 Y4.834 Z-3.943
X83.97 Y4.868 Z-3.967
X83.986 Y4.909 Z-3.985
X83.996 Y4.953 Z-3.996
X84 Y5 Z-4
G3 X83 I-0.5 F50
X84 I0.5
G1 X83.993 Y5.031
X83.974 Y5.055
X83.946 Y5.07
X83.914 Y5.071
X83.886 Y5.058
X83.865 Y5.034
X83.76 Y4.843
X83.751 Y4.812
X83.756 Y4.781
X83.774 Y4.755
X83.801 Y4.74
X83.833 Y4.737
X83.862 Y4.748
Z-4.7 F33
X83.865 Y4.75 Z-4.747
X83.874 Y4.756 Z-4.793
X83.889 Y4.767 Z-4.836
X83.907 Y4.783 Z-4.876
X83.928 Y4.805 Z-4.912
X83.95 Y4.834 Z-4.943
X83.97 Y4.868 Z-4.967
X83.986 Y4.909 Z-4.985
X83.996 Y4.953 Z-4.996
X84 Y5 Z-5
G3 X83 I-0.5 F50
X84 I0.5
G1 X83.993 Y5.031
X83.974 Y5.055
X83.946 Y5.07
X83.914 Y5.071
X83.886 Y5.058
X83.865 Y5.034
X83.76 Y4.843
X83.751 Y4.812
X83.756 Y4.781
X83.774 Y4.755
X83.801 Y4.74
X83.833 Y4.737
X83.862 Y4.748
Z-5.7 F33
X83.865 Y4.75 Z-5.747
X83.874 Y4.756 Z-5.793
X83.889 Y4.767 Z-5.836
X83.907 Y4.783 Z-5.876
X83.928 Y4.805 Z-5.912
X83.95 Y4.834 Z-5.943
X83.97 Y4.868 Z-5.967
X83.986 Y4.909 Z-5.985
X83.996 Y4.953 Z-5.996
X84 Y5 Z-6
G3 X83 I-0.5 F50
X84 I0.5
G1 X83.993 Y5.031
X83.974 Y5.055
X83.946 Y5.07
X83.914 Y5.071
X83.886 Y5.058
X83.865 Y5.034
X83.76 Y4.843
X83.751 Y4.812
X83.756 Y4.781
X83.774 Y4.755
X83.801 Y4.74
X83.833 Y4.737
X83.862 Y4.748
Z-6.7 F33
X83.865 Y4.75 Z-6.747
X83.874 Y4.756 Z-6.793
X83.889 Y4.767 Z-6.836
X83.907 Y4.783 Z-6.876
X83.928 Y4.805 Z-6.912
X83.95 Y4.834 Z-6.943
X83.97 Y4.868 Z-6.967
X83.986 Y4.909 Z-6.985
X83.996 Y4.953 Z-6.996
X84 Y5 Z-7
G3 X83 I-0.5 F50
X84 I0.5
G1 X83.993 Y5.031
X83.974 Y5.055
X83.946 Y5.07
X83.914 Y5.071
X83.886 Y5.058
X83.865 Y5.034
X83.76 Y4.843
X83.751 Y4.812
X83.756 Y4.781
X83.774 Y4.755
X83.801 Y4.74
X83.833 Y4.737
X83.862 Y4.748
Z-7.7 F33
X83.865 Y4.75 Z-7.747
X83.874 Y4.756 Z-7.793
X83.889 Y4.767 Z-7.836
X83.907 Y4.783 Z-7.876
X83.928 Y4.805 Z-7.912
X83.95 Y4.834 Z-7.943
X83.97 Y4.868 Z-7.967
X83.986 Y4.909 Z-7.985
X83.996 Y4.953 Z-7.996
X84 Y5 Z-8
G3 X83 I-0.5 F50
X84 I0.5
G1 X83.993 Y5.031
X83.974 Y5.055
X83.946 Y5.07
X83.914 Y5.071
X83.886 Y5.058
X83.865 Y5.034
X83.76 Y4.843
X83.751 Y4.812
X83.756 Y4.781
X83.774 Y4.755
X83.801 Y4.74
X83.833 Y4.737
X83.862 Y4.748
Z-8.7 F33
X83.865 Y4.75 Z-8.747
X83.874 Y4.756 Z-8.793
X83.889 Y4.767 Z-8.836
X83.907 Y4.783 Z-8.876
X83.928 Y4.805 Z-8.912
X83.95 Y4.834 Z-8.943
X83.97 Y4.868 Z-8.967
X83.986 Y4.909 Z-8.985
X83.996 Y4.953 Z-8.996
X84 Y5 Z-9
G3 X83 I-0.5 F50
X84 I0.5
G1 X83.996 Y5.047 Z-8.996 F100
X83.986 Y5.091 Z-8.985
X83.97 Y5.132 Z-8.967
X83.95 Y5.166 Z-8.943
X83.928 Y5.195 Z-8.912
X83.907 Y5.217 Z-8.876
X83.889 Y5.233 Z-8.836
X83.874 Y5.244 Z-8.793
X83.865 Y5.25 Z-8.747
X83.862 Y5.252 Z-8.7
G0 Z2
X56.862 Y4.748
G1 Z-0.7 F33
X56.865 Y4.75 Z-0.747
X56.874 Y4.756 Z-0.793
X56.889 Y4.767 Z-0.836
X56.907 Y4.783 Z-0.876
X56.928 Y4.805 Z-0.912
X56.95 Y4.834 Z-0.943
X56.97 Y4.868 Z-0.967
X56.986 Y4.909 Z-0.985
X56.996 Y4.953 Z-0.996
X57 Y5 Z-1
G3 X56 I-0.5 F50
X57 I0.5
G1 X56.993 Y5.031
X56.974 Y5.055
X56.946 Y5.07
X56.914 Y5.071
X56.886 Y5.058
X56.865 Y5.034
X56.76 Y4.843
X56.751 Y4.812
X56.756 Y4.781
X56.774 Y4.755
X56.801 Y4.74
X56.833 Y4.737
X56.862 Y4.748
Z-1.7 F33
X56.865 Y4.75 Z-1.747
X56.874 Y4.756 Z-1.793
X56.889 Y4.767 Z-1.836
X56.907 Y4.783 Z-1.876
X56.928 Y4.805 Z-1.912
X56.95 Y4.834 Z-1.943
X56.97 Y4.868 Z-1.967
X56.986 Y4.909 Z-1.985
X56.996 Y4.953 Z-1.996
X57 Y5 Z-2
G3 X56 I-0.5 F50
X57 I0.5
G1 X56.993 Y5.031
X56.974 Y5.055
X56.946 Y5.07
X56.914 Y5.071
X56.886 Y5.058
X56.865 Y5.034
X56.76 Y4.843
X56.751 Y4.812
X56.756 Y4.781
X56.774 Y4.755
X56.801 Y4.74
X56.833 Y4.737
X56.862 Y4.748
Z-2.7 F33
X56.865 Y4.75 Z-2.747
X56.874 Y4.756 Z-2.793
X56.889 Y4.767 Z-2.836
X56.907 Y4.783 Z-2.876
X56.928 Y4.805 Z-2.912
X56.95 Y4.834 Z-2.943
X56.97 Y4.868 Z-2.967
X56.986 Y4.909 Z-2.985
X56.996 Y4.953 Z-2.996
X57 Y5 Z-3
G3 X56 I-0.5 F50
X57 I0.5
G1 X56.993 Y5.031
X56.974 Y5.055
X56.946 Y5.07
X56.914 Y5.071
X56.886 Y5.058
X56.865 Y5.034
X56.76 Y4.843
X56.751 Y4.812
X56.756 Y4.781
X56.774 Y4.755
X56.801 Y4.74
X56.833 Y4.737
X56.862 Y4.748
Z-3.7 F33
X56.865 Y4.75 Z-3.747
X56.874 Y4.756 Z-3.793
X56.889 Y4.767 Z-3.836
X56.907 Y4.783 Z-3.876
X56.928 Y4.805 Z-3.912
X56.95 Y4.834 Z-3.943
X56.97 Y4.868 Z-3.967
X56.986 Y4.909 Z-3.985
X56.996 Y4.953 Z-3.996
X57 Y5 Z-4
G3 X56 I-0.5 F50
X57 I0.5
G1 X56.993 Y5.031
X56.974 Y5.055
X56.946 Y5.07
X56.914 Y5.071
X56.886 Y5.058
X56.865 Y5.034
X56.76 Y4.843
X56.751 Y4.812
X56.756 Y4.781
X56.774 Y4.755
X56.801 Y4.74
X56.833 Y4.737
X56.862 Y4.748
Z-4.7 F33
X56.865 Y4.75 Z-4.747
X56.874 Y4.756 Z-4.793
X56.889 Y4.767 Z-4.836
X56.907 Y4.783 Z-4.876
X56.928 Y4.805 Z-4.912
X56.95 Y4.834 Z-4.943
X56.97 Y4.868 Z-4.967
X56.986 Y4.909 Z-4.985
X56.996 Y4.953 Z-4.996
X57 Y5 Z-5
G3 X56 I-0.5 F50
X57 I0.5
G1 X56.993 Y5.031
X56.974 Y5.055
X56.946 Y5.07
X56.914 Y5.071
X56.886 Y5.058
X56.865 Y5.034
X56.76 Y4.843
X56.751 Y4.812
X56.756 Y4.781
X56.774 Y4.755
X56.801 Y4.74
X56.833 Y4.737
X56.862 Y4.748
Z-5.7 F33
X56.865 Y4.75 Z-5.747
X56.874 Y4.756 Z-5.793
X56.889 Y4.767 Z-5.836
X56.907 Y4.783 Z-5.876
X56.928 Y4.805 Z-5.912
X56.95 Y4.834 Z-5.943
X56.97 Y4.868 Z-5.967
X56.986 Y4.909 Z-5.985
X56.996 Y4.953 Z-5.996
X57 Y5 Z-6
G3 X56 I-0.5 F50
X57 I0.5
G1 X56.993 Y5.031
X56.974 Y5.055
X56.946 Y5.07
X56.914 Y5.071
X56.886 Y5.058
X56.865 Y5.034
X56.76 Y4.843
X56.751 Y4.812
X56.756 Y4.781
X56.774 Y4.755
X56.801 Y4.74
X56.833 Y4.737
X56.862 Y4.748
Z-6.7 F33
X56.865 Y4.75 Z-6.747
X56.874 Y4.756 Z-6.793
X56.889 Y4.767 Z-6.836
X56.907 Y4.783 Z-6.876
X56.928 Y4.805 Z-6.912
X56.95 Y4.834 Z-6.943
X56.97 Y4.868 Z-6.967
X56.986 Y4.909 Z-6.985
X56.996 Y4.953 Z-6.996
X57 Y5 Z-7
G3 X56 I-0.5 F50
X57 I0.5
G1 X56.993 Y5.031
X56.974 Y5.055
X56.946 Y5.07
X56.914 Y5.071
X56.886 Y5.058
X56.865 Y5.034
X56.76 Y4.843
X56.751 Y4.812
X56.756 Y4.781
X56.774 Y4.755
X56.801 Y4.74
X56.833 Y4.737
X56.862 Y4.748
Z-7.7 F33
X56.865 Y4.75 Z-7.747
X56.874 Y4.756 Z-7.793
X56.889 Y4.767 Z-7.836
X56.907 Y4.783 Z-7.876
X56.928 Y4.805 Z-7.912
X56.95 Y4.834 Z-7.943
X56.97 Y4.868 Z-7.967
X56.986 Y4.909 Z-7.985
X56.996 Y4.953 Z-7.996
X57 Y5 Z-8
G3 X56 I-0.5 F50
X57 I0.5
G1 X56.993 Y5.031
X56.974 Y5.055
X56.946 Y5.07
X56.914 Y5.071
X56.886 Y5.058
X56.865 Y5.034
X56.76 Y4.843
X56.751 Y4.812
X56.756 Y4.781
X56.774 Y4.755
X56.801 Y4.74
X56.833 Y4.737
X56.862 Y4.748
Z-8.7 F33
X56.865 Y4.75 Z-8.747
X56.874 Y4.756 Z-8.793
X56.889 Y4.767 Z-8.836
X56.907 Y4.783 Z-8.876
X56.928 Y4.805 Z-8.912
X56.95 Y4.834 Z-8.943
X56.97 Y4.868 Z-8.967
X56.986 Y4.909 Z-8.985
X56.996 Y4.953 Z-8.996
X57 Y5 Z-9
G3 X56 I-0.5 F50
X57 I0.5
G1 X56.996 Y5.047 Z-8.996 F100
X56.986 Y5.091 Z-8.985
X56.97 Y5.132 Z-8.967
X56.95 Y5.166 Z-8.943
X56.928 Y5.195 Z-8.912
X56.907 Y5.217 Z-8.876
X56.889 Y5.233 Z-8.836
X56.874 Y5.244 Z-8.793
X56.865 Y5.25 Z-8.747
X56.862 Y5.252 Z-8.7
G0 Z2
Y19.748
G1 Z-0.7 F33
X56.865 Y19.75 Z-0.747
X56.874 Y19.756 Z-0.793
X56.889 Y19.767 Z-0.836
X56.907 Y19.783 Z-0.876
X56.928 Y19.805 Z-0.912
X56.95 Y19.834 Z-0.943
X56.97 Y19.868 Z-0.967
X56.986 Y19.909 Z-0.985
X56.996 Y19.953 Z-0.996
X57 Y20 Z-1
G3 X56 I-0.5 F50
X57 I0.5
G1 X56.993 Y20.031
X56.974 Y20.055
X56.946 Y20.07
X56.914 Y20.071
X56.886 Y20.058
X56.865 Y20.034
X56.76 Y19.843
X56.751 Y19.812
X56.756 Y19.781
X56.774 Y19.755
X56.801 Y19.74
X56.833 Y19.737
X56.862 Y19.748
Z-1.7 F33
X56.865 Y19.75 Z-1.747
X56.874 Y19.756 Z-1.793
X56.889 Y19.767 Z-1.836
X56.907 Y19.783 Z-1.876
X56.928 Y19.805 Z-1.912
X56.95 Y19.834 Z-1.943
X56.97 Y19.868 Z-1.967
X56.986 Y19.909 Z-1.985
X56.996 Y19.953 Z-1.996
X57 Y20 Z-2
G3 X56 I-0.5 F50
X57 I0.5
G1 X56.993 Y20.031
X56.974 Y20.055
X56.946 Y20.07
X56.914 Y20.071
X56.886 Y20.058
X56.865 Y20.034
X56.76 Y19.843
X56.751 Y19.812
X56.756 Y19.781
X56.774 Y19.755
X56.801 Y19.74
X56.833 Y19.737
X56.862 Y19.748
Z-2.7 F33
X56.865 Y19.75 Z-2.747
X56.874 Y19.756 Z-2.793
X56.889 Y19.767 Z-2.836
X56.907 Y19.783 Z-2.876
X56.928 Y19.805 Z-2.912
X56.95 Y19.834 Z-2.943
X56.97 Y19.868 Z-2.967
X56.986 Y19.909 Z-2.985
X56.996 Y19.953 Z-2.996
X57 Y20 Z-3
G3 X56 I-0.5 F50
X57 I0.5
G1 X56.993 Y20.031
X56.974 Y20.055
X56.946 Y20.07
X56.914 Y20.071
X56.886 Y20.058
X56.865 Y20.034
X56.76 Y19.843
X56.751 Y19.812
X56.756 Y19.781
X56.774 Y19.755
X56.801 Y19.74
X56.833 Y19.737
X56.862 Y19.748
Z-3.7 F33
X56.865 Y19.75 Z-3.747
X56.874 Y19.756 Z-3.793
X56.889 Y19.767 Z-3.836
X56.907 Y19.783 Z-3.876
X56.928 Y19.805 Z-3.912
X56.95 Y19.834 Z-3.943
X56.97 Y19.868 Z-3.967
X56.986 Y19.909 Z-3.985
X56.996 Y19.953 Z-3.996
X57 Y20 Z-4
G3 X56 I-0.5 F50
X57 I0.5
G1 X56.993 Y20.031
X56.974 Y20.055
X56.946 Y20.07
X56.914 Y20.071
X56.886 Y20.058
X56.865 Y20.034
X56.76 Y19.843
X56.751 Y19.812
X56.756 Y19.781
X56.774 Y19.755
X56.801 Y19.74
X56.833 Y19.737
X56.862 Y19.748
Z-4.7 F33
X56.865 Y19.75 Z-4.747
X56.874 Y19.756 Z-4.793
X56.889 Y19.767 Z-4.836
X56.907 Y19.783 Z-4.876
X56.928 Y19.805 Z-4.912
X56.95 Y19.834 Z-4.943
X56.97 Y19.868 Z-4.967
X56.986 Y19.909 Z-4.985
X56.996 Y19.953 Z-4.996
X57 Y20 Z-5
G3 X56 I-0.5 F50
X57 I0.5
G1 X56.993 Y20.031
X56.974 Y20.055
X56.946 Y20.07
X56.914 Y20.071
X56.886 Y20.058
X56.865 Y20.034
X56.76 Y19.843
X56.751 Y19.812
X56.756 Y19.781
X56.774 Y19.755
X56.801 Y19.74
X56.833 Y19.737
X56.862 Y19.748
Z-5.7 F33
X56.865 Y19.75 Z-5.747
X56.874 Y19.756 Z-5.793
X56.889 Y19.767 Z-5.836
X56.907 Y19.783 Z-5.876
X56.928 Y19.805 Z-5.912
X56.95 Y19.834 Z-5.943
X56.97 Y19.868 Z-5.967
X56.986 Y19.909 Z-5.985
X56.996 Y19.953 Z-5.996
X57 Y20 Z-6
G3 X56 I-0.5 F50
X57 I0.5
G1 X56.993 Y20.031
X56.974 Y20.055
X56.946 Y20.07
X56.914 Y20.071
X56.886 Y20.058
X56.865 Y20.034
X56.76 Y19.843
X56.751 Y19.812
X56.756 Y19.781
X56.774 Y19.755
X56.801 Y19.74
X56.833 Y19.737
X56.862 Y19.748
Z-6.7 F33
X56.865 Y19.75 Z-6.747
X56.874 Y19.756 Z-6.793
X56.889 Y19.767 Z-6.836
X56.907 Y19.783 Z-6.876
X56.928 Y19.805 Z-6.912
X56.95 Y19.834 Z-6.943
X56.97 Y19.868 Z-6.967
X56.986 Y19.909 Z-6.985
X56.996 Y19.953 Z-6.996
X57 Y20 Z-7
G3 X56 I-0.5 F50
X57 I0.5
G1 X56.993 Y20.031
X56.974 Y20.055
X56.946 Y20.07
X56.914 Y20.071
X56.886 Y20.058
X56.865 Y20.034
X56.76 Y19.843
X56.751 Y19.812
X56.756 Y19.781
X56.774 Y19.755
X56.801 Y19.74
X56.833 Y19.737
X56.862 Y19.748
Z-7.7 F33
X56.865 Y19.75 Z-7.747
X56.874 Y19.756 Z-7.793
X56.889 Y19.767 Z-7.836
X56.907 Y19.783 Z-7.876
X56.928 Y19.805 Z-7.912
X56.95 Y19.834 Z-7.943
X56.97 Y19.868 Z-7.967
X56.986 Y19.909 Z-7.985
X56.996 Y19.953 Z-7.996
X57 Y20 Z-8
G3 X56 I-0.5 F50
X57 I0.5
G1 X56.993 Y20.031
X56.974 Y20.055
X56.946 Y20.07
X56.914 Y20.071
X56.886 Y20.058
X56.865 Y20.034
X56.76 Y19.843
X56.751 Y19.812
X56.756 Y19.781
X56.774 Y19.755
X56.801 Y19.74
X56.833 Y19.737
X56.862 Y19.748
Z-8.7 F33
X56.865 Y19.75 Z-8.747
X56.874 Y19.756 Z-8.793
X56.889 Y19.767 Z-8.836
X56.907 Y19.783 Z-8.876
X56.928 Y19.805 Z-8.912
X56.95 Y19.834 Z-8.943
X56.97 Y19.868 Z-8.967
X56.986 Y19.909 Z-8.985
X56.996 Y19.953 Z-8.996
X57 Y20 Z-9
G3 X56 I-0.5 F50
X57 I0.5
G1 X56.996 Y20.047 Z-8.996 F100
X56.986 Y20.091 Z-8.985
X56.97 Y20.132 Z-8.967
X56.95 Y20.166 Z-8.943
X56.928 Y20.195 Z-8.912
X56.907 Y20.217 Z-8.876
X56.889 Y20.233 Z-8.836
X56.874 Y20.244 Z-8.793
X56.865 Y20.25 Z-8.747
X56.862 Y20.252 Z-8.7
G0 Z2
X33.999 Y17.5
G1 Z-1 F33
G3 X34.499 I0.25 F50
X33.999 I-0.25
G1 Z-2 F33
G3 X34.499 I0.25 F50
X33.999 I-0.25
G1 Z-3 F33
G3 X34.499 I0.25 F50
X33.999 I-0.25
G1 Z-4 F33
G3 X34.499 I0.25 F50
X33.999 I-0.25
G1 Z-5 F33
G3 X34.499 I0.25 F50
X33.999 I-0.25
G1 Z-6 F33
G3 X34.499 I0.25 F50
X33.999 I-0.25
G1 Z-7 F33
G3 X34.499 I0.25 F50
X33.999 I-0.25
G1 Z-8 F33
G3 X34.499 I0.25 F50
X33.999 I-0.25
G1 Z-9 F33
G3 X34.499 I0.25 F50
X33.999 I-0.25
G1 X34.003 Y17.453 Z-8.996 F100
X34.016 Y17.409 Z-8.985
X34.035 Y17.37 Z-8.967
X34.058 Y17.338 Z-8.943
X34.084 Y17.312 Z-8.912
X34.108 Y17.294 Z-8.876
X34.129 Y17.281 Z-8.836
X34.145 Y17.273 Z-8.793
X34.155 Y17.268 Z-8.747
X34.158 Y17.267 Z-8.7
G0 Z2
X3.249 Y17.75
G1 Z-1 F33
G3 Y17.25 J-0.25 F50
Y17.75 J0.25
G1 Z-2 F33
G3 Y17.25 J-0.25 F50
Y17.75 J0.25
G1 Z-3 F33
G3 Y17.25 J-0.25 F50
Y17.75 J0.25
G1 Z-4 F33
G3 Y17.25 J-0.25 F50
Y17.75 J0.25
G1 Z-5 F33
G3 Y17.25 J-0.25 F50
Y17.75 J0.25
G1 Z-6 F33
G3 Y17.25 J-0.25 F50
Y17.75 J0.25
G1 Z-7 F33
G3 Y17.25 J-0.25 F50
Y17.75 J0.25
G1 Z-8 F33
G3 Y17.25 J-0.25 F50
Y17.75 J0.25
G1 Z-9 F33
G3 Y17.25 J-0.25 F50
Y17.75 J0.25
G1 X3.202 Y17.746 Z-8.996 F100
X3.158 Y17.733 Z-8.985
X3.119 Y17.714 Z-8.967
X3.087 Y17.69 Z-8.943
X3.061 Y17.665 Z-8.912
X3.043 Y17.641 Z-8.876
X3.03 Y17.62 Z-8.836
X3.022 Y17.604 Z-8.793
X3.017 Y17.594 Z-8.747
X3.016 Y17.591 Z-8.7
G0 Z2
X3.249 Y48.25
G1 Z-1 F33
G3 Y48.75 J0.25 F50
Y48.25 J-0.25
G1 Z-2 F33
G3 Y48.75 J0.25 F50
Y48.25 J-0.25
G1 Z-3 F33
G3 Y48.75 J0.25 F50
Y48.25 J-0.25
G1 Z-4 F33
G3 Y48.75 J0.25 F50
Y48.25 J-0.25
G1 Z-5 F33
G3 Y48.75 J0.25 F50
Y48.25 J-0.25
G1 Z-6 F33
G3 Y48.75 J0.25 F50
Y48.25 J-0.25
G1 Z-7 F33
G3 Y48.75 J0.25 F50
Y48.25 J-0.25
G1 Z-8 F33
G3 Y48.75 J0.25 F50
Y48.25 J-0.25
G1 Z-9 F33
G3 Y48.75 J0.25 F50
Y48.25 J-0.25
G1 X3.295 Y48.254 Z-8.996 F100
X3.339 Y48.267 Z-8.985
X3.378 Y48.286 Z-8.967
X3.411 Y48.31 Z-8.943
X3.436 Y48.335 Z-8.912
X3.455 Y48.359 Z-8.876
X3.468 Y48.38 Z-8.836
X3.476 Y48.396 Z-8.793
X3.48 Y48.406 Z-8.747
X3.482 Y48.409 Z-8.7
G0 Z5

(2D Contour1)
X24.349 Y32.7
Z5
Z2
G1 Z-0.7 F33
G18 G2 X24.649 Z-1 I0.3
G1 X24.949 F30
G17 G3 X25.249 Y33 J0.3
X12.249 I-6.5 F50
X25.249 I6.5
X24.949 Y33.3 I-0.3 F100
G1 X24.649
G18 G3 X24.349 Z-0.7 K0.3
G1 Y32.7 F50
Z-1.7 F33
G2 X24.649 Z-2 I0.3
G1 X24.949 F30
G17 G3 X25.249 Y33 J0.3
X12.249 I-6.5 F50
X25.249 I6.5
X24.949 Y33.3 I-0.3 F100
G1 X24.649
G18 G3 X24.349 Z-1.7 K0.3
G1 Y32.7 F50
Z-2.7 F33
G2 X24.649 Z-3 I0.3
G1 X24.949 F30
G17 G3 X25.249 Y33 J0.3
X12.249 I-6.5 F50
X25.249 I6.5
X24.949 Y33.3 I-0.3 F100
G1 X24.649
G18 G3 X24.349 Z-2.7 K0.3
G1 Y32.7 F50
Z-3.7 F33
G2 X24.649 Z-4 I0.3
G1 X24.949 F30
G17 G3 X25.249 Y33 J0.3
X12.249 I-6.5 F50
X25.249 I6.5
X24.949 Y33.3 I-0.3 F100
G1 X24.649
G18 G3 X24.349 Z-3.7 K0.3
G1 Y32.7 F50
Z-4.7 F33
G2 X24.649 Z-5 I0.3
G1 X24.949 F30
G17 G3 X25.249 Y33 J0.3
X12.249 I-6.5 F50
X25.249 I6.5
X24.949 Y33.3 I-0.3 F100
G1 X24.649
G18 G3 X24.349 Z-4.7 K0.3
G1 Y32.7 F50
Z-5.7 F33
G2 X24.649 Z-6 I0.3
G1 X24.949 F30
G17 G3 X25.249 Y33 J0.3
X12.249 I-6.5 F50
X25.249 I6.5
X24.949 Y33.3 I-0.3 F100
G1 X24.649
G18 G3 X24.349 Z-5.7 K0.3
G1 Y32.7 F50
Z-6.7 F33
G2 X24.649 Z-7 I0.3
G1 X24.949 F30
G17 G3 X25.249 Y33 J0.3
X12.249 I-6.5 F50
X25.249 I6.5
X24.949 Y33.3 I-0.3 F100
G1 X24.649
G18 G3 X24.349 Z-6.7 K0.3
G1 Y32.7 F50
Z-7.7 F33
G2 X24.649 Z-8 I0.3
G1 X24.949 F30
G17 G3 X25.249 Y33 J0.3
X12.249 I-6.5 F50
X25.249 I6.5
X24.949 Y33.3 I-0.3 F100
G1 X24.649
G18 G3 X24.349 Z-7.7 K0.3
G1 Y32.7 F50
Z-8.7 F33
G2 X24.649 Z-9 I0.3
G1 X24.949 F30
G17 G3 X25.249 Y33 J0.3
X12.249 I-6.5 F50
X25.249 I6.5
X24.949 Y33.3 I-0.3 F100
G1 X24.649
G18 G3 X24.349 Z-8.7 K0.3
G0 Z2
X9.5 Y56.7
G1 Z-0.7 F33
G2 X9.8 Z-1 I0.3
G1 X10.1 F30
G17 G3 X10.4 Y57 J0.3
X2.6 I-3.9 F50
X10.4 I3.9
X10.1 Y57.3 I-0.3 F100
G1 X9.8
G18 G3 X9.5 Z-0.7 K0.3
G1 Y56.7 F50
Z-1.7 F33
G2 X9.8 Z-2 I0.3
G1 X10.1 F30
G17 G3 X10.4 Y57 J0.3
X2.6 I-3.9 F50
X10.4 I3.9
X10.1 Y57.3 I-0.3 F100
G1 X9.8
G18 G3 X9.5 Z-1.7 K0.3
G1 Y56.7 F50
Z-2.7 F33
G2 X9.8 Z-3 I0.3
G1 X10.1 F30
G17 G3 X10.4 Y57 J0.3
X2.6 I-3.9 F50
X10.4 I3.9
X10.1 Y57.3 I-0.3 F100
G1 X9.8
G18 G3 X9.5 Z-2.7 K0.3
G1 Y56.7 F50
Z-3.7 F33
G2 X9.8 Z-4 I0.3
G1 X10.1 F30
G17 G3 X10.4 Y57 J0.3
X2.6 I-3.9 F50
X10.4 I3.9
X10.1 Y57.3 I-0.3 F100
G1 X9.8
G18 G3 X9.5 Z-3.7 K0.3
G1 Y56.7 F50
Z-4.7 F33
G2 X9.8 Z-5 I0.3
G1 X10.1 F30
G17 G3 X10.4 Y57 J0.3
X2.6 I-3.9 F50
X10.4 I3.9
X10.1 Y57.3 I-0.3 F100
G1 X9.8
G18 G3 X9.5 Z-4.7 K0.3
G1 Y56.7 F50
Z-5.7 F33
G2 X9.8 Z-6 I0.3
G1 X10.1 F30
G17 G3 X10.4 Y57 J0.3
X2.6 I-3.9 F50
X10.4 I3.9
X10.1 Y57.3 I-0.3 F100
G1 X9.8
G18 G3 X9.5 Z-5.7 K0.3
G1 Y56.7 F50
Z-6.7 F33
G2 X9.8 Z-7 I0.3
G1 X10.1 F30
G17 G3 X10.4 Y57 J0.3
X2.6 I-3.9 F50
X10.4 I3.9
X10.1 Y57.3 I-0.3 F100
G1 X9.8
G18 G3 X9.5 Z-6.7 K0.3
G1 Y56.7 F50
Z-7.7 F33
G2 X9.8 Z-8 I0.3
G1 X10.1 F30
G17 G3 X10.4 Y57 J0.3
X2.6 I-3.9 F50
X10.4 I3.9
X10.1 Y57.3 I-0.3 F100
G1 X9.8
G18 G3 X9.5 Z-7.7 K0.3
G1 Y56.7 F50
Z-8.7 F33
G2 X9.8 Z-9 I0.3
G1 X10.1 F30
G17 G3 X10.4 Y57 J0.3
X2.6 I-3.9 F50
X10.4 I3.9
X10.1 Y57.3 I-0.3 F100
G1 X9.8
G18 G3 X9.5 Z-8.7 K0.3
G0 Z2
Y8.7
G1 Z-0.7 F33
G2 X9.8 Z-1 I0.3
G1 X10.1 F30
G17 G3 X10.4 Y9 J0.3
X2.6 I-3.9 F50
X10.4 I3.9
X10.1 Y9.3 I-0.3 F100
G1 X9.8
G18 G3 X9.5 Z-0.7 K0.3
G1 Y8.7 F50
Z-1.7 F33
G2 X9.8 Z-2 I0.3
G1 X10.1 F30
G17 G3 X10.4 Y9 J0.3
X2.6 I-3.9 F50
X10.4 I3.9
X10.1 Y9.3 I-0.3 F100
G1 X9.8
G18 G3 X9.5 Z-1.7 K0.3
G1 Y8.7 F50
Z-2.7 F33
G2 X9.8 Z-3 I0.3
G1 X10.1 F30
G17 G3 X10.4 Y9 J0.3
X2.6 I-3.9 F50
X10.4 I3.9
X10.1 Y9.3 I-0.3 F100
G1 X9.8
G18 G3 X9.5 Z-2.7 K0.3
G1 Y8.7 F50
Z-3.7 F33
G2 X9.8 Z-4 I0.3
G1 X10.1 F30
G17 G3 X10.4 Y9 J0.3
X2.6 I-3.9 F50
X10.4 I3.9
X10.1 Y9.3 I-0.3 F100
G1 X9.8
G18 G3 X9.5 Z-3.7 K0.3
G1 Y8.7 F50
Z-4.7 F33
G2 X9.8 Z-5 I0.3
G1 X10.1 F30
G17 G3 X10.4 Y9 J0.3
X2.6 I-3.9 F50
X10.4 I3.9
X10.1 Y9.3 I-0.3 F100
G1 X9.8
G18 G3 X9.5 Z-4.7 K0.3
G1 Y8.7 F50
Z-5.7 F33
G2 X9.8 Z-6 I0.3
G1 X10.1 F30
G17 G3 X10.4 Y9 J0.3
X2.6 I-3.9 F50
X10.4 I3.9
X10.1 Y9.3 I-0.3 F100
G1 X9.8
G18 G3 X9.5 Z-5.7 K0.3
G1 Y8.7 F50
Z-6.7 F33
G2 X9.8 Z-7 I0.3
G1 X10.1 F30
G17 G3 X10.4 Y9 J0.3
X2.6 I-3.9 F50
X10.4 I3.9
X10.1 Y9.3 I-0.3 F100
G1 X9.8
G18 G3 X9.5 Z-6.7 K0.3
G1 Y8.7 F50
Z-7.7 F33
G2 X9.8 Z-8 I0.3
G1 X10.1 F30
G17 G3 X10.4 Y9 J0.3
X2.6 I-3.9 F50
X10.4 I3.9
X10.1 Y9.3 I-0.3 F100
G1 X9.8
G18 G3 X9.5 Z-7.7 K0.3
G1 Y8.7 F50
Z-8.7 F33
G2 X9.8 Z-9 I0.3
G1 X10.1 F30
G17 G3 X10.4 Y9 J0.3
X2.6 I-3.9 F50
X10.4 I3.9
X10.1 Y9.3 I-0.3 F100
G1 X9.8
G18 G3 X9.5 Z-8.7 K0.3
G0 Z5
G17

(2D Contour2)
G0 X-2.4 Y32.7
Z5
Z2
G1 Z-0.7 F33
G18 G2 X-2.1 Z-1 I0.3
G1 X-1.8 F30
G17 G3 X-1.5 Y33 J0.3
G1 Y66 F60
G2 X0 Y67.5 I1.5
G1 X87.5
G2 X89 Y66 J-1.5
G1 Y0
G2 X87.5 Y-1.5 I-1.5
G1 X0
G2 X-1.5 Y0 J1.5
G1 Y33
G3 X-1.8 Y33.3 I-0.3 F100
G1 X-2.1
G18 G3 X-2.4 Z-0.7 K0.3
G1 Y32.7 F60
Z-1.7 F33
G2 X-2.1 Z-2 I0.3
G1 X-1.8 F30
G17 G3 X-1.5 Y33 J0.3
G1 Y66 F60
G2 X0 Y67.5 I1.5
G1 X87.5
G2 X89 Y66 J-1.5
G1 Y0
G2 X87.5 Y-1.5 I-1.5
G1 X0
G2 X-1.5 Y0 J1.5
G1 Y33
G3 X-1.8 Y33.3 I-0.3 F100
G1 X-2.1
G18 G3 X-2.4 Z-1.7 K0.3
G1 Y32.7 F60
Z-2.7 F33
G2 X-2.1 Z-3 I0.3
G1 X-1.8 F30
G17 G3 X-1.5 Y33 J0.3
G1 Y66 F60
G2 X0 Y67.5 I1.5
G1 X87.5
G2 X89 Y66 J-1.5
G1 Y0
G2 X87.5 Y-1.5 I-1.5
G1 X0
G2 X-1.5 Y0 J1.5
G1 Y33
G3 X-1.8 Y33.3 I-0.3 F100
G1 X-2.1
G18 G3 X-2.4 Z-2.7 K0.3
G1 Y32.7 F60
Z-3.7 F33
G2 X-2.1 Z-4 I0.3
G1 X-1.8 F30
G17 G3 X-1.5 Y33 J0.3
G1 Y66 F60
G2 X0 Y67.5 I1.5
G1 X87.5
G2 X89 Y66 J-1.5
G1 Y0
G2 X87.5 Y-1.5 I-1.5
G1 X0
G2 X-1.5 Y0 J1.5
G1 Y33
G3 X-1.8 Y33.3 I-0.3 F100
G1 X-2.1
G18 G3 X-2.4 Z-3.7 K0.3
G1 Y32.7 F60
Z-4.7 F33
G2 X-2.1 Z-5 I0.3
G1 X-1.8 F30
G17 G3 X-1.5 Y33 J0.3
G1 Y66 F60
G2 X0 Y67.5 I1.5
G1 X87.5
G2 X89 Y66 J-1.5
G1 Y0
G2 X87.5 Y-1.5 I-1.5
G1 X0
G2 X-1.5 Y0 J1.5
G1 Y33
G3 X-1.8 Y33.3 I-0.3 F100
G1 X-2.1
G18 G3 X-2.4 Z-4.7 K0.3
G1 Y32.7 F60
Z-5.7 F33
G2 X-2.1 Z-6 I0.3
G1 X-1.8 F30
G17 G3 X-1.5 Y33 J0.3
G1 Y66 F60
G2 X0 Y67.5 I1.5
G1 X87.5
G2 X89 Y66 J-1.5
G1 Y0
G2 X87.5 Y-1.5 I-1.5
G1 X0
G2 X-1.5 Y0 J1.5
G1 Y33
G3 X-1.8 Y33.3 I-0.3 F100
G1 X-2.1
G18 G3 X-2.4 Z-5.7 K0.3
G1 Y32.7 F60
Z-6.7 F33
G2 X-2.1 Z-7 I0.3
G1 X-1.8 F30
G17 G3 X-1.5 Y33 J0.3
G1 Y66 F60
G2 X0 Y67.5 I1.5
G1 X87.5
G2 X89 Y66 J-1.5
G1 Y0
G2 X87.5 Y-1.5 I-1.5
G1 X0
G2 X-1.5 Y0 J1.5
G1 Y33
G3 X-1.8 Y33.3 I-0.3 F100
G1 X-2.1
G18 G3 X-2.4 Z-6.7 K0.3
G1 Y32.7 F60
Z-7.7 F33
G2 X-2.1 Z-8 I0.3
G1 X-1.8 F30
G17 G3 X-1.5 Y33 J0.3
G1 Y66 F60
G2 X0 Y67.5 I1.5
G1 X87.5
G2 X89 Y66 J-1.5
G1 Y0
G2 X87.5 Y-1.5 I-1.5
G1 X0
G2 X-1.5 Y0 J1.5
G1 Y33
G3 X-1.8 Y33.3 I-0.3 F100
G1 X-2.1
G18 G3 X-2.4 Z-7.7 K0.3
G1 Y32.7 F60
Z-8.7 F33
G2 X-2.1 Z-9 I0.3
G1 X-1.8 F30
G17 G3 X-1.5 Y33 J0.3
G1 Y66 F60
G2 X0 Y67.5 I1.5
G1 X87.5
G2 X89 Y66 J-1.5
G1 Y0
G2 X87.5 Y-1.5 I-1.5
G1 X0
G2 X-1.5 Y0 J1.5
G1 Y33
G3 X-1.8 Y33.3 I-0.3 F100
G1 X-2.1
G18 G3 X-2.4 Z-8.7 K0.3
G0 Z5
G17
M9
G28 G91 Z0
G90
G28 G91 X0 Y0
G90
M30
%
