%
(1001)
(T1  D=3 CR=0.75 - ZMIN=-21 - bullnose end mill)
G90 G94
G17
G21
G28 G91 Z0.5
G90

(2D Pocket1)
M9
T1 M6
S1000 M3
G54
M8
G0 X-0.456 Y9.191
Z2
G1 Z-0.7 F30
G19 G3 Y9.491 Z-1 J0.3
G1 Y11.224
Y26.277 F70
G17 G3 X-1.046 I-0.295
G1 Y18.751
X-0.751 Y11.224
G3 X-0.5 Y10.944 I0.295 J0.012
G1 X0.386 Y10.812
G3 X0.724 Y11.104 I0.043 J0.292
G1 Y26.4
G3 X0.134 I-0.295
G1 Y18.752
X0.429 Y11.104
G3 X0.721 Y10.821 I0.295 J0.011
G1 X1.606 Y10.811
G3 X1.905 Y11.106 I0.003 J0.295
G1 Y26.39
G3 X1.315 I-0.295
G1 Y18.748
X1.61 Y11.106
G3 X1.901 Y10.822 I0.295 J0.011
G1 X2.787 Y10.812
G3 X3.085 Y11.107 I0.003 J0.295
G1 Y26.392
G3 X2.495 I-0.295
G1 Y18.749
X2.79 Y11.107
G3 X3.082 Y10.823 I0.295 J0.011
G1 X3.967 Y10.813
G3 X4.265 Y11.108 I0.003 J0.295
G1 Y26.393
G3 X3.675 I-0.295
G1 Y18.751
X3.97 Y11.108
G3 X4.262 Y10.825 I0.295 J0.011
G1 X5.147 Y10.815
G3 X5.446 Y11.11 I0.003 J0.295
G1 Y26.394
G3 X4.856 I-0.295
G1 Y18.752
X5.151 Y11.11
G3 X5.439 Y10.826 I0.295 J0.011
G1 X6.324 Y10.805
G3 X6.626 Y11.1 I0.007 J0.295
G1 Y26.396
G3 X6.036 I-0.295
G1 Y18.748
X6.331 Y11.1
G3 X6.623 Y10.816 I0.295 J0.011
G1 X7.508 Y10.806
G3 X7.806 Y11.101 I0.003 J0.295
G1 Y26.397
G3 X7.216 I-0.295
G1 Y18.749
X7.511 Y11.101
G3 X7.803 Y10.818 I0.295 J0.011
G1 X8.688 Y10.808
G3 X8.987 Y11.103 I0.003 J0.295
G1 Y26.398
G3 X8.397 I-0.295
G1 Y18.751
X8.692 Y11.103
G3 X8.983 Y10.819 I0.295 J0.011
G1 X9.869 Y10.809
G3 X10.167 Y11.104 I0.003 J0.295
G1 Y26.4
G3 X9.577 I-0.295
G1 Y18.752
X9.872 Y11.104
G3 X10.164 Y10.82 I0.295 J0.011
G1 X11.049 Y10.81
G3 X11.347 Y11.105 I0.003 J0.295
G1 Y26.39
G3 X10.757 I-0.295
G1 Y18.748
X11.052 Y11.105
G3 X11.344 Y10.822 I0.295 J0.011
G1 X12.229 Y10.812
G3 X12.528 Y11.107 I0.003 J0.295
G1 Y18.672
Y19.323
Y26.391
G3 X11.938 I-0.295
G1 Y22.857
X12.233 Y19.323
G3 X12.53 Y19.053 I0.294 J0.025
G1 X13.416 Y19.063
G3 X13.708 Y19.358 I-0.003 J0.295
G1 Y26.393
G3 X13.118 I-0.295
G1 Y22.875
X13.413 Y19.358
G3 X13.699 Y19.088 I0.294 J0.025
G1 X14.586 Y19.064
G3 X14.888 Y19.359 I0.008 J0.295
G1 Y26.394
G3 X14.298 I-0.295
G1 Y22.877
X14.593 Y19.359
G3 X14.879 Y19.089 I0.294 J0.025
G1 X15.727 Y19.065
G3 X16.031 Y19.361 I0.008 J0.295
G1 X16.024 Y25
X16.027 Y26.392
G3 X15.732 Y26.687 I-0.295 J0.001
X15.436 Y26.392 J-0.295
G1 Y22.875
X15.736 Y19.36
G3 X16.019 Y19.09 I0.294 J0.025
G1 X16.943 Y19.056
G3 X17.249 Y19.351 I0.011 J0.295
G1 Y26.397
G3 X16.659 I-0.295
G1 Y22.874
X16.954 Y19.351
G3 X17.24 Y19.081 I0.294 J0.025
G1 X18.127 Y19.057
G3 X18.429 Y19.352 I0.008 J0.295
G1 Y26.398
G3 X17.839 I-0.295
G1 Y22.875
X18.134 Y19.352
G3 X18.421 Y19.082 I0.294 J0.025
G1 X19.307 Y19.059
G3 X19.61 Y19.354 I0.008 J0.295
G1 Y26.4
G3 X19.02 I-0.295
G1 Y22.877
X19.315 Y19.354
G3 X19.601 Y19.083 I0.294 J0.025
G1 X20.487 Y19.06
G3 X20.79 Y19.355 I0.008 J0.295
G1 Y26.39
G3 X20.2 I-0.295
G1 Y22.872
X20.495 Y19.355
G3 X20.781 Y19.085 I0.294 J0.025
G1 X21.668 Y19.061
G3 X21.97 Y19.356 I0.008 J0.295
G1 Y26.391
G3 X21.38 I-0.295
G1 Y22.874
X21.675 Y19.356
G3 X21.962 Y19.086 I0.294 J0.025
G1 X22.848 Y19.063
G3 X23.151 Y19.358 I0.008 J0.295
G1 Y26.393
G3 X22.561 I-0.295
G1 Y22.875
X22.856 Y19.358
G3 X23.142 Y19.087 I0.294 J0.025
G1 X24.028 Y19.064
G3 X24.331 Y19.359 I0.008 J0.295
G1 Y26.394
G3 X23.741 I-0.295
G1 Y22.876
X24.036 Y19.359
G3 X24.322 Y19.089 I0.294 J0.025
G1 X25.209 Y19.065
G3 X25.511 Y19.36 I0.008 J0.295
G1 Y26.395
G3 X24.921 I-0.295
G1 Y22.878
X25.216 Y19.36
G3 X25.499 Y19.09 I0.294 J0.025
G1 X26.385 Y19.056
G3 X26.692 Y19.351 I0.011 J0.295
G1 Y26.397
G3 X26.465 Y26.526 I-0.15
G1 X12.593 Y18.302
X12.563 Y18.279
X12.54 Y18.249
X11.062 Y15.703
X11.048 Y15.669
X11.042 Y15.631
X11.046 Y15.594
X11.059 Y15.558
X13.425 Y11.039
G3 X13.708 Y11.108 I0.133 J0.07
G1 Y18.64
G3 X13.118 I-0.295
G1 Y14.874
X13.413 Y11.108
G3 X13.7 Y10.836 I0.294 J0.023
G1 X14.586 Y10.815
G3 X14.888 Y11.11 I0.007 J0.295
G1 Y18.641
G3 X14.298 I-0.295
G1 Y14.875
X14.593 Y11.11
G3 X14.88 Y10.838 I0.294 J0.023
G1 X15.738 Y10.815
G3 X16.041 Y11.111 I0.008 J0.295
G1 X16.032 Y18.643
G3 X15.441 Y18.642 I-0.295
G1 X15.446 Y14.876
X15.746 Y11.11
G3 X16.029 Y10.839 I0.294 J0.023
G1 X16.943 Y10.806
G3 X17.249 Y11.101 I0.011 J0.295
G1 Y18.644
G3 X16.659 I-0.295
G1 Y14.873
X16.954 Y11.101
G3 X17.241 Y10.829 I0.294 J0.023
G1 X18.127 Y10.808
G3 X18.429 Y11.103 I0.007 J0.295
G1 Y18.645
G3 X17.839 Y18.646 I-0.295
G1 Y14.874
X18.134 Y11.103
G3 X18.421 Y10.831 I0.294 J0.023
G1 X19.307 Y10.809
G3 X19.61 Y11.104 I0.007 J0.295
G1 Y18.647
G3 X19.02 I-0.295
G1 Y14.875
X19.315 Y11.104
G3 X19.602 Y10.832 I0.294 J0.023
G1 X20.488 Y10.81
G3 X20.79 Y11.105 I0.007 J0.295
G1 Y18.648
G3 X20.2 I-0.295
G1 Y14.877
X20.495 Y11.105
G3 X20.782 Y10.833 I0.294 J0.023
G1 X21.668 Y10.812
G3 X21.97 Y11.107 I0.007 J0.295
G1 Y18.65
G3 X21.38 I-0.295
G1 Y14.878
X21.675 Y11.107
G3 X21.962 Y10.835 I0.294 J0.023
G1 X22.848 Y10.813
G3 X23.151 Y11.108 I0.007 J0.295
G1 Y18.64
G3 X22.561 I-0.295
G1 Y14.874
X22.856 Y11.108
G3 X23.143 Y10.836 I0.294 J0.023
G1 X24.029 Y10.814
G3 X24.331 Y11.109 I0.007 J0.295
G1 Y18.641
G3 X23.741 I-0.295
G1 Y14.875
X24.036 Y11.109
G3 X24.323 Y10.837 I0.294 J0.023
G1 X25.209 Y10.816
G3 X25.511 Y11.111 I0.007 J0.295
G1 Y18.643
G3 X24.921 I-0.295
G1 Y14.877
X25.216 Y11.111
G3 X25.5 Y10.839 I0.294 J0.023
G1 X26.386 Y10.806
G3 X26.692 Y11.101 I0.011 J0.295
G1 Y18.644
G3 X26.102 I-0.295
G1 Y14.872
X26.397 Y11.101
G3 X26.684 Y10.829 I0.294 J0.023
G1 X27.57 Y10.807
G3 X27.872 Y11.102 I0.007 J0.295
G1 Y26.398
G3 X27.282 I-0.295
G1 Y18.75
X27.577 Y11.102
G3 X27.868 Y10.819 I0.295 J0.011
G1 X28.754 Y10.809
G3 X29.052 Y11.104 I0.003 J0.295
G1 Y26.399
G3 X28.462 I-0.295
G1 Y18.752
X28.757 Y11.104
G3 X29.049 Y10.82 I0.295 J0.011
G1 X29.934 Y10.81
G3 X30.233 Y11.105 I0.003 J0.295
G1 Y26.39
G3 X29.643 I-0.295
G1 Y18.747
X29.938 Y11.105
G3 X30.229 Y10.821 I0.295 J0.011
G1 X31.115 Y10.811
G3 X31.413 Y11.106 I0.003 J0.295
G1 Y26.391
G3 X30.823 I-0.295
G1 Y18.749
X31.118 Y11.106
G3 X31.409 Y10.823 I0.295 J0.011
G1 X32.295 Y10.813
G3 X32.593 Y11.108 I0.003 J0.295
G1 Y26.392
G3 X32.003 I-0.295
G1 Y18.75
X32.298 Y11.108
G3 X32.59 Y10.824 I0.295 J0.011
G1 X33.475 Y10.814
G3 X33.774 Y11.109 I0.003 J0.295
G1 Y26.394
G3 X33.184 I-0.295
G1 Y18.751
X33.479 Y11.109
G3 X33.77 Y10.825 I0.295 J0.011
G1 X34.656 Y10.815
G3 X34.954 Y11.11 I0.003 J0.295
G1 Y26.395
G3 X34.364 I-0.295
G1 Y18.753
X34.659 Y11.11
G3 X34.947 Y10.827 I0.295 J0.011
G1 X35.832 Y10.806
G3 X36.134 Y11.101 I0.007 J0.295
G1 Y26.396
G3 X35.544 I-0.295
G1 Y18.749
X35.839 Y11.101
G3 X36.131 Y10.817 I0.295 J0.011
G1 X37.016 Y10.807
G3 X37.315 Y11.102 I0.003 J0.295
G1 Y26.398
G3 X36.725 I-0.295
G1 Y18.75
X37.02 Y11.102
G3 X37.207 Y10.839 I0.295 J0.011
G1 X38.097 Y10.49
G3 X38.5 Y10.765 I0.108 J0.275
G1 Y25
Y26.392
G3 X38.222 Y26.576 I-0.2
G1 X-0.178 Y10.428
G2 X-0.456 Y10.613 I-0.078 J0.184
G19 G2 Y10.913 Z-1.3 K-0.3 F30
G1 Z-1.7
G3 Y11.213 Z-2 J0.3
G1 Y11.224
Y26.277 F70
G17 G3 X-1.046 I-0.295
G1 Y18.751
X-0.751 Y11.224
G3 X-0.5 Y10.944 I0.295 J0.012
G1 X0.386 Y10.812
G3 X0.724 Y11.104 I0.043 J0.292
G1 Y26.4
G3 X0.134 I-0.295
G1 Y18.752
X0.429 Y11.104
G3 X0.721 Y10.821 I0.295 J0.011
G1 X1.606 Y10.811
G3 X1.905 Y11.106 I0.003 J0.295
G1 Y26.39
G3 X1.315 I-0.295
G1 Y18.748
X1.61 Y11.106
G3 X1.901 Y10.822 I0.295 J0.011
G1 X2.787 Y10.812
G3 X3.085 Y11.107 I0.003 J0.295
G1 Y26.392
G3 X2.495 I-0.295
G1 Y18.749
X2.79 Y11.107
G3 X3.082 Y10.823 I0.295 J0.011
G1 X3.967 Y10.813
G3 X4.265 Y11.108 I0.003 J0.295
G1 Y26.393
G3 X3.675 I-0.295
G1 Y18.751
X3.97 Y11.108
G3 X4.262 Y10.825 I0.295 J0.011
G1 X5.147 Y10.815
G3 X5.446 Y11.11 I0.003 J0.295
G1 Y26.394
G3 X4.856 I-0.295
G1 Y18.752
X5.151 Y11.11
G3 X5.439 Y10.826 I0.295 J0.011
G1 X6.324 Y10.805
G3 X6.626 Y11.1 I0.007 J0.295
G1 Y26.396
G3 X6.036 I-0.295
G1 Y18.748
X6.331 Y11.1
G3 X6.623 Y10.816 I0.295 J0.011
G1 X7.508 Y10.806
G3 X7.806 Y11.101 I0.003 J0.295
G1 Y26.397
G3 X7.216 I-0.295
G1 Y18.749
X7.511 Y11.101
G3 X7.803 Y10.818 I0.295 J0.011
G1 X8.688 Y10.808
G3 X8.987 Y11.103 I0.003 J0.295
G1 Y26.398
G3 X8.397 I-0.295
G1 Y18.751
X8.692 Y11.103
G3 X8.983 Y10.819 I0.295 J0.011
G1 X9.869 Y10.809
G3 X10.167 Y11.104 I0.003 J0.295
G1 Y26.4
G3 X9.577 I-0.295
G1 Y18.752
X9.872 Y11.104
G3 X10.164 Y10.82 I0.295 J0.011
G1 X11.049 Y10.81
G3 X11.347 Y11.105 I0.003 J0.295
G1 Y26.39
G3 X10.757 I-0.295
G1 Y18.748
X11.052 Y11.105
G3 X11.344 Y10.822 I0.295 J0.011
G1 X12.229 Y10.812
G3 X12.528 Y11.107 I0.003 J0.295
G1 Y18.672
Y19.323
Y26.391
G3 X11.938 I-0.295
G1 Y22.857
X12.233 Y19.323
G3 X12.53 Y19.053 I0.294 J0.025
G1 X13.416 Y19.063
G3 X13.708 Y19.358 I-0.003 J0.295
G1 Y26.393
G3 X13.118 I-0.295
G1 Y22.875
X13.413 Y19.358
G3 X13.699 Y19.088 I0.294 J0.025
G1 X14.586 Y19.064
G3 X14.888 Y19.359 I0.008 J0.295
G1 Y26.394
G3 X14.298 I-0.295
G1 Y22.877
X14.593 Y19.359
G3 X14.879 Y19.089 I0.294 J0.025
G1 X15.727 Y19.065
G3 X16.031 Y19.361 I0.008 J0.295
G1 X16.024 Y25
X16.027 Y26.392
G3 X15.732 Y26.687 I-0.295 J0.001
X15.436 Y26.392 J-0.295
G1 Y22.875
X15.736 Y19.36
G3 X16.019 Y19.09 I0.294 J0.025
G1 X16.943 Y19.056
G3 X17.249 Y19.351 I0.011 J0.295
G1 Y26.397
G3 X16.659 I-0.295
G1 Y22.874
X16.954 Y19.351
G3 X17.24 Y19.081 I0.294 J0.025
G1 X18.127 Y19.057
G3 X18.429 Y19.352 I0.008 J0.295
G1 Y26.398
G3 X17.839 I-0.295
G1 Y22.875
X18.134 Y19.352
G3 X18.421 Y19.082 I0.294 J0.025
G1 X19.307 Y19.059
G3 X19.61 Y19.354 I0.008 J0.295
G1 Y26.4
G3 X19.02 I-0.295
G1 Y22.877
X19.315 Y19.354
G3 X19.601 Y19.083 I0.294 J0.025
G1 X20.487 Y19.06
G3 X20.79 Y19.355 I0.008 J0.295
G1 Y26.39
G3 X20.2 I-0.295
G1 Y22.872
X20.495 Y19.355
G3 X20.781 Y19.085 I0.294 J0.025
G1 X21.668 Y19.061
G3 X21.97 Y19.356 I0.008 J0.295
G1 Y26.391
G3 X21.38 I-0.295
G1 Y22.874
X21.675 Y19.356
G3 X21.962 Y19.086 I0.294 J0.025
G1 X22.848 Y19.063
G3 X23.151 Y19.358 I0.008 J0.295
G1 Y26.393
G3 X22.561 I-0.295
G1 Y22.875
X22.856 Y19.358
G3 X23.142 Y19.087 I0.294 J0.025
G1 X24.028 Y19.064
G3 X24.331 Y19.359 I0.008 J0.295
G1 Y26.394
G3 X23.741 I-0.295
G1 Y22.876
X24.036 Y19.359
G3 X24.322 Y19.089 I0.294 J0.025
G1 X25.209 Y19.065
G3 X25.511 Y19.36 I0.008 J0.295
G1 Y26.395
G3 X24.921 I-0.295
G1 Y22.878
X25.216 Y19.36
G3 X25.499 Y19.09 I0.294 J0.025
G1 X26.385 Y19.056
G3 X26.692 Y19.351 I0.011 J0.295
G1 Y26.397
G3 X26.465 Y26.526 I-0.15
G1 X12.593 Y18.302
X12.563 Y18.279
X12.54 Y18.249
X11.062 Y15.703
X11.048 Y15.669
X11.042 Y15.631
X11.046 Y15.594
X11.059 Y15.558
X13.425 Y11.039
G3 X13.708 Y11.108 I0.133 J0.07
G1 Y18.64
G3 X13.118 I-0.295
G1 Y14.874
X13.413 Y11.108
G3 X13.7 Y10.836 I0.294 J0.023
G1 X14.586 Y10.815
G3 X14.888 Y11.11 I0.007 J0.295
G1 Y18.641
G3 X14.298 I-0.295
G1 Y14.875
X14.593 Y11.11
G3 X14.88 Y10.838 I0.294 J0.023
G1 X15.738 Y10.815
G3 X16.041 Y11.111 I0.008 J0.295
G1 X16.032 Y18.643
G3 X15.441 Y18.642 I-0.295
G1 X15.446 Y14.876
X15.746 Y11.11
G3 X16.029 Y10.839 I0.294 J0.023
G1 X16.943 Y10.806
G3 X17.249 Y11.101 I0.011 J0.295
G1 Y18.644
G3 X16.659 I-0.295
G1 Y14.873
X16.954 Y11.101
G3 X17.241 Y10.829 I0.294 J0.023
G1 X18.127 Y10.808
G3 X18.429 Y11.103 I0.007 J0.295
G1 Y18.645
G3 X17.839 Y18.646 I-0.295
G1 Y14.874
X18.134 Y11.103
G3 X18.421 Y10.831 I0.294 J0.023
G1 X19.307 Y10.809
G3 X19.61 Y11.104 I0.007 J0.295
G1 Y18.647
G3 X19.02 I-0.295
G1 Y14.875
X19.315 Y11.104
G3 X19.602 Y10.832 I0.294 J0.023
G1 X20.488 Y10.81
G3 X20.79 Y11.105 I0.007 J0.295
G1 Y18.648
G3 X20.2 I-0.295
G1 Y14.877
X20.495 Y11.105
G3 X20.782 Y10.833 I0.294 J0.023
G1 X21.668 Y10.812
G3 X21.97 Y11.107 I0.007 J0.295
G1 Y18.65
G3 X21.38 I-0.295
G1 Y14.878
X21.675 Y11.107
G3 X21.962 Y10.835 I0.294 J0.023
G1 X22.848 Y10.813
G3 X23.151 Y11.108 I0.007 J0.295
G1 Y18.64
G3 X22.561 I-0.295
G1 Y14.874
X22.856 Y11.108
G3 X23.143 Y10.836 I0.294 J0.023
G1 X24.029 Y10.814
G3 X24.331 Y11.109 I0.007 J0.295
G1 Y18.641
G3 X23.741 I-0.295
G1 Y14.875
X24.036 Y11.109
G3 X24.323 Y10.837 I0.294 J0.023
G1 X25.209 Y10.816
G3 X25.511 Y11.111 I0.007 J0.295
G1 Y18.643
G3 X24.921 I-0.295
G1 Y14.877
X25.216 Y11.111
G3 X25.5 Y10.839 I0.294 J0.023
G1 X26.386 Y10.806
G3 X26.692 Y11.101 I0.011 J0.295
G1 Y18.644
G3 X26.102 I-0.295
G1 Y14.872
X26.397 Y11.101
G3 X26.684 Y10.829 I0.294 J0.023
G1 X27.57 Y10.807
G3 X27.872 Y11.102 I0.007 J0.295
G1 Y26.398
G3 X27.282 I-0.295
G1 Y18.75
X27.577 Y11.102
G3 X27.868 Y10.819 I0.295 J0.011
G1 X28.754 Y10.809
G3 X29.052 Y11.104 I0.003 J0.295
G1 Y26.399
G3 X28.462 I-0.295
G1 Y18.752
X28.757 Y11.104
G3 X29.049 Y10.82 I0.295 J0.011
G1 X29.934 Y10.81
G3 X30.233 Y11.105 I0.003 J0.295
G1 Y26.39
G3 X29.643 I-0.295
G1 Y18.747
X29.938 Y11.105
G3 X30.229 Y10.821 I0.295 J0.011
G1 X31.115 Y10.811
G3 X31.413 Y11.106 I0.003 J0.295
G1 Y26.391
G3 X30.823 I-0.295
G1 Y18.749
X31.118 Y11.106
G3 X31.409 Y10.823 I0.295 J0.011
G1 X32.295 Y10.813
G3 X32.593 Y11.108 I0.003 J0.295
G1 Y26.392
G3 X32.003 I-0.295
G1 Y18.75
X32.298 Y11.108
G3 X32.59 Y10.824 I0.295 J0.011
G1 X33.475 Y10.814
G3 X33.774 Y11.109 I0.003 J0.295
G1 Y26.394
G3 X33.184 I-0.295
G1 Y18.751
X33.479 Y11.109
G3 X33.77 Y10.825 I0.295 J0.011
G1 X34.656 Y10.815
G3 X34.954 Y11.11 I0.003 J0.295
G1 Y26.395
G3 X34.364 I-0.295
G1 Y18.753
X34.659 Y11.11
G3 X34.947 Y10.827 I0.295 J0.011
G1 X35.832 Y10.806
G3 X36.134 Y11.101 I0.007 J0.295
G1 Y26.396
G3 X35.544 I-0.295
G1 Y18.749
X35.839 Y11.101
G3 X36.131 Y10.817 I0.295 J0.011
G1 X37.016 Y10.807
G3 X37.315 Y11.102 I0.003 J0.295
G1 Y26.398
G3 X36.725 I-0.295
G1 Y18.75
X37.02 Y11.102
G3 X37.207 Y10.839 I0.295 J0.011
G1 X38.097 Y10.49
G3 X38.5 Y10.765 I0.108 J0.275
G1 Y25
Y26.392
G3 X38.222 Y26.576 I-0.2
G1 X-0.178 Y10.428
G2 X-0.456 Y10.613 I-0.078 J0.184
G19 G2 Y10.913 Z-2.3 K-0.3 F30
G1 Z-2.7
G3 Y11.213 Z-3 J0.3
G1 Y11.224
Y26.277 F70
G17 G3 X-1.046 I-0.295
G1 Y18.751
X-0.751 Y11.224
G3 X-0.5 Y10.944 I0.295 J0.012
G1 X0.386 Y10.812
G3 X0.724 Y11.104 I0.043 J0.292
G1 Y26.4
G3 X0.134 I-0.295
G1 Y18.752
X0.429 Y11.104
G3 X0.721 Y10.821 I0.295 J0.011
G1 X1.606 Y10.811
G3 X1.905 Y11.106 I0.003 J0.295
G1 Y26.39
G3 X1.315 I-0.295
G1 Y18.748
X1.61 Y11.106
G3 X1.901 Y10.822 I0.295 J0.011
G1 X2.787 Y10.812
G3 X3.085 Y11.107 I0.003 J0.295
G1 Y26.392
G3 X2.495 I-0.295
G1 Y18.749
X2.79 Y11.107
G3 X3.082 Y10.823 I0.295 J0.011
G1 X3.967 Y10.813
G3 X4.265 Y11.108 I0.003 J0.295
G1 Y26.393
G3 X3.675 I-0.295
G1 Y18.751
X3.97 Y11.108
G3 X4.262 Y10.825 I0.295 J0.011
G1 X5.147 Y10.815
G3 X5.446 Y11.11 I0.003 J0.295
G1 Y26.394
G3 X4.856 I-0.295
G1 Y18.752
X5.151 Y11.11
G3 X5.439 Y10.826 I0.295 J0.011
G1 X6.324 Y10.805
G3 X6.626 Y11.1 I0.007 J0.295
G1 Y26.396
G3 X6.036 I-0.295
G1 Y18.748
X6.331 Y11.1
G3 X6.623 Y10.816 I0.295 J0.011
G1 X7.508 Y10.806
G3 X7.806 Y11.101 I0.003 J0.295
G1 Y26.397
G3 X7.216 I-0.295
G1 Y18.749
X7.511 Y11.101
G3 X7.803 Y10.818 I0.295 J0.011
G1 X8.688 Y10.808
G3 X8.987 Y11.103 I0.003 J0.295
G1 Y26.398
G3 X8.397 I-0.295
G1 Y18.751
X8.692 Y11.103
G3 X8.983 Y10.819 I0.295 J0.011
G1 X9.869 Y10.809
G3 X10.167 Y11.104 I0.003 J0.295
G1 Y26.4
G3 X9.577 I-0.295
G1 Y18.752
X9.872 Y11.104
G3 X10.164 Y10.82 I0.295 J0.011
G1 X11.049 Y10.81
G3 X11.347 Y11.105 I0.003 J0.295
G1 Y26.39
G3 X10.757 I-0.295
G1 Y18.748
X11.052 Y11.105
G3 X11.344 Y10.822 I0.295 J0.011
G1 X12.229 Y10.812
G3 X12.528 Y11.107 I0.003 J0.295
G1 Y18.672
Y19.323
Y26.391
G3 X11.938 I-0.295
G1 Y22.857
X12.233 Y19.323
G3 X12.53 Y19.053 I0.294 J0.025
G1 X13.416 Y19.063
G3 X13.708 Y19.358 I-0.003 J0.295
G1 Y26.393
G3 X13.118 I-0.295
G1 Y22.875
X13.413 Y19.358
G3 X13.699 Y19.088 I0.294 J0.025
G1 X14.586 Y19.064
G3 X14.888 Y19.359 I0.008 J0.295
G1 Y26.394
G3 X14.298 I-0.295
G1 Y22.877
X14.593 Y19.359
G3 X14.879 Y19.089 I0.294 J0.025
G1 X15.727 Y19.065
G3 X16.031 Y19.361 I0.008 J0.295
G1 X16.024 Y25
X16.027 Y26.392
G3 X15.732 Y26.687 I-0.295 J0.001
X15.436 Y26.392 J-0.295
G1 Y22.875
X15.736 Y19.36
G3 X16.019 Y19.09 I0.294 J0.025
G1 X16.943 Y19.056
G3 X17.249 Y19.351 I0.011 J0.295
G1 Y26.397
G3 X16.659 I-0.295
G1 Y22.874
X16.954 Y19.351
G3 X17.24 Y19.081 I0.294 J0.025
G1 X18.127 Y19.057
G3 X18.429 Y19.352 I0.008 J0.295
G1 Y26.398
G3 X17.839 I-0.295
G1 Y22.875
X18.134 Y19.352
G3 X18.421 Y19.082 I0.294 J0.025
G1 X19.307 Y19.059
G3 X19.61 Y19.354 I0.008 J0.295
G1 Y26.4
G3 X19.02 I-0.295
G1 Y22.877
X19.315 Y19.354
G3 X19.601 Y19.083 I0.294 J0.025
G1 X20.487 Y19.06
G3 X20.79 Y19.355 I0.008 J0.295
G1 Y26.39
G3 X20.2 I-0.295
G1 Y22.872
X20.495 Y19.355
G3 X20.781 Y19.085 I0.294 J0.025
G1 X21.668 Y19.061
G3 X21.97 Y19.356 I0.008 J0.295
G1 Y26.391
G3 X21.38 I-0.295
G1 Y22.874
X21.675 Y19.356
G3 X21.962 Y19.086 I0.294 J0.025
G1 X22.848 Y19.063
G3 X23.151 Y19.358 I0.008 J0.295
G1 Y26.393
G3 X22.561 I-0.295
G1 Y22.875
X22.856 Y19.358
G3 X23.142 Y19.087 I0.294 J0.025
G1 X24.028 Y19.064
G3 X24.331 Y19.359 I0.008 J0.295
G1 Y26.394
G3 X23.741 I-0.295
G1 Y22.876
X24.036 Y19.359
G3 X24.322 Y19.089 I0.294 J0.025
G1 X25.209 Y19.065
G3 X25.511 Y19.36 I0.008 J0.295
G1 Y26.395
G3 X24.921 I-0.295
G1 Y22.878
X25.216 Y19.36
G3 X25.499 Y19.09 I0.294 J0.025
G1 X26.385 Y19.056
G3 X26.692 Y19.351 I0.011 J0.295
G1 Y26.397
G3 X26.465 Y26.526 I-0.15
G1 X12.593 Y18.302
X12.563 Y18.279
X12.54 Y18.249
X11.062 Y15.703
X11.048 Y15.669
X11.042 Y15.631
X11.046 Y15.594
X11.059 Y15.558
X13.425 Y11.039
G3 X13.708 Y11.108 I0.133 J0.07
G1 Y18.64
G3 X13.118 I-0.295
G1 Y14.874
X13.413 Y11.108
G3 X13.7 Y10.836 I0.294 J0.023
G1 X14.586 Y10.815
G3 X14.888 Y11.11 I0.007 J0.295
G1 Y18.641
G3 X14.298 I-0.295
G1 Y14.875
X14.593 Y11.11
G3 X14.88 Y10.838 I0.294 J0.023
G1 X15.738 Y10.815
G3 X16.041 Y11.111 I0.008 J0.295
G1 X16.032 Y18.643
G3 X15.441 Y18.642 I-0.295
G1 X15.446 Y14.876
X15.746 Y11.11
G3 X16.029 Y10.839 I0.294 J0.023
G1 X16.943 Y10.806
G3 X17.249 Y11.101 I0.011 J0.295
G1 Y18.644
G3 X16.659 I-0.295
G1 Y14.873
X16.954 Y11.101
G3 X17.241 Y10.829 I0.294 J0.023
G1 X18.127 Y10.808
G3 X18.429 Y11.103 I0.007 J0.295
G1 Y18.645
G3 X17.839 Y18.646 I-0.295
G1 Y14.874
X18.134 Y11.103
G3 X18.421 Y10.831 I0.294 J0.023
G1 X19.307 Y10.809
G3 X19.61 Y11.104 I0.007 J0.295
G1 Y18.647
G3 X19.02 I-0.295
G1 Y14.875
X19.315 Y11.104
G3 X19.602 Y10.832 I0.294 J0.023
G1 X20.488 Y10.81
G3 X20.79 Y11.105 I0.007 J0.295
G1 Y18.648
G3 X20.2 I-0.295
G1 Y14.877
X20.495 Y11.105
G3 X20.782 Y10.833 I0.294 J0.023
G1 X21.668 Y10.812
G3 X21.97 Y11.107 I0.007 J0.295
G1 Y18.65
G3 X21.38 I-0.295
G1 Y14.878
X21.675 Y11.107
G3 X21.962 Y10.835 I0.294 J0.023
G1 X22.848 Y10.813
G3 X23.151 Y11.108 I0.007 J0.295
G1 Y18.64
G3 X22.561 I-0.295
G1 Y14.874
X22.856 Y11.108
G3 X23.143 Y10.836 I0.294 J0.023
G1 X24.029 Y10.814
G3 X24.331 Y11.109 I0.007 J0.295
G1 Y18.641
G3 X23.741 I-0.295
G1 Y14.875
X24.036 Y11.109
G3 X24.323 Y10.837 I0.294 J0.023
G1 X25.209 Y10.816
G3 X25.511 Y11.111 I0.007 J0.295
G1 Y18.643
G3 X24.921 I-0.295
G1 Y14.877
X25.216 Y11.111
G3 X25.5 Y10.839 I0.294 J0.023
G1 X26.386 Y10.806
G3 X26.692 Y11.101 I0.011 J0.295
G1 Y18.644
G3 X26.102 I-0.295
G1 Y14.872
X26.397 Y11.101
G3 X26.684 Y10.829 I0.294 J0.023
G1 X27.57 Y10.807
G3 X27.872 Y11.102 I0.007 J0.295
G1 Y26.398
G3 X27.282 I-0.295
G1 Y18.75
X27.577 Y11.102
G3 X27.868 Y10.819 I0.295 J0.011
G1 X28.754 Y10.809
G3 X29.052 Y11.104 I0.003 J0.295
G1 Y26.399
G3 X28.462 I-0.295
G1 Y18.752
X28.757 Y11.104
G3 X29.049 Y10.82 I0.295 J0.011
G1 X29.934 Y10.81
G3 X30.233 Y11.105 I0.003 J0.295
G1 Y26.39
G3 X29.643 I-0.295
G1 Y18.747
X29.938 Y11.105
G3 X30.229 Y10.821 I0.295 J0.011
G1 X31.115 Y10.811
G3 X31.413 Y11.106 I0.003 J0.295
G1 Y26.391
G3 X30.823 I-0.295
G1 Y18.749
X31.118 Y11.106
G3 X31.409 Y10.823 I0.295 J0.011
G1 X32.295 Y10.813
G3 X32.593 Y11.108 I0.003 J0.295
G1 Y26.392
G3 X32.003 I-0.295
G1 Y18.75
X32.298 Y11.108
G3 X32.59 Y10.824 I0.295 J0.011
G1 X33.475 Y10.814
G3 X33.774 Y11.109 I0.003 J0.295
G1 Y26.394
G3 X33.184 I-0.295
G1 Y18.751
X33.479 Y11.109
G3 X33.77 Y10.825 I0.295 J0.011
G1 X34.656 Y10.815
G3 X34.954 Y11.11 I0.003 J0.295
G1 Y26.395
G3 X34.364 I-0.295
G1 Y18.753
X34.659 Y11.11
G3 X34.947 Y10.827 I0.295 J0.011
G1 X35.832 Y10.806
G3 X36.134 Y11.101 I0.007 J0.295
G1 Y26.396
G3 X35.544 I-0.295
G1 Y18.749
X35.839 Y11.101
G3 X36.131 Y10.817 I0.295 J0.011
G1 X37.016 Y10.807
G3 X37.315 Y11.102 I0.003 J0.295
G1 Y26.398
G3 X36.725 I-0.295
G1 Y18.75
X37.02 Y11.102
G3 X37.207 Y10.839 I0.295 J0.011
G1 X38.097 Y10.49
G3 X38.5 Y10.765 I0.108 J0.275
G1 Y25
Y26.392
G3 X38.222 Y26.576 I-0.2
G1 X-0.178 Y10.428
G2 X-0.456 Y10.613 I-0.078 J0.184
G19 G2 Y10.913 Z-3.3 K-0.3 F30
G1 Z-3.7
G3 Y11.213 Z-4 J0.3
G1 Y11.224
Y26.277 F70
G17 G3 X-1.046 I-0.295
G1 Y18.751
X-0.751 Y11.224
G3 X-0.5 Y10.944 I0.295 J0.012
G1 X0.386 Y10.812
G3 X0.724 Y11.104 I0.043 J0.292
G1 Y26.4
G3 X0.134 I-0.295
G1 Y18.752
X0.429 Y11.104
G3 X0.721 Y10.821 I0.295 J0.011
G1 X1.606 Y10.811
G3 X1.905 Y11.106 I0.003 J0.295
G1 Y26.39
G3 X1.315 I-0.295
G1 Y18.748
X1.61 Y11.106
G3 X1.901 Y10.822 I0.295 J0.011
G1 X2.787 Y10.812
G3 X3.085 Y11.107 I0.003 J0.295
G1 Y26.392
G3 X2.495 I-0.295
G1 Y18.749
X2.79 Y11.107
G3 X3.082 Y10.823 I0.295 J0.011
G1 X3.967 Y10.813
G3 X4.265 Y11.108 I0.003 J0.295
G1 Y26.393
G3 X3.675 I-0.295
G1 Y18.751
X3.97 Y11.108
G3 X4.262 Y10.825 I0.295 J0.011
G1 X5.147 Y10.815
G3 X5.446 Y11.11 I0.003 J0.295
G1 Y26.394
G3 X4.856 I-0.295
G1 Y18.752
X5.151 Y11.11
G3 X5.439 Y10.826 I0.295 J0.011
G1 X6.324 Y10.805
G3 X6.626 Y11.1 I0.007 J0.295
G1 Y26.396
G3 X6.036 I-0.295
G1 Y18.748
X6.331 Y11.1
G3 X6.623 Y10.816 I0.295 J0.011
G1 X7.508 Y10.806
G3 X7.806 Y11.101 I0.003 J0.295
G1 Y26.397
G3 X7.216 I-0.295
G1 Y18.749
X7.511 Y11.101
G3 X7.803 Y10.818 I0.295 J0.011
G1 X8.688 Y10.808
G3 X8.987 Y11.103 I0.003 J0.295
G1 Y26.398
G3 X8.397 I-0.295
G1 Y18.751
X8.692 Y11.103
G3 X8.983 Y10.819 I0.295 J0.011
G1 X9.869 Y10.809
G3 X10.167 Y11.104 I0.003 J0.295
G1 Y26.4
G3 X9.577 I-0.295
G1 Y18.752
X9.872 Y11.104
G3 X10.164 Y10.82 I0.295 J0.011
G1 X11.049 Y10.81
G3 X11.347 Y11.105 I0.003 J0.295
G1 Y26.39
G3 X10.757 I-0.295
G1 Y18.748
X11.052 Y11.105
G3 X11.344 Y10.822 I0.295 J0.011
G1 X12.229 Y10.812
G3 X12.528 Y11.107 I0.003 J0.295
G1 Y18.672
Y19.323
Y26.391
G3 X11.938 I-0.295
G1 Y22.857
X12.233 Y19.323
G3 X12.53 Y19.053 I0.294 J0.025
G1 X13.416 Y19.063
G3 X13.708 Y19.358 I-0.003 J0.295
G1 Y26.393
G3 X13.118 I-0.295
G1 Y22.875
X13.413 Y19.358
G3 X13.699 Y19.088 I0.294 J0.025
G1 X14.586 Y19.064
G3 X14.888 Y19.359 I0.008 J0.295
G1 Y26.394
G3 X14.298 I-0.295
G1 Y22.877
X14.593 Y19.359
G3 X14.879 Y19.089 I0.294 J0.025
G1 X15.727 Y19.065
G3 X16.031 Y19.361 I0.008 J0.295
G1 X16.024 Y25
X16.027 Y26.392
G3 X15.732 Y26.687 I-0.295 J0.001
X15.436 Y26.392 J-0.295
G1 Y22.875
X15.736 Y19.36
G3 X16.019 Y19.09 I0.294 J0.025
G1 X16.943 Y19.056
G3 X17.249 Y19.351 I0.011 J0.295
G1 Y26.397
G3 X16.659 I-0.295
G1 Y22.874
X16.954 Y19.351
G3 X17.24 Y19.081 I0.294 J0.025
G1 X18.127 Y19.057
G3 X18.429 Y19.352 I0.008 J0.295
G1 Y26.398
G3 X17.839 I-0.295
G1 Y22.875
X18.134 Y19.352
G3 X18.421 Y19.082 I0.294 J0.025
G1 X19.307 Y19.059
G3 X19.61 Y19.354 I0.008 J0.295
G1 Y26.4
G3 X19.02 I-0.295
G1 Y22.877
X19.315 Y19.354
G3 X19.601 Y19.083 I0.294 J0.025
G1 X20.487 Y19.06
G3 X20.79 Y19.355 I0.008 J0.295
G1 Y26.39
G3 X20.2 I-0.295
G1 Y22.872
X20.495 Y19.355
G3 X20.781 Y19.085 I0.294 J0.025
G1 X21.668 Y19.061
G3 X21.97 Y19.356 I0.008 J0.295
G1 Y26.391
G3 X21.38 I-0.295
G1 Y22.874
X21.675 Y19.356
G3 X21.962 Y19.086 I0.294 J0.025
G1 X22.848 Y19.063
G3 X23.151 Y19.358 I0.008 J0.295
G1 Y26.393
G3 X22.561 I-0.295
G1 Y22.875
X22.856 Y19.358
G3 X23.142 Y19.087 I0.294 J0.025
G1 X24.028 Y19.064
G3 X24.331 Y19.359 I0.008 J0.295
G1 Y26.394
G3 X23.741 I-0.295
G1 Y22.876
X24.036 Y19.359
G3 X24.322 Y19.089 I0.294 J0.025
G1 X25.209 Y19.065
G3 X25.511 Y19.36 I0.008 J0.295
G1 Y26.395
G3 X24.921 I-0.295
G1 Y22.878
X25.216 Y19.36
G3 X25.499 Y19.09 I0.294 J0.025
G1 X26.385 Y19.056
G3 X26.692 Y19.351 I0.011 J0.295
G1 Y26.397
G3 X26.465 Y26.526 I-0.15
G1 X12.593 Y18.302
X12.563 Y18.279
X12.54 Y18.249
X11.062 Y15.703
X11.048 Y15.669
X11.042 Y15.631
X11.046 Y15.594
X11.059 Y15.558
X13.425 Y11.039
G3 X13.708 Y11.108 I0.133 J0.07
G1 Y18.64
G3 X13.118 I-0.295
G1 Y14.874
X13.413 Y11.108
G3 X13.7 Y10.836 I0.294 J0.023
G1 X14.586 Y10.815
G3 X14.888 Y11.11 I0.007 J0.295
G1 Y18.641
G3 X14.298 I-0.295
G1 Y14.875
X14.593 Y11.11
G3 X14.88 Y10.838 I0.294 J0.023
G1 X15.738 Y10.815
G3 X16.041 Y11.111 I0.008 J0.295
G1 X16.032 Y18.643
G3 X15.441 Y18.642 I-0.295
G1 X15.446 Y14.876
X15.746 Y11.11
G3 X16.029 Y10.839 I0.294 J0.023
G1 X16.943 Y10.806
G3 X17.249 Y11.101 I0.011 J0.295
G1 Y18.644
G3 X16.659 I-0.295
G1 Y14.873
X16.954 Y11.101
G3 X17.241 Y10.829 I0.294 J0.023
G1 X18.127 Y10.808
G3 X18.429 Y11.103 I0.007 J0.295
G1 Y18.645
G3 X17.839 Y18.646 I-0.295
G1 Y14.874
X18.134 Y11.103
G3 X18.421 Y10.831 I0.294 J0.023
G1 X19.307 Y10.809
G3 X19.61 Y11.104 I0.007 J0.295
G1 Y18.647
G3 X19.02 I-0.295
G1 Y14.875
X19.315 Y11.104
G3 X19.602 Y10.832 I0.294 J0.023
G1 X20.488 Y10.81
G3 X20.79 Y11.105 I0.007 J0.295
G1 Y18.648
G3 X20.2 I-0.295
G1 Y14.877
X20.495 Y11.105
G3 X20.782 Y10.833 I0.294 J0.023
G1 X21.668 Y10.812
G3 X21.97 Y11.107 I0.007 J0.295
G1 Y18.65
G3 X21.38 I-0.295
G1 Y14.878
X21.675 Y11.107
G3 X21.962 Y10.835 I0.294 J0.023
G1 X22.848 Y10.813
G3 X23.151 Y11.108 I0.007 J0.295
G1 Y18.64
G3 X22.561 I-0.295
G1 Y14.874
X22.856 Y11.108
G3 X23.143 Y10.836 I0.294 J0.023
G1 X24.029 Y10.814
G3 X24.331 Y11.109 I0.007 J0.295
G1 Y18.641
G3 X23.741 I-0.295
G1 Y14.875
X24.036 Y11.109
G3 X24.323 Y10.837 I0.294 J0.023
G1 X25.209 Y10.816
G3 X25.511 Y11.111 I0.007 J0.295
G1 Y18.643
G3 X24.921 I-0.295
G1 Y14.877
X25.216 Y11.111
G3 X25.5 Y10.839 I0.294 J0.023
G1 X26.386 Y10.806
G3 X26.692 Y11.101 I0.011 J0.295
G1 Y18.644
G3 X26.102 I-0.295
G1 Y14.872
X26.397 Y11.101
G3 X26.684 Y10.829 I0.294 J0.023
G1 X27.57 Y10.807
G3 X27.872 Y11.102 I0.007 J0.295
G1 Y26.398
G3 X27.282 I-0.295
G1 Y18.75
X27.577 Y11.102
G3 X27.868 Y10.819 I0.295 J0.011
G1 X28.754 Y10.809
G3 X29.052 Y11.104 I0.003 J0.295
G1 Y26.399
G3 X28.462 I-0.295
G1 Y18.752
X28.757 Y11.104
G3 X29.049 Y10.82 I0.295 J0.011
G1 X29.934 Y10.81
G3 X30.233 Y11.105 I0.003 J0.295
G1 Y26.39
G3 X29.643 I-0.295
G1 Y18.747
X29.938 Y11.105
G3 X30.229 Y10.821 I0.295 J0.011
G1 X31.115 Y10.811
G3 X31.413 Y11.106 I0.003 J0.295
G1 Y26.391
G3 X30.823 I-0.295
G1 Y18.749
X31.118 Y11.106
G3 X31.409 Y10.823 I0.295 J0.011
G1 X32.295 Y10.813
G3 X32.593 Y11.108 I0.003 J0.295
G1 Y26.392
G3 X32.003 I-0.295
G1 Y18.75
X32.298 Y11.108
G3 X32.59 Y10.824 I0.295 J0.011
G1 X33.475 Y10.814
G3 X33.774 Y11.109 I0.003 J0.295
G1 Y26.394
G3 X33.184 I-0.295
G1 Y18.751
X33.479 Y11.109
G3 X33.77 Y10.825 I0.295 J0.011
G1 X34.656 Y10.815
G3 X34.954 Y11.11 I0.003 J0.295
G1 Y26.395
G3 X34.364 I-0.295
G1 Y18.753
X34.659 Y11.11
G3 X34.947 Y10.827 I0.295 J0.011
G1 X35.832 Y10.806
G3 X36.134 Y11.101 I0.007 J0.295
G1 Y26.396
G3 X35.544 I-0.295
G1 Y18.749
X35.839 Y11.101
G3 X36.131 Y10.817 I0.295 J0.011
G1 X37.016 Y10.807
G3 X37.315 Y11.102 I0.003 J0.295
G1 Y26.398
G3 X36.725 I-0.295
G1 Y18.75
X37.02 Y11.102
G3 X37.207 Y10.839 I0.295 J0.011
G1 X38.097 Y10.49
G3 X38.5 Y10.765 I0.108 J0.275
G1 Y25
Y26.392
G3 X38.222 Y26.576 I-0.2
G1 X-0.178 Y10.428
G2 X-0.456 Y10.613 I-0.078 J0.184
G19 G2 Y10.913 Z-4.3 K-0.3 F30
G1 Z-4.7
G3 Y11.213 Z-5 J0.3
G1 Y11.224
Y26.277 F70
G17 G3 X-1.046 I-0.295
G1 Y18.751
X-0.751 Y11.224
G3 X-0.5 Y10.944 I0.295 J0.012
G1 X0.386 Y10.812
G3 X0.724 Y11.104 I0.043 J0.292
G1 Y26.4
G3 X0.134 I-0.295
G1 Y18.752
X0.429 Y11.104
G3 X0.721 Y10.821 I0.295 J0.011
G1 X1.606 Y10.811
G3 X1.905 Y11.106 I0.003 J0.295
G1 Y26.39
G3 X1.315 I-0.295
G1 Y18.748
X1.61 Y11.106
G3 X1.901 Y10.822 I0.295 J0.011
G1 X2.787 Y10.812
G3 X3.085 Y11.107 I0.003 J0.295
G1 Y26.392
G3 X2.495 I-0.295
G1 Y18.749
X2.79 Y11.107
G3 X3.082 Y10.823 I0.295 J0.011
G1 X3.967 Y10.813
G3 X4.265 Y11.108 I0.003 J0.295
G1 Y26.393
G3 X3.675 I-0.295
G1 Y18.751
X3.97 Y11.108
G3 X4.262 Y10.825 I0.295 J0.011
G1 X5.147 Y10.815
G3 X5.446 Y11.11 I0.003 J0.295
G1 Y26.394
G3 X4.856 I-0.295
G1 Y18.752
X5.151 Y11.11
G3 X5.439 Y10.826 I0.295 J0.011
G1 X6.324 Y10.805
G3 X6.626 Y11.1 I0.007 J0.295
G1 Y26.396
G3 X6.036 I-0.295
G1 Y18.748
X6.331 Y11.1
G3 X6.623 Y10.816 I0.295 J0.011
G1 X7.508 Y10.806
G3 X7.806 Y11.101 I0.003 J0.295
G1 Y26.397
G3 X7.216 I-0.295
G1 Y18.749
X7.511 Y11.101
G3 X7.803 Y10.818 I0.295 J0.011
G1 X8.688 Y10.808
G3 X8.987 Y11.103 I0.003 J0.295
G1 Y26.398
G3 X8.397 I-0.295
G1 Y18.751
X8.692 Y11.103
G3 X8.983 Y10.819 I0.295 J0.011
G1 X9.869 Y10.809
G3 X10.167 Y11.104 I0.003 J0.295
G1 Y26.4
G3 X9.577 I-0.295
G1 Y18.752
X9.872 Y11.104
G3 X10.164 Y10.82 I0.295 J0.011
G1 X11.049 Y10.81
G3 X11.347 Y11.105 I0.003 J0.295
G1 Y26.39
G3 X10.757 I-0.295
G1 Y18.748
X11.052 Y11.105
G3 X11.344 Y10.822 I0.295 J0.011
G1 X12.229 Y10.812
G3 X12.528 Y11.107 I0.003 J0.295
G1 Y18.672
Y19.323
Y26.391
G3 X11.938 I-0.295
G1 Y22.857
X12.233 Y19.323
G3 X12.53 Y19.053 I0.294 J0.025
G1 X13.416 Y19.063
G3 X13.708 Y19.358 I-0.003 J0.295
G1 Y26.393
G3 X13.118 I-0.295
G1 Y22.875
X13.413 Y19.358
G3 X13.699 Y19.088 I0.294 J0.025
G1 X14.586 Y19.064
G3 X14.888 Y19.359 I0.008 J0.295
G1 Y26.394
G3 X14.298 I-0.295
G1 Y22.877
X14.593 Y19.359
G3 X14.879 Y19.089 I0.294 J0.025
G1 X15.727 Y19.065
G3 X16.031 Y19.361 I0.008 J0.295
G1 X16.024 Y25
X16.027 Y26.392
G3 X15.732 Y26.687 I-0.295 J0.001
X15.436 Y26.392 J-0.295
G1 Y22.875
X15.736 Y19.36
G3 X16.019 Y19.09 I0.294 J0.025
G1 X16.943 Y19.056
G3 X17.249 Y19.351 I0.011 J0.295
G1 Y26.397
G3 X16.659 I-0.295
G1 Y22.874
X16.954 Y19.351
G3 X17.24 Y19.081 I0.294 J0.025
G1 X18.127 Y19.057
G3 X18.429 Y19.352 I0.008 J0.295
G1 Y26.398
G3 X17.839 I-0.295
G1 Y22.875
X18.134 Y19.352
G3 X18.421 Y19.082 I0.294 J0.025
G1 X19.307 Y19.059
G3 X19.61 Y19.354 I0.008 J0.295
G1 Y26.4
G3 X19.02 I-0.295
G1 Y22.877
X19.315 Y19.354
G3 X19.601 Y19.083 I0.294 J0.025
G1 X20.487 Y19.06
G3 X20.79 Y19.355 I0.008 J0.295
G1 Y26.39
G3 X20.2 I-0.295
G1 Y22.872
X20.495 Y19.355
G3 X20.781 Y19.085 I0.294 J0.025
G1 X21.668 Y19.061
G3 X21.97 Y19.356 I0.008 J0.295
G1 Y26.391
G3 X21.38 I-0.295
G1 Y22.874
X21.675 Y19.356
G3 X21.962 Y19.086 I0.294 J0.025
G1 X22.848 Y19.063
G3 X23.151 Y19.358 I0.008 J0.295
G1 Y26.393
G3 X22.561 I-0.295
G1 Y22.875
X22.856 Y19.358
G3 X23.142 Y19.087 I0.294 J0.025
G1 X24.028 Y19.064
G3 X24.331 Y19.359 I0.008 J0.295
G1 Y26.394
G3 X23.741 I-0.295
G1 Y22.876
X24.036 Y19.359
G3 X24.322 Y19.089 I0.294 J0.025
G1 X25.209 Y19.065
G3 X25.511 Y19.36 I0.008 J0.295
G1 Y26.395
G3 X24.921 I-0.295
G1 Y22.878
X25.216 Y19.36
G3 X25.499 Y19.09 I0.294 J0.025
G1 X26.385 Y19.056
G3 X26.692 Y19.351 I0.011 J0.295
G1 Y26.397
G3 X26.465 Y26.526 I-0.15
G1 X12.593 Y18.302
X12.563 Y18.279
X12.54 Y18.249
X11.062 Y15.703
X11.048 Y15.669
X11.042 Y15.631
X11.046 Y15.594
X11.059 Y15.558
X13.425 Y11.039
G3 X13.708 Y11.108 I0.133 J0.07
G1 Y18.64
G3 X13.118 I-0.295
G1 Y14.874
X13.413 Y11.108
G3 X13.7 Y10.836 I0.294 J0.023
G1 X14.586 Y10.815
G3 X14.888 Y11.11 I0.007 J0.295
G1 Y18.641
G3 X14.298 I-0.295
G1 Y14.875
X14.593 Y11.11
G3 X14.88 Y10.838 I0.294 J0.023
G1 X15.738 Y10.815
G3 X16.041 Y11.111 I0.008 J0.295
G1 X16.032 Y18.643
G3 X15.441 Y18.642 I-0.295
G1 X15.446 Y14.876
X15.746 Y11.11
G3 X16.029 Y10.839 I0.294 J0.023
G1 X16.943 Y10.806
G3 X17.249 Y11.101 I0.011 J0.295
G1 Y18.644
G3 X16.659 I-0.295
G1 Y14.873
X16.954 Y11.101
G3 X17.241 Y10.829 I0.294 J0.023
G1 X18.127 Y10.808
G3 X18.429 Y11.103 I0.007 J0.295
G1 Y18.645
G3 X17.839 Y18.646 I-0.295
G1 Y14.874
X18.134 Y11.103
G3 X18.421 Y10.831 I0.294 J0.023
G1 X19.307 Y10.809
G3 X19.61 Y11.104 I0.007 J0.295
G1 Y18.647
G3 X19.02 I-0.295
G1 Y14.875
X19.315 Y11.104
G3 X19.602 Y10.832 I0.294 J0.023
G1 X20.488 Y10.81
G3 X20.79 Y11.105 I0.007 J0.295
G1 Y18.648
G3 X20.2 I-0.295
G1 Y14.877
X20.495 Y11.105
G3 X20.782 Y10.833 I0.294 J0.023
G1 X21.668 Y10.812
G3 X21.97 Y11.107 I0.007 J0.295
G1 Y18.65
G3 X21.38 I-0.295
G1 Y14.878
X21.675 Y11.107
G3 X21.962 Y10.835 I0.294 J0.023
G1 X22.848 Y10.813
G3 X23.151 Y11.108 I0.007 J0.295
G1 Y18.64
G3 X22.561 I-0.295
G1 Y14.874
X22.856 Y11.108
G3 X23.143 Y10.836 I0.294 J0.023
G1 X24.029 Y10.814
G3 X24.331 Y11.109 I0.007 J0.295
G1 Y18.641
G3 X23.741 I-0.295
G1 Y14.875
X24.036 Y11.109
G3 X24.323 Y10.837 I0.294 J0.023
G1 X25.209 Y10.816
G3 X25.511 Y11.111 I0.007 J0.295
G1 Y18.643
G3 X24.921 I-0.295
G1 Y14.877
X25.216 Y11.111
G3 X25.5 Y10.839 I0.294 J0.023
G1 X26.386 Y10.806
G3 X26.692 Y11.101 I0.011 J0.295
G1 Y18.644
G3 X26.102 I-0.295
G1 Y14.872
X26.397 Y11.101
G3 X26.684 Y10.829 I0.294 J0.023
G1 X27.57 Y10.807
G3 X27.872 Y11.102 I0.007 J0.295
G1 Y26.398
G3 X27.282 I-0.295
G1 Y18.75
X27.577 Y11.102
G3 X27.868 Y10.819 I0.295 J0.011
G1 X28.754 Y10.809
G3 X29.052 Y11.104 I0.003 J0.295
G1 Y26.399
G3 X28.462 I-0.295
G1 Y18.752
X28.757 Y11.104
G3 X29.049 Y10.82 I0.295 J0.011
G1 X29.934 Y10.81
G3 X30.233 Y11.105 I0.003 J0.295
G1 Y26.39
G3 X29.643 I-0.295
G1 Y18.747
X29.938 Y11.105
G3 X30.229 Y10.821 I0.295 J0.011
G1 X31.115 Y10.811
G3 X31.413 Y11.106 I0.003 J0.295
G1 Y26.391
G3 X30.823 I-0.295
G1 Y18.749
X31.118 Y11.106
G3 X31.409 Y10.823 I0.295 J0.011
G1 X32.295 Y10.813
G3 X32.593 Y11.108 I0.003 J0.295
G1 Y26.392
G3 X32.003 I-0.295
G1 Y18.75
X32.298 Y11.108
G3 X32.59 Y10.824 I0.295 J0.011
G1 X33.475 Y10.814
G3 X33.774 Y11.109 I0.003 J0.295
G1 Y26.394
G3 X33.184 I-0.295
G1 Y18.751
X33.479 Y11.109
G3 X33.77 Y10.825 I0.295 J0.011
G1 X34.656 Y10.815
G3 X34.954 Y11.11 I0.003 J0.295
G1 Y26.395
G3 X34.364 I-0.295
G1 Y18.753
X34.659 Y11.11
G3 X34.947 Y10.827 I0.295 J0.011
G1 X35.832 Y10.806
G3 X36.134 Y11.101 I0.007 J0.295
G1 Y26.396
G3 X35.544 I-0.295
G1 Y18.749
X35.839 Y11.101
G3 X36.131 Y10.817 I0.295 J0.011
G1 X37.016 Y10.807
G3 X37.315 Y11.102 I0.003 J0.295
G1 Y26.398
G3 X36.725 I-0.295
G1 Y18.75
X37.02 Y11.102
G3 X37.207 Y10.839 I0.295 J0.011
G1 X38.097 Y10.49
G3 X38.5 Y10.765 I0.108 J0.275
G1 Y25
Y26.392
G3 X38.222 Y26.576 I-0.2
G1 X-0.178 Y10.428
G2 X-0.456 Y10.613 I-0.078 J0.184
G19 G2 Y10.913 Z-5.3 K-0.3 F30
G1 Z-5.7
G3 Y11.213 Z-6 J0.3
G1 Y11.224
Y26.277 F70
G17 G3 X-1.046 I-0.295
G1 Y18.751
X-0.751 Y11.224
G3 X-0.5 Y10.944 I0.295 J0.012
G1 X0.386 Y10.812
G3 X0.724 Y11.104 I0.043 J0.292
G1 Y26.4
G3 X0.134 I-0.295
G1 Y18.752
X0.429 Y11.104
G3 X0.721 Y10.821 I0.295 J0.011
G1 X1.606 Y10.811
G3 X1.905 Y11.106 I0.003 J0.295
G1 Y26.39
G3 X1.315 I-0.295
G1 Y18.748
X1.61 Y11.106
G3 X1.901 Y10.822 I0.295 J0.011
G1 X2.787 Y10.812
G3 X3.085 Y11.107 I0.003 J0.295
G1 Y26.392
G3 X2.495 I-0.295
G1 Y18.749
X2.79 Y11.107
G3 X3.082 Y10.823 I0.295 J0.011
G1 X3.967 Y10.813
G3 X4.265 Y11.108 I0.003 J0.295
G1 Y26.393
G3 X3.675 I-0.295
G1 Y18.751
X3.97 Y11.108
G3 X4.262 Y10.825 I0.295 J0.011
G1 X5.147 Y10.815
G3 X5.446 Y11.11 I0.003 J0.295
G1 Y26.394
G3 X4.856 I-0.295
G1 Y18.752
X5.151 Y11.11
G3 X5.439 Y10.826 I0.295 J0.011
G1 X6.324 Y10.805
G3 X6.626 Y11.1 I0.007 J0.295
G1 Y26.396
G3 X6.036 I-0.295
G1 Y18.748
X6.331 Y11.1
G3 X6.623 Y10.816 I0.295 J0.011
G1 X7.508 Y10.806
G3 X7.806 Y11.101 I0.003 J0.295
G1 Y26.397
G3 X7.216 I-0.295
G1 Y18.749
X7.511 Y11.101
G3 X7.803 Y10.818 I0.295 J0.011
G1 X8.688 Y10.808
G3 X8.987 Y11.103 I0.003 J0.295
G1 Y26.398
G3 X8.397 I-0.295
G1 Y18.751
X8.692 Y11.103
G3 X8.983 Y10.819 I0.295 J0.011
G1 X9.869 Y10.809
G3 X10.167 Y11.104 I0.003 J0.295
G1 Y26.4
G3 X9.577 I-0.295
G1 Y18.752
X9.872 Y11.104
G3 X10.164 Y10.82 I0.295 J0.011
G1 X11.049 Y10.81
G3 X11.347 Y11.105 I0.003 J0.295
G1 Y26.39
G3 X10.757 I-0.295
G1 Y18.748
X11.052 Y11.105
G3 X11.344 Y10.822 I0.295 J0.011
G1 X12.229 Y10.812
G3 X12.528 Y11.107 I0.003 J0.295
G1 Y18.672
Y19.323
Y26.391
G3 X11.938 I-0.295
G1 Y22.857
X12.233 Y19.323
G3 X12.53 Y19.053 I0.294 J0.025
G1 X13.416 Y19.063
G3 X13.708 Y19.358 I-0.003 J0.295
G1 Y26.393
G3 X13.118 I-0.295
G1 Y22.875
X13.413 Y19.358
G3 X13.699 Y19.088 I0.294 J0.025
G1 X14.586 Y19.064
G3 X14.888 Y19.359 I0.008 J0.295
G1 Y26.394
G3 X14.298 I-0.295
G1 Y22.877
X14.593 Y19.359
G3 X14.879 Y19.089 I0.294 J0.025
G1 X15.727 Y19.065
G3 X16.031 Y19.361 I0.008 J0.295
G1 X16.024 Y25
X16.027 Y26.392
G3 X15.732 Y26.687 I-0.295 J0.001
X15.436 Y26.392 J-0.295
G1 Y22.875
X15.736 Y19.36
G3 X16.019 Y19.09 I0.294 J0.025
G1 X16.943 Y19.056
G3 X17.249 Y19.351 I0.011 J0.295
G1 Y26.397
G3 X16.659 I-0.295
G1 Y22.874
X16.954 Y19.351
G3 X17.24 Y19.081 I0.294 J0.025
G1 X18.127 Y19.057
G3 X18.429 Y19.352 I0.008 J0.295
G1 Y26.398
G3 X17.839 I-0.295
G1 Y22.875
X18.134 Y19.352
G3 X18.421 Y19.082 I0.294 J0.025
G1 X19.307 Y19.059
G3 X19.61 Y19.354 I0.008 J0.295
G1 Y26.4
G3 X19.02 I-0.295
G1 Y22.877
X19.315 Y19.354
G3 X19.601 Y19.083 I0.294 J0.025
G1 X20.487 Y19.06
G3 X20.79 Y19.355 I0.008 J0.295
G1 Y26.39
G3 X20.2 I-0.295
G1 Y22.872
X20.495 Y19.355
G3 X20.781 Y19.085 I0.294 J0.025
G1 X21.668 Y19.061
G3 X21.97 Y19.356 I0.008 J0.295
G1 Y26.391
G3 X21.38 I-0.295
G1 Y22.874
X21.675 Y19.356
G3 X21.962 Y19.086 I0.294 J0.025
G1 X22.848 Y19.063
G3 X23.151 Y19.358 I0.008 J0.295
G1 Y26.393
G3 X22.561 I-0.295
G1 Y22.875
X22.856 Y19.358
G3 X23.142 Y19.087 I0.294 J0.025
G1 X24.028 Y19.064
G3 X24.331 Y19.359 I0.008 J0.295
G1 Y26.394
G3 X23.741 I-0.295
G1 Y22.876
X24.036 Y19.359
G3 X24.322 Y19.089 I0.294 J0.025
G1 X25.209 Y19.065
G3 X25.511 Y19.36 I0.008 J0.295
G1 Y26.395
G3 X24.921 I-0.295
G1 Y22.878
X25.216 Y19.36
G3 X25.499 Y19.09 I0.294 J0.025
G1 X26.385 Y19.056
G3 X26.692 Y19.351 I0.011 J0.295
G1 Y26.397
G3 X26.465 Y26.526 I-0.15
G1 X12.593 Y18.302
X12.563 Y18.279
X12.54 Y18.249
X11.062 Y15.703
X11.048 Y15.669
X11.042 Y15.631
X11.046 Y15.594
X11.059 Y15.558
X13.425 Y11.039
G3 X13.708 Y11.108 I0.133 J0.07
G1 Y18.64
G3 X13.118 I-0.295
G1 Y14.874
X13.413 Y11.108
G3 X13.7 Y10.836 I0.294 J0.023
G1 X14.586 Y10.815
G3 X14.888 Y11.11 I0.007 J0.295
G1 Y18.641
G3 X14.298 I-0.295
G1 Y14.875
X14.593 Y11.11
G3 X14.88 Y10.838 I0.294 J0.023
G1 X15.738 Y10.815
G3 X16.041 Y11.111 I0.008 J0.295
G1 X16.032 Y18.643
G3 X15.441 Y18.642 I-0.295
G1 X15.446 Y14.876
X15.746 Y11.11
G3 X16.029 Y10.839 I0.294 J0.023
G1 X16.943 Y10.806
G3 X17.249 Y11.101 I0.011 J0.295
G1 Y18.644
G3 X16.659 I-0.295
G1 Y14.873
X16.954 Y11.101
G3 X17.241 Y10.829 I0.294 J0.023
G1 X18.127 Y10.808
G3 X18.429 Y11.103 I0.007 J0.295
G1 Y18.645
G3 X17.839 Y18.646 I-0.295
G1 Y14.874
X18.134 Y11.103
G3 X18.421 Y10.831 I0.294 J0.023
G1 X19.307 Y10.809
G3 X19.61 Y11.104 I0.007 J0.295
G1 Y18.647
G3 X19.02 I-0.295
G1 Y14.875
X19.315 Y11.104
G3 X19.602 Y10.832 I0.294 J0.023
G1 X20.488 Y10.81
G3 X20.79 Y11.105 I0.007 J0.295
G1 Y18.648
G3 X20.2 I-0.295
G1 Y14.877
X20.495 Y11.105
G3 X20.782 Y10.833 I0.294 J0.023
G1 X21.668 Y10.812
G3 X21.97 Y11.107 I0.007 J0.295
G1 Y18.65
G3 X21.38 I-0.295
G1 Y14.878
X21.675 Y11.107
G3 X21.962 Y10.835 I0.294 J0.023
G1 X22.848 Y10.813
G3 X23.151 Y11.108 I0.007 J0.295
G1 Y18.64
G3 X22.561 I-0.295
G1 Y14.874
X22.856 Y11.108
G3 X23.143 Y10.836 I0.294 J0.023
G1 X24.029 Y10.814
G3 X24.331 Y11.109 I0.007 J0.295
G1 Y18.641
G3 X23.741 I-0.295
G1 Y14.875
X24.036 Y11.109
G3 X24.323 Y10.837 I0.294 J0.023
G1 X25.209 Y10.816
G3 X25.511 Y11.111 I0.007 J0.295
G1 Y18.643
G3 X24.921 I-0.295
G1 Y14.877
X25.216 Y11.111
G3 X25.5 Y10.839 I0.294 J0.023
G1 X26.386 Y10.806
G3 X26.692 Y11.101 I0.011 J0.295
G1 Y18.644
G3 X26.102 I-0.295
G1 Y14.872
X26.397 Y11.101
G3 X26.684 Y10.829 I0.294 J0.023
G1 X27.57 Y10.807
G3 X27.872 Y11.102 I0.007 J0.295
G1 Y26.398
G3 X27.282 I-0.295
G1 Y18.75
X27.577 Y11.102
G3 X27.868 Y10.819 I0.295 J0.011
G1 X28.754 Y10.809
G3 X29.052 Y11.104 I0.003 J0.295
G1 Y26.399
G3 X28.462 I-0.295
G1 Y18.752
X28.757 Y11.104
G3 X29.049 Y10.82 I0.295 J0.011
G1 X29.934 Y10.81
G3 X30.233 Y11.105 I0.003 J0.295
G1 Y26.39
G3 X29.643 I-0.295
G1 Y18.747
X29.938 Y11.105
G3 X30.229 Y10.821 I0.295 J0.011
G1 X31.115 Y10.811
G3 X31.413 Y11.106 I0.003 J0.295
G1 Y26.391
G3 X30.823 I-0.295
G1 Y18.749
X31.118 Y11.106
G3 X31.409 Y10.823 I0.295 J0.011
G1 X32.295 Y10.813
G3 X32.593 Y11.108 I0.003 J0.295
G1 Y26.392
G3 X32.003 I-0.295
G1 Y18.75
X32.298 Y11.108
G3 X32.59 Y10.824 I0.295 J0.011
G1 X33.475 Y10.814
G3 X33.774 Y11.109 I0.003 J0.295
G1 Y26.394
G3 X33.184 I-0.295
G1 Y18.751
X33.479 Y11.109
G3 X33.77 Y10.825 I0.295 J0.011
G1 X34.656 Y10.815
G3 X34.954 Y11.11 I0.003 J0.295
G1 Y26.395
G3 X34.364 I-0.295
G1 Y18.753
X34.659 Y11.11
G3 X34.947 Y10.827 I0.295 J0.011
G1 X35.832 Y10.806
G3 X36.134 Y11.101 I0.007 J0.295
G1 Y26.396
G3 X35.544 I-0.295
G1 Y18.749
X35.839 Y11.101
G3 X36.131 Y10.817 I0.295 J0.011
G1 X37.016 Y10.807
G3 X37.315 Y11.102 I0.003 J0.295
G1 Y26.398
G3 X36.725 I-0.295
G1 Y18.75
X37.02 Y11.102
G3 X37.207 Y10.839 I0.295 J0.011
G1 X38.097 Y10.49
G3 X38.5 Y10.765 I0.108 J0.275
G1 Y25
Y26.392
G3 X38.222 Y26.576 I-0.2
G1 X-0.178 Y10.428
G2 X-0.456 Y10.613 I-0.078 J0.184
G19 G2 Y10.913 Z-6.3 K-0.3 F30
G1 Z-6.7
G3 Y11.213 Z-7 J0.3
G1 Y11.224
Y26.277 F70
G17 G3 X-1.046 I-0.295
G1 Y18.751
X-0.751 Y11.224
G3 X-0.5 Y10.944 I0.295 J0.012
G1 X0.386 Y10.812
G3 X0.724 Y11.104 I0.043 J0.292
G1 Y26.4
G3 X0.134 I-0.295
G1 Y18.752
X0.429 Y11.104
G3 X0.721 Y10.821 I0.295 J0.011
G1 X1.606 Y10.811
G3 X1.905 Y11.106 I0.003 J0.295
G1 Y26.39
G3 X1.315 I-0.295
G1 Y18.748
X1.61 Y11.106
G3 X1.901 Y10.822 I0.295 J0.011
G1 X2.787 Y10.812
G3 X3.085 Y11.107 I0.003 J0.295
G1 Y26.392
G3 X2.495 I-0.295
G1 Y18.749
X2.79 Y11.107
G3 X3.082 Y10.823 I0.295 J0.011
G1 X3.967 Y10.813
G3 X4.265 Y11.108 I0.003 J0.295
G1 Y26.393
G3 X3.675 I-0.295
G1 Y18.751
X3.97 Y11.108
G3 X4.262 Y10.825 I0.295 J0.011
G1 X5.147 Y10.815
G3 X5.446 Y11.11 I0.003 J0.295
G1 Y26.394
G3 X4.856 I-0.295
G1 Y18.752
X5.151 Y11.11
G3 X5.439 Y10.826 I0.295 J0.011
G1 X6.324 Y10.805
G3 X6.626 Y11.1 I0.007 J0.295
G1 Y26.396
G3 X6.036 I-0.295
G1 Y18.748
X6.331 Y11.1
G3 X6.623 Y10.816 I0.295 J0.011
G1 X7.508 Y10.806
G3 X7.806 Y11.101 I0.003 J0.295
G1 Y26.397
G3 X7.216 I-0.295
G1 Y18.749
X7.511 Y11.101
G3 X7.803 Y10.818 I0.295 J0.011
G1 X8.688 Y10.808
G3 X8.987 Y11.103 I0.003 J0.295
G1 Y26.398
G3 X8.397 I-0.295
G1 Y18.751
X8.692 Y11.103
G3 X8.983 Y10.819 I0.295 J0.011
G1 X9.869 Y10.809
G3 X10.167 Y11.104 I0.003 J0.295
G1 Y26.4
G3 X9.577 I-0.295
G1 Y18.752
X9.872 Y11.104
G3 X10.164 Y10.82 I0.295 J0.011
G1 X11.049 Y10.81
G3 X11.347 Y11.105 I0.003 J0.295
G1 Y26.39
G3 X10.757 I-0.295
G1 Y18.748
X11.052 Y11.105
G3 X11.344 Y10.822 I0.295 J0.011
G1 X12.229 Y10.812
G3 X12.528 Y11.107 I0.003 J0.295
G1 Y18.672
Y19.323
Y26.391
G3 X11.938 I-0.295
G1 Y22.857
X12.233 Y19.323
G3 X12.53 Y19.053 I0.294 J0.025
G1 X13.416 Y19.063
G3 X13.708 Y19.358 I-0.003 J0.295
G1 Y26.393
G3 X13.118 I-0.295
G1 Y22.875
X13.413 Y19.358
G3 X13.699 Y19.088 I0.294 J0.025
G1 X14.586 Y19.064
G3 X14.888 Y19.359 I0.008 J0.295
G1 Y26.394
G3 X14.298 I-0.295
G1 Y22.877
X14.593 Y19.359
G3 X14.879 Y19.089 I0.294 J0.025
G1 X15.727 Y19.065
G3 X16.031 Y19.361 I0.008 J0.295
G1 X16.024 Y25
X16.027 Y26.392
G3 X15.732 Y26.687 I-0.295 J0.001
X15.436 Y26.392 J-0.295
G1 Y22.875
X15.736 Y19.36
G3 X16.019 Y19.09 I0.294 J0.025
G1 X16.943 Y19.056
G3 X17.249 Y19.351 I0.011 J0.295
G1 Y26.397
G3 X16.659 I-0.295
G1 Y22.874
X16.954 Y19.351
G3 X17.24 Y19.081 I0.294 J0.025
G1 X18.127 Y19.057
G3 X18.429 Y19.352 I0.008 J0.295
G1 Y26.398
G3 X17.839 I-0.295
G1 Y22.875
X18.134 Y19.352
G3 X18.421 Y19.082 I0.294 J0.025
G1 X19.307 Y19.059
G3 X19.61 Y19.354 I0.008 J0.295
G1 Y26.4
G3 X19.02 I-0.295
G1 Y22.877
X19.315 Y19.354
G3 X19.601 Y19.083 I0.294 J0.025
G1 X20.487 Y19.06
G3 X20.79 Y19.355 I0.008 J0.295
G1 Y26.39
G3 X20.2 I-0.295
G1 Y22.872
X20.495 Y19.355
G3 X20.781 Y19.085 I0.294 J0.025
G1 X21.668 Y19.061
G3 X21.97 Y19.356 I0.008 J0.295
G1 Y26.391
G3 X21.38 I-0.295
G1 Y22.874
X21.675 Y19.356
G3 X21.962 Y19.086 I0.294 J0.025
G1 X22.848 Y19.063
G3 X23.151 Y19.358 I0.008 J0.295
G1 Y26.393
G3 X22.561 I-0.295
G1 Y22.875
X22.856 Y19.358
G3 X23.142 Y19.087 I0.294 J0.025
G1 X24.028 Y19.064
G3 X24.331 Y19.359 I0.008 J0.295
G1 Y26.394
G3 X23.741 I-0.295
G1 Y22.876
X24.036 Y19.359
G3 X24.322 Y19.089 I0.294 J0.025
G1 X25.209 Y19.065
G3 X25.511 Y19.36 I0.008 J0.295
G1 Y26.395
G3 X24.921 I-0.295
G1 Y22.878
X25.216 Y19.36
G3 X25.499 Y19.09 I0.294 J0.025
G1 X26.385 Y19.056
G3 X26.692 Y19.351 I0.011 J0.295
G1 Y26.397
G3 X26.465 Y26.526 I-0.15
G1 X12.593 Y18.302
X12.563 Y18.279
X12.54 Y18.249
X11.062 Y15.703
X11.048 Y15.669
X11.042 Y15.631
X11.046 Y15.594
X11.059 Y15.558
X13.425 Y11.039
G3 X13.708 Y11.108 I0.133 J0.07
G1 Y18.64
G3 X13.118 I-0.295
G1 Y14.874
X13.413 Y11.108
G3 X13.7 Y10.836 I0.294 J0.023
G1 X14.586 Y10.815
G3 X14.888 Y11.11 I0.007 J0.295
G1 Y18.641
G3 X14.298 I-0.295
G1 Y14.875
X14.593 Y11.11
G3 X14.88 Y10.838 I0.294 J0.023
G1 X15.738 Y10.815
G3 X16.041 Y11.111 I0.008 J0.295
G1 X16.032 Y18.643
G3 X15.441 Y18.642 I-0.295
G1 X15.446 Y14.876
X15.746 Y11.11
G3 X16.029 Y10.839 I0.294 J0.023
G1 X16.943 Y10.806
G3 X17.249 Y11.101 I0.011 J0.295
G1 Y18.644
G3 X16.659 I-0.295
G1 Y14.873
X16.954 Y11.101
G3 X17.241 Y10.829 I0.294 J0.023
G1 X18.127 Y10.808
G3 X18.429 Y11.103 I0.007 J0.295
G1 Y18.645
G3 X17.839 Y18.646 I-0.295
G1 Y14.874
X18.134 Y11.103
G3 X18.421 Y10.831 I0.294 J0.023
G1 X19.307 Y10.809
G3 X19.61 Y11.104 I0.007 J0.295
G1 Y18.647
G3 X19.02 I-0.295
G1 Y14.875
X19.315 Y11.104
G3 X19.602 Y10.832 I0.294 J0.023
G1 X20.488 Y10.81
G3 X20.79 Y11.105 I0.007 J0.295
G1 Y18.648
G3 X20.2 I-0.295
G1 Y14.877
X20.495 Y11.105
G3 X20.782 Y10.833 I0.294 J0.023
G1 X21.668 Y10.812
G3 X21.97 Y11.107 I0.007 J0.295
G1 Y18.65
G3 X21.38 I-0.295
G1 Y14.878
X21.675 Y11.107
G3 X21.962 Y10.835 I0.294 J0.023
G1 X22.848 Y10.813
G3 X23.151 Y11.108 I0.007 J0.295
G1 Y18.64
G3 X22.561 I-0.295
G1 Y14.874
X22.856 Y11.108
G3 X23.143 Y10.836 I0.294 J0.023
G1 X24.029 Y10.814
G3 X24.331 Y11.109 I0.007 J0.295
G1 Y18.641
G3 X23.741 I-0.295
G1 Y14.875
X24.036 Y11.109
G3 X24.323 Y10.837 I0.294 J0.023
G1 X25.209 Y10.816
G3 X25.511 Y11.111 I0.007 J0.295
G1 Y18.643
G3 X24.921 I-0.295
G1 Y14.877
X25.216 Y11.111
G3 X25.5 Y10.839 I0.294 J0.023
G1 X26.386 Y10.806
G3 X26.692 Y11.101 I0.011 J0.295
G1 Y18.644
G3 X26.102 I-0.295
G1 Y14.872
X26.397 Y11.101
G3 X26.684 Y10.829 I0.294 J0.023
G1 X27.57 Y10.807
G3 X27.872 Y11.102 I0.007 J0.295
G1 Y26.398
G3 X27.282 I-0.295
G1 Y18.75
X27.577 Y11.102
G3 X27.868 Y10.819 I0.295 J0.011
G1 X28.754 Y10.809
G3 X29.052 Y11.104 I0.003 J0.295
G1 Y26.399
G3 X28.462 I-0.295
G1 Y18.752
X28.757 Y11.104
G3 X29.049 Y10.82 I0.295 J0.011
G1 X29.934 Y10.81
G3 X30.233 Y11.105 I0.003 J0.295
G1 Y26.39
G3 X29.643 I-0.295
G1 Y18.747
X29.938 Y11.105
G3 X30.229 Y10.821 I0.295 J0.011
G1 X31.115 Y10.811
G3 X31.413 Y11.106 I0.003 J0.295
G1 Y26.391
G3 X30.823 I-0.295
G1 Y18.749
X31.118 Y11.106
G3 X31.409 Y10.823 I0.295 J0.011
G1 X32.295 Y10.813
G3 X32.593 Y11.108 I0.003 J0.295
G1 Y26.392
G3 X32.003 I-0.295
G1 Y18.75
X32.298 Y11.108
G3 X32.59 Y10.824 I0.295 J0.011
G1 X33.475 Y10.814
G3 X33.774 Y11.109 I0.003 J0.295
G1 Y26.394
G3 X33.184 I-0.295
G1 Y18.751
X33.479 Y11.109
G3 X33.77 Y10.825 I0.295 J0.011
G1 X34.656 Y10.815
G3 X34.954 Y11.11 I0.003 J0.295
G1 Y26.395
G3 X34.364 I-0.295
G1 Y18.753
X34.659 Y11.11
G3 X34.947 Y10.827 I0.295 J0.011
G1 X35.832 Y10.806
G3 X36.134 Y11.101 I0.007 J0.295
G1 Y26.396
G3 X35.544 I-0.295
G1 Y18.749
X35.839 Y11.101
G3 X36.131 Y10.817 I0.295 J0.011
G1 X37.016 Y10.807
G3 X37.315 Y11.102 I0.003 J0.295
G1 Y26.398
G3 X36.725 I-0.295
G1 Y18.75
X37.02 Y11.102
G3 X37.207 Y10.839 I0.295 J0.011
G1 X38.097 Y10.49
G3 X38.5 Y10.765 I0.108 J0.275
G1 Y25
Y26.392
G3 X38.222 Y26.576 I-0.2
G1 X-0.178 Y10.428
G2 X-0.456 Y10.613 I-0.078 J0.184
G19 G2 Y10.913 Z-7.3 K-0.3 F30
G1 Z-7.7
G3 Y11.213 Z-8 J0.3
G1 Y11.224
Y26.277 F70
G17 G3 X-1.046 I-0.295
G1 Y18.751
X-0.751 Y11.224
G3 X-0.5 Y10.944 I0.295 J0.012
G1 X0.386 Y10.812
G3 X0.724 Y11.104 I0.043 J0.292
G1 Y26.4
G3 X0.134 I-0.295
G1 Y18.752
X0.429 Y11.104
G3 X0.721 Y10.821 I0.295 J0.011
G1 X1.606 Y10.811
G3 X1.905 Y11.106 I0.003 J0.295
G1 Y26.39
G3 X1.315 I-0.295
G1 Y18.748
X1.61 Y11.106
G3 X1.901 Y10.822 I0.295 J0.011
G1 X2.787 Y10.812
G3 X3.085 Y11.107 I0.003 J0.295
G1 Y26.392
G3 X2.495 I-0.295
G1 Y18.749
X2.79 Y11.107
G3 X3.082 Y10.823 I0.295 J0.011
G1 X3.967 Y10.813
G3 X4.265 Y11.108 I0.003 J0.295
G1 Y26.393
G3 X3.675 I-0.295
G1 Y18.751
X3.97 Y11.108
G3 X4.262 Y10.825 I0.295 J0.011
G1 X5.147 Y10.815
G3 X5.446 Y11.11 I0.003 J0.295
G1 Y26.394
G3 X4.856 I-0.295
G1 Y18.752
X5.151 Y11.11
G3 X5.439 Y10.826 I0.295 J0.011
G1 X6.324 Y10.805
G3 X6.626 Y11.1 I0.007 J0.295
G1 Y26.396
G3 X6.036 I-0.295
G1 Y18.748
X6.331 Y11.1
G3 X6.623 Y10.816 I0.295 J0.011
G1 X7.508 Y10.806
G3 X7.806 Y11.101 I0.003 J0.295
G1 Y26.397
G3 X7.216 I-0.295
G1 Y18.749
X7.511 Y11.101
G3 X7.803 Y10.818 I0.295 J0.011
G1 X8.688 Y10.808
G3 X8.987 Y11.103 I0.003 J0.295
G1 Y26.398
G3 X8.397 I-0.295
G1 Y18.751
X8.692 Y11.103
G3 X8.983 Y10.819 I0.295 J0.011
G1 X9.869 Y10.809
G3 X10.167 Y11.104 I0.003 J0.295
G1 Y26.4
G3 X9.577 I-0.295
G1 Y18.752
X9.872 Y11.104
G3 X10.164 Y10.82 I0.295 J0.011
G1 X11.049 Y10.81
G3 X11.347 Y11.105 I0.003 J0.295
G1 Y26.39
G3 X10.757 I-0.295
G1 Y18.748
X11.052 Y11.105
G3 X11.344 Y10.822 I0.295 J0.011
G1 X12.229 Y10.812
G3 X12.528 Y11.107 I0.003 J0.295
G1 Y18.672
Y19.323
Y26.391
G3 X11.938 I-0.295
G1 Y22.857
X12.233 Y19.323
G3 X12.53 Y19.053 I0.294 J0.025
G1 X13.416 Y19.063
G3 X13.708 Y19.358 I-0.003 J0.295
G1 Y26.393
G3 X13.118 I-0.295
G1 Y22.875
X13.413 Y19.358
G3 X13.699 Y19.088 I0.294 J0.025
G1 X14.586 Y19.064
G3 X14.888 Y19.359 I0.008 J0.295
G1 Y26.394
G3 X14.298 I-0.295
G1 Y22.877
X14.593 Y19.359
G3 X14.879 Y19.089 I0.294 J0.025
G1 X15.727 Y19.065
G3 X16.031 Y19.361 I0.008 J0.295
G1 X16.024 Y25
X16.027 Y26.392
G3 X15.732 Y26.687 I-0.295 J0.001
X15.436 Y26.392 J-0.295
G1 Y22.875
X15.736 Y19.36
G3 X16.019 Y19.09 I0.294 J0.025
G1 X16.943 Y19.056
G3 X17.249 Y19.351 I0.011 J0.295
G1 Y26.397
G3 X16.659 I-0.295
G1 Y22.874
X16.954 Y19.351
G3 X17.24 Y19.081 I0.294 J0.025
G1 X18.127 Y19.057
G3 X18.429 Y19.352 I0.008 J0.295
G1 Y26.398
G3 X17.839 I-0.295
G1 Y22.875
X18.134 Y19.352
G3 X18.421 Y19.082 I0.294 J0.025
G1 X19.307 Y19.059
G3 X19.61 Y19.354 I0.008 J0.295
G1 Y26.4
G3 X19.02 I-0.295
G1 Y22.877
X19.315 Y19.354
G3 X19.601 Y19.083 I0.294 J0.025
G1 X20.487 Y19.06
G3 X20.79 Y19.355 I0.008 J0.295
G1 Y26.39
G3 X20.2 I-0.295
G1 Y22.872
X20.495 Y19.355
G3 X20.781 Y19.085 I0.294 J0.025
G1 X21.668 Y19.061
G3 X21.97 Y19.356 I0.008 J0.295
G1 Y26.391
G3 X21.38 I-0.295
G1 Y22.874
X21.675 Y19.356
G3 X21.962 Y19.086 I0.294 J0.025
G1 X22.848 Y19.063
G3 X23.151 Y19.358 I0.008 J0.295
G1 Y26.393
G3 X22.561 I-0.295
G1 Y22.875
X22.856 Y19.358
G3 X23.142 Y19.087 I0.294 J0.025
G1 X24.028 Y19.064
G3 X24.331 Y19.359 I0.008 J0.295
G1 Y26.394
G3 X23.741 I-0.295
G1 Y22.876
X24.036 Y19.359
G3 X24.322 Y19.089 I0.294 J0.025
G1 X25.209 Y19.065
G3 X25.511 Y19.36 I0.008 J0.295
G1 Y26.395
G3 X24.921 I-0.295
G1 Y22.878
X25.216 Y19.36
G3 X25.499 Y19.09 I0.294 J0.025
G1 X26.385 Y19.056
G3 X26.692 Y19.351 I0.011 J0.295
G1 Y26.397
G3 X26.465 Y26.526 I-0.15
G1 X12.593 Y18.302
X12.563 Y18.279
X12.54 Y18.249
X11.062 Y15.703
X11.048 Y15.669
X11.042 Y15.631
X11.046 Y15.594
X11.059 Y15.558
X13.425 Y11.039
G3 X13.708 Y11.108 I0.133 J0.07
G1 Y18.64
G3 X13.118 I-0.295
G1 Y14.874
X13.413 Y11.108
G3 X13.7 Y10.836 I0.294 J0.023
G1 X14.586 Y10.815
G3 X14.888 Y11.11 I0.007 J0.295
G1 Y18.641
G3 X14.298 I-0.295
G1 Y14.875
X14.593 Y11.11
G3 X14.88 Y10.838 I0.294 J0.023
G1 X15.738 Y10.815
G3 X16.041 Y11.111 I0.008 J0.295
G1 X16.032 Y18.643
G3 X15.441 Y18.642 I-0.295
G1 X15.446 Y14.876
X15.746 Y11.11
G3 X16.029 Y10.839 I0.294 J0.023
G1 X16.943 Y10.806
G3 X17.249 Y11.101 I0.011 J0.295
G1 Y18.644
G3 X16.659 I-0.295
G1 Y14.873
X16.954 Y11.101
G3 X17.241 Y10.829 I0.294 J0.023
G1 X18.127 Y10.808
G3 X18.429 Y11.103 I0.007 J0.295
G1 Y18.645
G3 X17.839 Y18.646 I-0.295
G1 Y14.874
X18.134 Y11.103
G3 X18.421 Y10.831 I0.294 J0.023
G1 X19.307 Y10.809
G3 X19.61 Y11.104 I0.007 J0.295
G1 Y18.647
G3 X19.02 I-0.295
G1 Y14.875
X19.315 Y11.104
G3 X19.602 Y10.832 I0.294 J0.023
G1 X20.488 Y10.81
G3 X20.79 Y11.105 I0.007 J0.295
G1 Y18.648
G3 X20.2 I-0.295
G1 Y14.877
X20.495 Y11.105
G3 X20.782 Y10.833 I0.294 J0.023
G1 X21.668 Y10.812
G3 X21.97 Y11.107 I0.007 J0.295
G1 Y18.65
G3 X21.38 I-0.295
G1 Y14.878
X21.675 Y11.107
G3 X21.962 Y10.835 I0.294 J0.023
G1 X22.848 Y10.813
G3 X23.151 Y11.108 I0.007 J0.295
G1 Y18.64
G3 X22.561 I-0.295
G1 Y14.874
X22.856 Y11.108
G3 X23.143 Y10.836 I0.294 J0.023
G1 X24.029 Y10.814
G3 X24.331 Y11.109 I0.007 J0.295
G1 Y18.641
G3 X23.741 I-0.295
G1 Y14.875
X24.036 Y11.109
G3 X24.323 Y10.837 I0.294 J0.023
G1 X25.209 Y10.816
G3 X25.511 Y11.111 I0.007 J0.295
G1 Y18.643
G3 X24.921 I-0.295
G1 Y14.877
X25.216 Y11.111
G3 X25.5 Y10.839 I0.294 J0.023
G1 X26.386 Y10.806
G3 X26.692 Y11.101 I0.011 J0.295
G1 Y18.644
G3 X26.102 I-0.295
G1 Y14.872
X26.397 Y11.101
G3 X26.684 Y10.829 I0.294 J0.023
G1 X27.57 Y10.807
G3 X27.872 Y11.102 I0.007 J0.295
G1 Y26.398
G3 X27.282 I-0.295
G1 Y18.75
X27.577 Y11.102
G3 X27.868 Y10.819 I0.295 J0.011
G1 X28.754 Y10.809
G3 X29.052 Y11.104 I0.003 J0.295
G1 Y26.399
G3 X28.462 I-0.295
G1 Y18.752
X28.757 Y11.104
G3 X29.049 Y10.82 I0.295 J0.011
G1 X29.934 Y10.81
G3 X30.233 Y11.105 I0.003 J0.295
G1 Y26.39
G3 X29.643 I-0.295
G1 Y18.747
X29.938 Y11.105
G3 X30.229 Y10.821 I0.295 J0.011
G1 X31.115 Y10.811
G3 X31.413 Y11.106 I0.003 J0.295
G1 Y26.391
G3 X30.823 I-0.295
G1 Y18.749
X31.118 Y11.106
G3 X31.409 Y10.823 I0.295 J0.011
G1 X32.295 Y10.813
G3 X32.593 Y11.108 I0.003 J0.295
G1 Y26.392
G3 X32.003 I-0.295
G1 Y18.75
X32.298 Y11.108
G3 X32.59 Y10.824 I0.295 J0.011
G1 X33.475 Y10.814
G3 X33.774 Y11.109 I0.003 J0.295
G1 Y26.394
G3 X33.184 I-0.295
G1 Y18.751
X33.479 Y11.109
G3 X33.77 Y10.825 I0.295 J0.011
G1 X34.656 Y10.815
G3 X34.954 Y11.11 I0.003 J0.295
G1 Y26.395
G3 X34.364 I-0.295
G1 Y18.753
X34.659 Y11.11
G3 X34.947 Y10.827 I0.295 J0.011
G1 X35.832 Y10.806
G3 X36.134 Y11.101 I0.007 J0.295
G1 Y26.396
G3 X35.544 I-0.295
G1 Y18.749
X35.839 Y11.101
G3 X36.131 Y10.817 I0.295 J0.011
G1 X37.016 Y10.807
G3 X37.315 Y11.102 I0.003 J0.295
G1 Y26.398
G3 X36.725 I-0.295
G1 Y18.75
X37.02 Y11.102
G3 X37.207 Y10.839 I0.295 J0.011
G1 X38.097 Y10.49
G3 X38.5 Y10.765 I0.108 J0.275
G1 Y25
Y26.392
G3 X38.222 Y26.576 I-0.2
G1 X-0.178 Y10.428
G2 X-0.456 Y10.613 I-0.078 J0.184
G19 G2 Y10.913 Z-8.3 K-0.3 F30
G1 Z-8.7
G3 Y11.213 Z-9 J0.3
G1 Y11.224
Y26.277 F70
G17 G3 X-1.046 I-0.295
G1 Y18.751
X-0.751 Y11.224
G3 X-0.5 Y10.944 I0.295 J0.012
G1 X0.386 Y10.812
G3 X0.724 Y11.104 I0.043 J0.292
G1 Y26.4
G3 X0.134 I-0.295
G1 Y18.752
X0.429 Y11.104
G3 X0.721 Y10.821 I0.295 J0.011
G1 X1.606 Y10.811
G3 X1.905 Y11.106 I0.003 J0.295
G1 Y26.39
G3 X1.315 I-0.295
G1 Y18.748
X1.61 Y11.106
G3 X1.901 Y10.822 I0.295 J0.011
G1 X2.787 Y10.812
G3 X3.085 Y11.107 I0.003 J0.295
G1 Y26.392
G3 X2.495 I-0.295
G1 Y18.749
X2.79 Y11.107
G3 X3.082 Y10.823 I0.295 J0.011
G1 X3.967 Y10.813
G3 X4.265 Y11.108 I0.003 J0.295
G1 Y26.393
G3 X3.675 I-0.295
G1 Y18.751
X3.97 Y11.108
G3 X4.262 Y10.825 I0.295 J0.011
G1 X5.147 Y10.815
G3 X5.446 Y11.11 I0.003 J0.295
G1 Y26.394
G3 X4.856 I-0.295
G1 Y18.752
X5.151 Y11.11
G3 X5.439 Y10.826 I0.295 J0.011
G1 X6.324 Y10.805
G3 X6.626 Y11.1 I0.007 J0.295
G1 Y26.396
G3 X6.036 I-0.295
G1 Y18.748
X6.331 Y11.1
G3 X6.623 Y10.816 I0.295 J0.011
G1 X7.508 Y10.806
G3 X7.806 Y11.101 I0.003 J0.295
G1 Y26.397
G3 X7.216 I-0.295
G1 Y18.749
X7.511 Y11.101
G3 X7.803 Y10.818 I0.295 J0.011
G1 X8.688 Y10.808
G3 X8.987 Y11.103 I0.003 J0.295
G1 Y26.398
G3 X8.397 I-0.295
G1 Y18.751
X8.692 Y11.103
G3 X8.983 Y10.819 I0.295 J0.011
G1 X9.869 Y10.809
G3 X10.167 Y11.104 I0.003 J0.295
G1 Y26.4
G3 X9.577 I-0.295
G1 Y18.752
X9.872 Y11.104
G3 X10.164 Y10.82 I0.295 J0.011
G1 X11.049 Y10.81
G3 X11.347 Y11.105 I0.003 J0.295
G1 Y26.39
G3 X10.757 I-0.295
G1 Y18.748
X11.052 Y11.105
G3 X11.344 Y10.822 I0.295 J0.011
G1 X12.229 Y10.812
G3 X12.528 Y11.107 I0.003 J0.295
G1 Y18.672
Y19.323
Y26.391
G3 X11.938 I-0.295
G1 Y22.857
X12.233 Y19.323
G3 X12.53 Y19.053 I0.294 J0.025
G1 X13.416 Y19.063
G3 X13.708 Y19.358 I-0.003 J0.295
G1 Y26.393
G3 X13.118 I-0.295
G1 Y22.875
X13.413 Y19.358
G3 X13.699 Y19.088 I0.294 J0.025
G1 X14.586 Y19.064
G3 X14.888 Y19.359 I0.008 J0.295
G1 Y26.394
G3 X14.298 I-0.295
G1 Y22.877
X14.593 Y19.359
G3 X14.879 Y19.089 I0.294 J0.025
G1 X15.727 Y19.065
G3 X16.031 Y19.361 I0.008 J0.295
G1 X16.024 Y25
X16.027 Y26.392
G3 X15.732 Y26.687 I-0.295 J0.001
X15.436 Y26.392 J-0.295
G1 Y22.875
X15.736 Y19.36
G3 X16.019 Y19.09 I0.294 J0.025
G1 X16.943 Y19.056
G3 X17.249 Y19.351 I0.011 J0.295
G1 Y26.397
G3 X16.659 I-0.295
G1 Y22.874
X16.954 Y19.351
G3 X17.24 Y19.081 I0.294 J0.025
G1 X18.127 Y19.057
G3 X18.429 Y19.352 I0.008 J0.295
G1 Y26.398
G3 X17.839 I-0.295
G1 Y22.875
X18.134 Y19.352
G3 X18.421 Y19.082 I0.294 J0.025
G1 X19.307 Y19.059
G3 X19.61 Y19.354 I0.008 J0.295
G1 Y26.4
G3 X19.02 I-0.295
G1 Y22.877
X19.315 Y19.354
G3 X19.601 Y19.083 I0.294 J0.025
G1 X20.487 Y19.06
G3 X20.79 Y19.355 I0.008 J0.295
G1 Y26.39
G3 X20.2 I-0.295
G1 Y22.872
X20.495 Y19.355
G3 X20.781 Y19.085 I0.294 J0.025
G1 X21.668 Y19.061
G3 X21.97 Y19.356 I0.008 J0.295
G1 Y26.391
G3 X21.38 I-0.295
G1 Y22.874
X21.675 Y19.356
G3 X21.962 Y19.086 I0.294 J0.025
G1 X22.848 Y19.063
G3 X23.151 Y19.358 I0.008 J0.295
G1 Y26.393
G3 X22.561 I-0.295
G1 Y22.875
X22.856 Y19.358
G3 X23.142 Y19.087 I0.294 J0.025
G1 X24.028 Y19.064
G3 X24.331 Y19.359 I0.008 J0.295
G1 Y26.394
G3 X23.741 I-0.295
G1 Y22.876
X24.036 Y19.359
G3 X24.322 Y19.089 I0.294 J0.025
G1 X25.209 Y19.065
G3 X25.511 Y19.36 I0.008 J0.295
G1 Y26.395
G3 X24.921 I-0.295
G1 Y22.878
X25.216 Y19.36
G3 X25.499 Y19.09 I0.294 J0.025
G1 X26.385 Y19.056
G3 X26.692 Y19.351 I0.011 J0.295
G1 Y26.397
G3 X26.465 Y26.526 I-0.15
G1 X12.593 Y18.302
X12.563 Y18.279
X12.54 Y18.249
X11.062 Y15.703
X11.048 Y15.669
X11.042 Y15.631
X11.046 Y15.594
X11.059 Y15.558
X13.425 Y11.039
G3 X13.708 Y11.108 I0.133 J0.07
G1 Y18.64
G3 X13.118 I-0.295
G1 Y14.874
X13.413 Y11.108
G3 X13.7 Y10.836 I0.294 J0.023
G1 X14.586 Y10.815
G3 X14.888 Y11.11 I0.007 J0.295
G1 Y18.641
G3 X14.298 I-0.295
G1 Y14.875
X14.593 Y11.11
G3 X14.88 Y10.838 I0.294 J0.023
G1 X15.738 Y10.815
G3 X16.041 Y11.111 I0.008 J0.295
G1 X16.032 Y18.643
G3 X15.441 Y18.642 I-0.295
G1 X15.446 Y14.876
X15.746 Y11.11
G3 X16.029 Y10.839 I0.294 J0.023
G1 X16.943 Y10.806
G3 X17.249 Y11.101 I0.011 J0.295
G1 Y18.644
G3 X16.659 I-0.295
G1 Y14.873
X16.954 Y11.101
G3 X17.241 Y10.829 I0.294 J0.023
G1 X18.127 Y10.808
G3 X18.429 Y11.103 I0.007 J0.295
G1 Y18.645
G3 X17.839 Y18.646 I-0.295
G1 Y14.874
X18.134 Y11.103
G3 X18.421 Y10.831 I0.294 J0.023
G1 X19.307 Y10.809
G3 X19.61 Y11.104 I0.007 J0.295
G1 Y18.647
G3 X19.02 I-0.295
G1 Y14.875
X19.315 Y11.104
G3 X19.602 Y10.832 I0.294 J0.023
G1 X20.488 Y10.81
G3 X20.79 Y11.105 I0.007 J0.295
G1 Y18.648
G3 X20.2 I-0.295
G1 Y14.877
X20.495 Y11.105
G3 X20.782 Y10.833 I0.294 J0.023
G1 X21.668 Y10.812
G3 X21.97 Y11.107 I0.007 J0.295
G1 Y18.65
G3 X21.38 I-0.295
G1 Y14.878
X21.675 Y11.107
G3 X21.962 Y10.835 I0.294 J0.023
G1 X22.848 Y10.813
G3 X23.151 Y11.108 I0.007 J0.295
G1 Y18.64
G3 X22.561 I-0.295
G1 Y14.874
X22.856 Y11.108
G3 X23.143 Y10.836 I0.294 J0.023
G1 X24.029 Y10.814
G3 X24.331 Y11.109 I0.007 J0.295
G1 Y18.641
G3 X23.741 I-0.295
G1 Y14.875
X24.036 Y11.109
G3 X24.323 Y10.837 I0.294 J0.023
G1 X25.209 Y10.816
G3 X25.511 Y11.111 I0.007 J0.295
G1 Y18.643
G3 X24.921 I-0.295
G1 Y14.877
X25.216 Y11.111
G3 X25.5 Y10.839 I0.294 J0.023
G1 X26.386 Y10.806
G3 X26.692 Y11.101 I0.011 J0.295
G1 Y18.644
G3 X26.102 I-0.295
G1 Y14.872
X26.397 Y11.101
G3 X26.684 Y10.829 I0.294 J0.023
G1 X27.57 Y10.807
G3 X27.872 Y11.102 I0.007 J0.295
G1 Y26.398
G3 X27.282 I-0.295
G1 Y18.75
X27.577 Y11.102
G3 X27.868 Y10.819 I0.295 J0.011
G1 X28.754 Y10.809
G3 X29.052 Y11.104 I0.003 J0.295
G1 Y26.399
G3 X28.462 I-0.295
G1 Y18.752
X28.757 Y11.104
G3 X29.049 Y10.82 I0.295 J0.011
G1 X29.934 Y10.81
G3 X30.233 Y11.105 I0.003 J0.295
G1 Y26.39
G3 X29.643 I-0.295
G1 Y18.747
X29.938 Y11.105
G3 X30.229 Y10.821 I0.295 J0.011
G1 X31.115 Y10.811
G3 X31.413 Y11.106 I0.003 J0.295
G1 Y26.391
G3 X30.823 I-0.295
G1 Y18.749
X31.118 Y11.106
G3 X31.409 Y10.823 I0.295 J0.011
G1 X32.295 Y10.813
G3 X32.593 Y11.108 I0.003 J0.295
G1 Y26.392
G3 X32.003 I-0.295
G1 Y18.75
X32.298 Y11.108
G3 X32.59 Y10.824 I0.295 J0.011
G1 X33.475 Y10.814
G3 X33.774 Y11.109 I0.003 J0.295
G1 Y26.394
G3 X33.184 I-0.295
G1 Y18.751
X33.479 Y11.109
G3 X33.77 Y10.825 I0.295 J0.011
G1 X34.656 Y10.815
G3 X34.954 Y11.11 I0.003 J0.295
G1 Y26.395
G3 X34.364 I-0.295
G1 Y18.753
X34.659 Y11.11
G3 X34.947 Y10.827 I0.295 J0.011
G1 X35.832 Y10.806
G3 X36.134 Y11.101 I0.007 J0.295
G1 Y26.396
G3 X35.544 I-0.295
G1 Y18.749
X35.839 Y11.101
G3 X36.131 Y10.817 I0.295 J0.011
G1 X37.016 Y10.807
G3 X37.315 Y11.102 I0.003 J0.295
G1 Y26.398
G3 X36.725 I-0.295
G1 Y18.75
X37.02 Y11.102
G3 X37.207 Y10.839 I0.295 J0.011
G1 X38.097 Y10.49
G3 X38.5 Y10.765 I0.108 J0.275
G1 Y25
Y26.392
G3 X38.222 Y26.576 I-0.2
G1 X-0.178 Y10.428
G2 X-0.456 Y10.613 I-0.078 J0.184
G19 G2 Y10.913 Z-9.3 K-0.3 F30
G1 Z-9.7
G3 Y11.213 Z-10 J0.3
G1 Y11.224
Y26.277 F70
G17 G3 X-1.046 I-0.295
G1 Y18.751
X-0.751 Y11.224
G3 X-0.5 Y10.944 I0.295 J0.012
G1 X0.386 Y10.812
G3 X0.724 Y11.104 I0.043 J0.292
G1 Y26.4
G3 X0.134 I-0.295
G1 Y18.752
X0.429 Y11.104
G3 X0.721 Y10.821 I0.295 J0.011
G1 X1.606 Y10.811
G3 X1.905 Y11.106 I0.003 J0.295
G1 Y26.39
G3 X1.315 I-0.295
G1 Y18.748
X1.61 Y11.106
G3 X1.901 Y10.822 I0.295 J0.011
G1 X2.787 Y10.812
G3 X3.085 Y11.107 I0.003 J0.295
G1 Y26.392
G3 X2.495 I-0.295
G1 Y18.749
X2.79 Y11.107
G3 X3.082 Y10.823 I0.295 J0.011
G1 X3.967 Y10.813
G3 X4.265 Y11.108 I0.003 J0.295
G1 Y26.393
G3 X3.675 I-0.295
G1 Y18.751
X3.97 Y11.108
G3 X4.262 Y10.825 I0.295 J0.011
G1 X5.147 Y10.815
G3 X5.446 Y11.11 I0.003 J0.295
G1 Y26.394
G3 X4.856 I-0.295
G1 Y18.752
X5.151 Y11.11
G3 X5.439 Y10.826 I0.295 J0.011
G1 X6.324 Y10.805
G3 X6.626 Y11.1 I0.007 J0.295
G1 Y26.396
G3 X6.036 I-0.295
G1 Y18.748
X6.331 Y11.1
G3 X6.623 Y10.816 I0.295 J0.011
G1 X7.508 Y10.806
G3 X7.806 Y11.101 I0.003 J0.295
G1 Y26.397
G3 X7.216 I-0.295
G1 Y18.749
X7.511 Y11.101
G3 X7.803 Y10.818 I0.295 J0.011
G1 X8.688 Y10.808
G3 X8.987 Y11.103 I0.003 J0.295
G1 Y26.398
G3 X8.397 I-0.295
G1 Y18.751
X8.692 Y11.103
G3 X8.983 Y10.819 I0.295 J0.011
G1 X9.869 Y10.809
G3 X10.167 Y11.104 I0.003 J0.295
G1 Y26.4
G3 X9.577 I-0.295
G1 Y18.752
X9.872 Y11.104
G3 X10.164 Y10.82 I0.295 J0.011
G1 X11.049 Y10.81
G3 X11.347 Y11.105 I0.003 J0.295
G1 Y26.39
G3 X10.757 I-0.295
G1 Y18.748
X11.052 Y11.105
G3 X11.344 Y10.822 I0.295 J0.011
G1 X12.229 Y10.812
G3 X12.528 Y11.107 I0.003 J0.295
G1 Y18.672
Y19.323
Y26.391
G3 X11.938 I-0.295
G1 Y22.857
X12.233 Y19.323
G3 X12.53 Y19.053 I0.294 J0.025
G1 X13.416 Y19.063
G3 X13.708 Y19.358 I-0.003 J0.295
G1 Y26.393
G3 X13.118 I-0.295
G1 Y22.875
X13.413 Y19.358
G3 X13.699 Y19.088 I0.294 J0.025
G1 X14.586 Y19.064
G3 X14.888 Y19.359 I0.008 J0.295
G1 Y26.394
G3 X14.298 I-0.295
G1 Y22.877
X14.593 Y19.359
G3 X14.879 Y19.089 I0.294 J0.025
G1 X15.727 Y19.065
G3 X16.031 Y19.361 I0.008 J0.295
G1 X16.024 Y25
X16.027 Y26.392
G3 X15.732 Y26.687 I-0.295 J0.001
X15.436 Y26.392 J-0.295
G1 Y22.875
X15.736 Y19.36
G3 X16.019 Y19.09 I0.294 J0.025
G1 X16.943 Y19.056
G3 X17.249 Y19.351 I0.011 J0.295
G1 Y26.397
G3 X16.659 I-0.295
G1 Y22.874
X16.954 Y19.351
G3 X17.24 Y19.081 I0.294 J0.025
G1 X18.127 Y19.057
G3 X18.429 Y19.352 I0.008 J0.295
G1 Y26.398
G3 X17.839 I-0.295
G1 Y22.875
X18.134 Y19.352
G3 X18.421 Y19.082 I0.294 J0.025
G1 X19.307 Y19.059
G3 X19.61 Y19.354 I0.008 J0.295
G1 Y26.4
G3 X19.02 I-0.295
G1 Y22.877
X19.315 Y19.354
G3 X19.601 Y19.083 I0.294 J0.025
G1 X20.487 Y19.06
G3 X20.79 Y19.355 I0.008 J0.295
G1 Y26.39
G3 X20.2 I-0.295
G1 Y22.872
X20.495 Y19.355
G3 X20.781 Y19.085 I0.294 J0.025
G1 X21.668 Y19.061
G3 X21.97 Y19.356 I0.008 J0.295
G1 Y26.391
G3 X21.38 I-0.295
G1 Y22.874
X21.675 Y19.356
G3 X21.962 Y19.086 I0.294 J0.025
G1 X22.848 Y19.063
G3 X23.151 Y19.358 I0.008 J0.295
G1 Y26.393
G3 X22.561 I-0.295
G1 Y22.875
X22.856 Y19.358
G3 X23.142 Y19.087 I0.294 J0.025
G1 X24.028 Y19.064
G3 X24.331 Y19.359 I0.008 J0.295
G1 Y26.394
G3 X23.741 I-0.295
G1 Y22.876
X24.036 Y19.359
G3 X24.322 Y19.089 I0.294 J0.025
G1 X25.209 Y19.065
G3 X25.511 Y19.36 I0.008 J0.295
G1 Y26.395
G3 X24.921 I-0.295
G1 Y22.878
X25.216 Y19.36
G3 X25.499 Y19.09 I0.294 J0.025
G1 X26.385 Y19.056
G3 X26.692 Y19.351 I0.011 J0.295
G1 Y26.397
G3 X26.465 Y26.526 I-0.15
G1 X12.593 Y18.302
X12.563 Y18.279
X12.54 Y18.249
X11.062 Y15.703
X11.048 Y15.669
X11.042 Y15.631
X11.046 Y15.594
X11.059 Y15.558
X13.425 Y11.039
G3 X13.708 Y11.108 I0.133 J0.07
G1 Y18.64
G3 X13.118 I-0.295
G1 Y14.874
X13.413 Y11.108
G3 X13.7 Y10.836 I0.294 J0.023
G1 X14.586 Y10.815
G3 X14.888 Y11.11 I0.007 J0.295
G1 Y18.641
G3 X14.298 I-0.295
G1 Y14.875
X14.593 Y11.11
G3 X14.88 Y10.838 I0.294 J0.023
G1 X15.738 Y10.815
G3 X16.041 Y11.111 I0.008 J0.295
G1 X16.032 Y18.643
G3 X15.441 Y18.642 I-0.295
G1 X15.446 Y14.876
X15.746 Y11.11
G3 X16.029 Y10.839 I0.294 J0.023
G1 X16.943 Y10.806
G3 X17.249 Y11.101 I0.011 J0.295
G1 Y18.644
G3 X16.659 I-0.295
G1 Y14.873
X16.954 Y11.101
G3 X17.241 Y10.829 I0.294 J0.023
G1 X18.127 Y10.808
G3 X18.429 Y11.103 I0.007 J0.295
G1 Y18.645
G3 X17.839 Y18.646 I-0.295
G1 Y14.874
X18.134 Y11.103
G3 X18.421 Y10.831 I0.294 J0.023
G1 X19.307 Y10.809
G3 X19.61 Y11.104 I0.007 J0.295
G1 Y18.647
G3 X19.02 I-0.295
G1 Y14.875
X19.315 Y11.104
G3 X19.602 Y10.832 I0.294 J0.023
G1 X20.488 Y10.81
G3 X20.79 Y11.105 I0.007 J0.295
G1 Y18.648
G3 X20.2 I-0.295
G1 Y14.877
X20.495 Y11.105
G3 X20.782 Y10.833 I0.294 J0.023
G1 X21.668 Y10.812
G3 X21.97 Y11.107 I0.007 J0.295
G1 Y18.65
G3 X21.38 I-0.295
G1 Y14.878
X21.675 Y11.107
G3 X21.962 Y10.835 I0.294 J0.023
G1 X22.848 Y10.813
G3 X23.151 Y11.108 I0.007 J0.295
G1 Y18.64
G3 X22.561 I-0.295
G1 Y14.874
X22.856 Y11.108
G3 X23.143 Y10.836 I0.294 J0.023
G1 X24.029 Y10.814
G3 X24.331 Y11.109 I0.007 J0.295
G1 Y18.641
G3 X23.741 I-0.295
G1 Y14.875
X24.036 Y11.109
G3 X24.323 Y10.837 I0.294 J0.023
G1 X25.209 Y10.816
G3 X25.511 Y11.111 I0.007 J0.295
G1 Y18.643
G3 X24.921 I-0.295
G1 Y14.877
X25.216 Y11.111
G3 X25.5 Y10.839 I0.294 J0.023
G1 X26.386 Y10.806
G3 X26.692 Y11.101 I0.011 J0.295
G1 Y18.644
G3 X26.102 I-0.295
G1 Y14.872
X26.397 Y11.101
G3 X26.684 Y10.829 I0.294 J0.023
G1 X27.57 Y10.807
G3 X27.872 Y11.102 I0.007 J0.295
G1 Y26.398
G3 X27.282 I-0.295
G1 Y18.75
X27.577 Y11.102
G3 X27.868 Y10.819 I0.295 J0.011
G1 X28.754 Y10.809
G3 X29.052 Y11.104 I0.003 J0.295
G1 Y26.399
G3 X28.462 I-0.295
G1 Y18.752
X28.757 Y11.104
G3 X29.049 Y10.82 I0.295 J0.011
G1 X29.934 Y10.81
G3 X30.233 Y11.105 I0.003 J0.295
G1 Y26.39
G3 X29.643 I-0.295
G1 Y18.747
X29.938 Y11.105
G3 X30.229 Y10.821 I0.295 J0.011
G1 X31.115 Y10.811
G3 X31.413 Y11.106 I0.003 J0.295
G1 Y26.391
G3 X30.823 I-0.295
G1 Y18.749
X31.118 Y11.106
G3 X31.409 Y10.823 I0.295 J0.011
G1 X32.295 Y10.813
G3 X32.593 Y11.108 I0.003 J0.295
G1 Y26.392
G3 X32.003 I-0.295
G1 Y18.75
X32.298 Y11.108
G3 X32.59 Y10.824 I0.295 J0.011
G1 X33.475 Y10.814
G3 X33.774 Y11.109 I0.003 J0.295
G1 Y26.394
G3 X33.184 I-0.295
G1 Y18.751
X33.479 Y11.109
G3 X33.77 Y10.825 I0.295 J0.011
G1 X34.656 Y10.815
G3 X34.954 Y11.11 I0.003 J0.295
G1 Y26.395
G3 X34.364 I-0.295
G1 Y18.753
X34.659 Y11.11
G3 X34.947 Y10.827 I0.295 J0.011
G1 X35.832 Y10.806
G3 X36.134 Y11.101 I0.007 J0.295
G1 Y26.396
G3 X35.544 I-0.295
G1 Y18.749
X35.839 Y11.101
G3 X36.131 Y10.817 I0.295 J0.011
G1 X37.016 Y10.807
G3 X37.315 Y11.102 I0.003 J0.295
G1 Y26.398
G3 X36.725 I-0.295
G1 Y18.75
X37.02 Y11.102
G3 X37.207 Y10.839 I0.295 J0.011
G1 X38.097 Y10.49
G3 X38.5 Y10.765 I0.108 J0.275
G1 Y25
Y26.392
G3 X38.222 Y26.576 I-0.2
G1 X-0.178 Y10.428
G2 X-0.456 Y10.613 I-0.078 J0.184
G19 G2 Y10.913 Z-10.3 K-0.3 F30
G1 Z-10.7
G3 Y11.213 Z-11 J0.3
G1 Y11.224
Y26.277 F70
G17 G3 X-1.046 I-0.295
G1 Y18.751
X-0.751 Y11.224
G3 X-0.5 Y10.944 I0.295 J0.012
G1 X0.386 Y10.812
G3 X0.724 Y11.104 I0.043 J0.292
G1 Y26.4
G3 X0.134 I-0.295
G1 Y18.752
X0.429 Y11.104
G3 X0.721 Y10.821 I0.295 J0.011
G1 X1.606 Y10.811
G3 X1.905 Y11.106 I0.003 J0.295
G1 Y26.39
G3 X1.315 I-0.295
G1 Y18.748
X1.61 Y11.106
G3 X1.901 Y10.822 I0.295 J0.011
G1 X2.787 Y10.812
G3 X3.085 Y11.107 I0.003 J0.295
G1 Y26.392
G3 X2.495 I-0.295
G1 Y18.749
X2.79 Y11.107
G3 X3.082 Y10.823 I0.295 J0.011
G1 X3.967 Y10.813
G3 X4.265 Y11.108 I0.003 J0.295
G1 Y26.393
G3 X3.675 I-0.295
G1 Y18.751
X3.97 Y11.108
G3 X4.262 Y10.825 I0.295 J0.011
G1 X5.147 Y10.815
G3 X5.446 Y11.11 I0.003 J0.295
G1 Y26.394
G3 X4.856 I-0.295
G1 Y18.752
X5.151 Y11.11
G3 X5.439 Y10.826 I0.295 J0.011
G1 X6.324 Y10.805
G3 X6.626 Y11.1 I0.007 J0.295
G1 Y26.396
G3 X6.036 I-0.295
G1 Y18.748
X6.331 Y11.1
G3 X6.623 Y10.816 I0.295 J0.011
G1 X7.508 Y10.806
G3 X7.806 Y11.101 I0.003 J0.295
G1 Y26.397
G3 X7.216 I-0.295
G1 Y18.749
X7.511 Y11.101
G3 X7.803 Y10.818 I0.295 J0.011
G1 X8.688 Y10.808
G3 X8.987 Y11.103 I0.003 J0.295
G1 Y26.398
G3 X8.397 I-0.295
G1 Y18.751
X8.692 Y11.103
G3 X8.983 Y10.819 I0.295 J0.011
G1 X9.869 Y10.809
G3 X10.167 Y11.104 I0.003 J0.295
G1 Y26.4
G3 X9.577 I-0.295
G1 Y18.752
X9.872 Y11.104
G3 X10.164 Y10.82 I0.295 J0.011
G1 X11.049 Y10.81
G3 X11.347 Y11.105 I0.003 J0.295
G1 Y26.39
G3 X10.757 I-0.295
G1 Y18.748
X11.052 Y11.105
G3 X11.344 Y10.822 I0.295 J0.011
G1 X12.229 Y10.812
G3 X12.528 Y11.107 I0.003 J0.295
G1 Y18.672
Y19.323
Y26.391
G3 X11.938 I-0.295
G1 Y22.857
X12.233 Y19.323
G3 X12.53 Y19.053 I0.294 J0.025
G1 X13.416 Y19.063
G3 X13.708 Y19.358 I-0.003 J0.295
G1 Y26.393
G3 X13.118 I-0.295
G1 Y22.875
X13.413 Y19.358
G3 X13.699 Y19.088 I0.294 J0.025
G1 X14.586 Y19.064
G3 X14.888 Y19.359 I0.008 J0.295
G1 Y26.394
G3 X14.298 I-0.295
G1 Y22.877
X14.593 Y19.359
G3 X14.879 Y19.089 I0.294 J0.025
G1 X15.727 Y19.065
G3 X16.031 Y19.361 I0.008 J0.295
G1 X16.024 Y25
X16.027 Y26.392
G3 X15.732 Y26.687 I-0.295 J0.001
X15.436 Y26.392 J-0.295
G1 Y22.875
X15.736 Y19.36
G3 X16.019 Y19.09 I0.294 J0.025
G1 X16.943 Y19.056
G3 X17.249 Y19.351 I0.011 J0.295
G1 Y26.397
G3 X16.659 I-0.295
G1 Y22.874
X16.954 Y19.351
G3 X17.24 Y19.081 I0.294 J0.025
G1 X18.127 Y19.057
G3 X18.429 Y19.352 I0.008 J0.295
G1 Y26.398
G3 X17.839 I-0.295
G1 Y22.875
X18.134 Y19.352
G3 X18.421 Y19.082 I0.294 J0.025
G1 X19.307 Y19.059
G3 X19.61 Y19.354 I0.008 J0.295
G1 Y26.4
G3 X19.02 I-0.295
G1 Y22.877
X19.315 Y19.354
G3 X19.601 Y19.083 I0.294 J0.025
G1 X20.487 Y19.06
G3 X20.79 Y19.355 I0.008 J0.295
G1 Y26.39
G3 X20.2 I-0.295
G1 Y22.872
X20.495 Y19.355
G3 X20.781 Y19.085 I0.294 J0.025
G1 X21.668 Y19.061
G3 X21.97 Y19.356 I0.008 J0.295
G1 Y26.391
G3 X21.38 I-0.295
G1 Y22.874
X21.675 Y19.356
G3 X21.962 Y19.086 I0.294 J0.025
G1 X22.848 Y19.063
G3 X23.151 Y19.358 I0.008 J0.295
G1 Y26.393
G3 X22.561 I-0.295
G1 Y22.875
X22.856 Y19.358
G3 X23.142 Y19.087 I0.294 J0.025
G1 X24.028 Y19.064
G3 X24.331 Y19.359 I0.008 J0.295
G1 Y26.394
G3 X23.741 I-0.295
G1 Y22.876
X24.036 Y19.359
G3 X24.322 Y19.089 I0.294 J0.025
G1 X25.209 Y19.065
G3 X25.511 Y19.36 I0.008 J0.295
G1 Y26.395
G3 X24.921 I-0.295
G1 Y22.878
X25.216 Y19.36
G3 X25.499 Y19.09 I0.294 J0.025
G1 X26.385 Y19.056
G3 X26.692 Y19.351 I0.011 J0.295
G1 Y26.397
G3 X26.465 Y26.526 I-0.15
G1 X12.593 Y18.302
X12.563 Y18.279
X12.54 Y18.249
X11.062 Y15.703
X11.048 Y15.669
X11.042 Y15.631
X11.046 Y15.594
X11.059 Y15.558
X13.425 Y11.039
G3 X13.708 Y11.108 I0.133 J0.07
G1 Y18.64
G3 X13.118 I-0.295
G1 Y14.874
X13.413 Y11.108
G3 X13.7 Y10.836 I0.294 J0.023
G1 X14.586 Y10.815
G3 X14.888 Y11.11 I0.007 J0.295
G1 Y18.641
G3 X14.298 I-0.295
G1 Y14.875
X14.593 Y11.11
G3 X14.88 Y10.838 I0.294 J0.023
G1 X15.738 Y10.815
G3 X16.041 Y11.111 I0.008 J0.295
G1 X16.032 Y18.643
G3 X15.441 Y18.642 I-0.295
G1 X15.446 Y14.876
X15.746 Y11.11
G3 X16.029 Y10.839 I0.294 J0.023
G1 X16.943 Y10.806
G3 X17.249 Y11.101 I0.011 J0.295
G1 Y18.644
G3 X16.659 I-0.295
G1 Y14.873
X16.954 Y11.101
G3 X17.241 Y10.829 I0.294 J0.023
G1 X18.127 Y10.808
G3 X18.429 Y11.103 I0.007 J0.295
G1 Y18.645
G3 X17.839 Y18.646 I-0.295
G1 Y14.874
X18.134 Y11.103
G3 X18.421 Y10.831 I0.294 J0.023
G1 X19.307 Y10.809
G3 X19.61 Y11.104 I0.007 J0.295
G1 Y18.647
G3 X19.02 I-0.295
G1 Y14.875
X19.315 Y11.104
G3 X19.602 Y10.832 I0.294 J0.023
G1 X20.488 Y10.81
G3 X20.79 Y11.105 I0.007 J0.295
G1 Y18.648
G3 X20.2 I-0.295
G1 Y14.877
X20.495 Y11.105
G3 X20.782 Y10.833 I0.294 J0.023
G1 X21.668 Y10.812
G3 X21.97 Y11.107 I0.007 J0.295
G1 Y18.65
G3 X21.38 I-0.295
G1 Y14.878
X21.675 Y11.107
G3 X21.962 Y10.835 I0.294 J0.023
G1 X22.848 Y10.813
G3 X23.151 Y11.108 I0.007 J0.295
G1 Y18.64
G3 X22.561 I-0.295
G1 Y14.874
X22.856 Y11.108
G3 X23.143 Y10.836 I0.294 J0.023
G1 X24.029 Y10.814
G3 X24.331 Y11.109 I0.007 J0.295
G1 Y18.641
G3 X23.741 I-0.295
G1 Y14.875
X24.036 Y11.109
G3 X24.323 Y10.837 I0.294 J0.023
G1 X25.209 Y10.816
G3 X25.511 Y11.111 I0.007 J0.295
G1 Y18.643
G3 X24.921 I-0.295
G1 Y14.877
X25.216 Y11.111
G3 X25.5 Y10.839 I0.294 J0.023
G1 X26.386 Y10.806
G3 X26.692 Y11.101 I0.011 J0.295
G1 Y18.644
G3 X26.102 I-0.295
G1 Y14.872
X26.397 Y11.101
G3 X26.684 Y10.829 I0.294 J0.023
G1 X27.57 Y10.807
G3 X27.872 Y11.102 I0.007 J0.295
G1 Y26.398
G3 X27.282 I-0.295
G1 Y18.75
X27.577 Y11.102
G3 X27.868 Y10.819 I0.295 J0.011
G1 X28.754 Y10.809
G3 X29.052 Y11.104 I0.003 J0.295
G1 Y26.399
G3 X28.462 I-0.295
G1 Y18.752
X28.757 Y11.104
G3 X29.049 Y10.82 I0.295 J0.011
G1 X29.934 Y10.81
G3 X30.233 Y11.105 I0.003 J0.295
G1 Y26.39
G3 X29.643 I-0.295
G1 Y18.747
X29.938 Y11.105
G3 X30.229 Y10.821 I0.295 J0.011
G1 X31.115 Y10.811
G3 X31.413 Y11.106 I0.003 J0.295
G1 Y26.391
G3 X30.823 I-0.295
G1 Y18.749
X31.118 Y11.106
G3 X31.409 Y10.823 I0.295 J0.011
G1 X32.295 Y10.813
G3 X32.593 Y11.108 I0.003 J0.295
G1 Y26.392
G3 X32.003 I-0.295
G1 Y18.75
X32.298 Y11.108
G3 X32.59 Y10.824 I0.295 J0.011
G1 X33.475 Y10.814
G3 X33.774 Y11.109 I0.003 J0.295
G1 Y26.394
G3 X33.184 I-0.295
G1 Y18.751
X33.479 Y11.109
G3 X33.77 Y10.825 I0.295 J0.011
G1 X34.656 Y10.815
G3 X34.954 Y11.11 I0.003 J0.295
G1 Y26.395
G3 X34.364 I-0.295
G1 Y18.753
X34.659 Y11.11
G3 X34.947 Y10.827 I0.295 J0.011
G1 X35.832 Y10.806
G3 X36.134 Y11.101 I0.007 J0.295
G1 Y26.396
G3 X35.544 I-0.295
G1 Y18.749
X35.839 Y11.101
G3 X36.131 Y10.817 I0.295 J0.011
G1 X37.016 Y10.807
G3 X37.315 Y11.102 I0.003 J0.295
G1 Y26.398
G3 X36.725 I-0.295
G1 Y18.75
X37.02 Y11.102
G3 X37.207 Y10.839 I0.295 J0.011
G1 X38.097 Y10.49
G3 X38.5 Y10.765 I0.108 J0.275
G1 Y25
Y26.392
G3 X38.222 Y26.576 I-0.2
G1 X-0.178 Y10.428
G2 X-0.456 Y10.613 I-0.078 J0.184
G19 G2 Y10.913 Z-11.3 K-0.3 F30
G1 Z-11.7
G3 Y11.213 Z-12 J0.3
G1 Y11.224
Y26.277 F70
G17 G3 X-1.046 I-0.295
G1 Y18.751
X-0.751 Y11.224
G3 X-0.5 Y10.944 I0.295 J0.012
G1 X0.386 Y10.812
G3 X0.724 Y11.104 I0.043 J0.292
G1 Y26.4
G3 X0.134 I-0.295
G1 Y18.752
X0.429 Y11.104
G3 X0.721 Y10.821 I0.295 J0.011
G1 X1.606 Y10.811
G3 X1.905 Y11.106 I0.003 J0.295
G1 Y26.39
G3 X1.315 I-0.295
G1 Y18.748
X1.61 Y11.106
G3 X1.901 Y10.822 I0.295 J0.011
G1 X2.787 Y10.812
G3 X3.085 Y11.107 I0.003 J0.295
G1 Y26.392
G3 X2.495 I-0.295
G1 Y18.749
X2.79 Y11.107
G3 X3.082 Y10.823 I0.295 J0.011
G1 X3.967 Y10.813
G3 X4.265 Y11.108 I0.003 J0.295
G1 Y26.393
G3 X3.675 I-0.295
G1 Y18.751
X3.97 Y11.108
G3 X4.262 Y10.825 I0.295 J0.011
G1 X5.147 Y10.815
G3 X5.446 Y11.11 I0.003 J0.295
G1 Y26.394
G3 X4.856 I-0.295
G1 Y18.752
X5.151 Y11.11
G3 X5.439 Y10.826 I0.295 J0.011
G1 X6.324 Y10.805
G3 X6.626 Y11.1 I0.007 J0.295
G1 Y26.396
G3 X6.036 I-0.295
G1 Y18.748
X6.331 Y11.1
G3 X6.623 Y10.816 I0.295 J0.011
G1 X7.508 Y10.806
G3 X7.806 Y11.101 I0.003 J0.295
G1 Y26.397
G3 X7.216 I-0.295
G1 Y18.749
X7.511 Y11.101
G3 X7.803 Y10.818 I0.295 J0.011
G1 X8.688 Y10.808
G3 X8.987 Y11.103 I0.003 J0.295
G1 Y26.398
G3 X8.397 I-0.295
G1 Y18.751
X8.692 Y11.103
G3 X8.983 Y10.819 I0.295 J0.011
G1 X9.869 Y10.809
G3 X10.167 Y11.104 I0.003 J0.295
G1 Y26.4
G3 X9.577 I-0.295
G1 Y18.752
X9.872 Y11.104
G3 X10.164 Y10.82 I0.295 J0.011
G1 X11.049 Y10.81
G3 X11.347 Y11.105 I0.003 J0.295
G1 Y26.39
G3 X10.757 I-0.295
G1 Y18.748
X11.052 Y11.105
G3 X11.344 Y10.822 I0.295 J0.011
G1 X12.229 Y10.812
G3 X12.528 Y11.107 I0.003 J0.295
G1 Y18.672
Y19.323
Y26.391
G3 X11.938 I-0.295
G1 Y22.857
X12.233 Y19.323
G3 X12.53 Y19.053 I0.294 J0.025
G1 X13.416 Y19.063
G3 X13.708 Y19.358 I-0.003 J0.295
G1 Y26.393
G3 X13.118 I-0.295
G1 Y22.875
X13.413 Y19.358
G3 X13.699 Y19.088 I0.294 J0.025
G1 X14.586 Y19.064
G3 X14.888 Y19.359 I0.008 J0.295
G1 Y26.394
G3 X14.298 I-0.295
G1 Y22.877
X14.593 Y19.359
G3 X14.879 Y19.089 I0.294 J0.025
G1 X15.727 Y19.065
G3 X16.031 Y19.361 I0.008 J0.295
G1 X16.024 Y25
X16.027 Y26.392
G3 X15.732 Y26.687 I-0.295 J0.001
X15.436 Y26.392 J-0.295
G1 Y22.875
X15.736 Y19.36
G3 X16.019 Y19.09 I0.294 J0.025
G1 X16.943 Y19.056
G3 X17.249 Y19.351 I0.011 J0.295
G1 Y26.397
G3 X16.659 I-0.295
G1 Y22.874
X16.954 Y19.351
G3 X17.24 Y19.081 I0.294 J0.025
G1 X18.127 Y19.057
G3 X18.429 Y19.352 I0.008 J0.295
G1 Y26.398
G3 X17.839 I-0.295
G1 Y22.875
X18.134 Y19.352
G3 X18.421 Y19.082 I0.294 J0.025
G1 X19.307 Y19.059
G3 X19.61 Y19.354 I0.008 J0.295
G1 Y26.4
G3 X19.02 I-0.295
G1 Y22.877
X19.315 Y19.354
G3 X19.601 Y19.083 I0.294 J0.025
G1 X20.487 Y19.06
G3 X20.79 Y19.355 I0.008 J0.295
G1 Y26.39
G3 X20.2 I-0.295
G1 Y22.872
X20.495 Y19.355
G3 X20.781 Y19.085 I0.294 J0.025
G1 X21.668 Y19.061
G3 X21.97 Y19.356 I0.008 J0.295
G1 Y26.391
G3 X21.38 I-0.295
G1 Y22.874
X21.675 Y19.356
G3 X21.962 Y19.086 I0.294 J0.025
G1 X22.848 Y19.063
G3 X23.151 Y19.358 I0.008 J0.295
G1 Y26.393
G3 X22.561 I-0.295
G1 Y22.875
X22.856 Y19.358
G3 X23.142 Y19.087 I0.294 J0.025
G1 X24.028 Y19.064
G3 X24.331 Y19.359 I0.008 J0.295
G1 Y26.394
G3 X23.741 I-0.295
G1 Y22.876
X24.036 Y19.359
G3 X24.322 Y19.089 I0.294 J0.025
G1 X25.209 Y19.065
G3 X25.511 Y19.36 I0.008 J0.295
G1 Y26.395
G3 X24.921 I-0.295
G1 Y22.878
X25.216 Y19.36
G3 X25.499 Y19.09 I0.294 J0.025
G1 X26.385 Y19.056
G3 X26.692 Y19.351 I0.011 J0.295
G1 Y26.397
G3 X26.465 Y26.526 I-0.15
G1 X12.593 Y18.302
X12.563 Y18.279
X12.54 Y18.249
X11.062 Y15.703
X11.048 Y15.669
X11.042 Y15.631
X11.046 Y15.594
X11.059 Y15.558
X13.425 Y11.039
G3 X13.708 Y11.108 I0.133 J0.07
G1 Y18.64
G3 X13.118 I-0.295
G1 Y14.874
X13.413 Y11.108
G3 X13.7 Y10.836 I0.294 J0.023
G1 X14.586 Y10.815
G3 X14.888 Y11.11 I0.007 J0.295
G1 Y18.641
G3 X14.298 I-0.295
G1 Y14.875
X14.593 Y11.11
G3 X14.88 Y10.838 I0.294 J0.023
G1 X15.738 Y10.815
G3 X16.041 Y11.111 I0.008 J0.295
G1 X16.032 Y18.643
G3 X15.441 Y18.642 I-0.295
G1 X15.446 Y14.876
X15.746 Y11.11
G3 X16.029 Y10.839 I0.294 J0.023
G1 X16.943 Y10.806
G3 X17.249 Y11.101 I0.011 J0.295
G1 Y18.644
G3 X16.659 I-0.295
G1 Y14.873
X16.954 Y11.101
G3 X17.241 Y10.829 I0.294 J0.023
G1 X18.127 Y10.808
G3 X18.429 Y11.103 I0.007 J0.295
G1 Y18.645
G3 X17.839 Y18.646 I-0.295
G1 Y14.874
X18.134 Y11.103
G3 X18.421 Y10.831 I0.294 J0.023
G1 X19.307 Y10.809
G3 X19.61 Y11.104 I0.007 J0.295
G1 Y18.647
G3 X19.02 I-0.295
G1 Y14.875
X19.315 Y11.104
G3 X19.602 Y10.832 I0.294 J0.023
G1 X20.488 Y10.81
G3 X20.79 Y11.105 I0.007 J0.295
G1 Y18.648
G3 X20.2 I-0.295
G1 Y14.877
X20.495 Y11.105
G3 X20.782 Y10.833 I0.294 J0.023
G1 X21.668 Y10.812
G3 X21.97 Y11.107 I0.007 J0.295
G1 Y18.65
G3 X21.38 I-0.295
G1 Y14.878
X21.675 Y11.107
G3 X21.962 Y10.835 I0.294 J0.023
G1 X22.848 Y10.813
G3 X23.151 Y11.108 I0.007 J0.295
G1 Y18.64
G3 X22.561 I-0.295
G1 Y14.874
X22.856 Y11.108
G3 X23.143 Y10.836 I0.294 J0.023
G1 X24.029 Y10.814
G3 X24.331 Y11.109 I0.007 J0.295
G1 Y18.641
G3 X23.741 I-0.295
G1 Y14.875
X24.036 Y11.109
G3 X24.323 Y10.837 I0.294 J0.023
G1 X25.209 Y10.816
G3 X25.511 Y11.111 I0.007 J0.295
G1 Y18.643
G3 X24.921 I-0.295
G1 Y14.877
X25.216 Y11.111
G3 X25.5 Y10.839 I0.294 J0.023
G1 X26.386 Y10.806
G3 X26.692 Y11.101 I0.011 J0.295
G1 Y18.644
G3 X26.102 I-0.295
G1 Y14.872
X26.397 Y11.101
G3 X26.684 Y10.829 I0.294 J0.023
G1 X27.57 Y10.807
G3 X27.872 Y11.102 I0.007 J0.295
G1 Y26.398
G3 X27.282 I-0.295
G1 Y18.75
X27.577 Y11.102
G3 X27.868 Y10.819 I0.295 J0.011
G1 X28.754 Y10.809
G3 X29.052 Y11.104 I0.003 J0.295
G1 Y26.399
G3 X28.462 I-0.295
G1 Y18.752
X28.757 Y11.104
G3 X29.049 Y10.82 I0.295 J0.011
G1 X29.934 Y10.81
G3 X30.233 Y11.105 I0.003 J0.295
G1 Y26.39
G3 X29.643 I-0.295
G1 Y18.747
X29.938 Y11.105
G3 X30.229 Y10.821 I0.295 J0.011
G1 X31.115 Y10.811
G3 X31.413 Y11.106 I0.003 J0.295
G1 Y26.391
G3 X30.823 I-0.295
G1 Y18.749
X31.118 Y11.106
G3 X31.409 Y10.823 I0.295 J0.011
G1 X32.295 Y10.813
G3 X32.593 Y11.108 I0.003 J0.295
G1 Y26.392
G3 X32.003 I-0.295
G1 Y18.75
X32.298 Y11.108
G3 X32.59 Y10.824 I0.295 J0.011
G1 X33.475 Y10.814
G3 X33.774 Y11.109 I0.003 J0.295
G1 Y26.394
G3 X33.184 I-0.295
G1 Y18.751
X33.479 Y11.109
G3 X33.77 Y10.825 I0.295 J0.011
G1 X34.656 Y10.815
G3 X34.954 Y11.11 I0.003 J0.295
G1 Y26.395
G3 X34.364 I-0.295
G1 Y18.753
X34.659 Y11.11
G3 X34.947 Y10.827 I0.295 J0.011
G1 X35.832 Y10.806
G3 X36.134 Y11.101 I0.007 J0.295
G1 Y26.396
G3 X35.544 I-0.295
G1 Y18.749
X35.839 Y11.101
G3 X36.131 Y10.817 I0.295 J0.011
G1 X37.016 Y10.807
G3 X37.315 Y11.102 I0.003 J0.295
G1 Y26.398
G3 X36.725 I-0.295
G1 Y18.75
X37.02 Y11.102
G3 X37.207 Y10.839 I0.295 J0.011
G1 X38.097 Y10.49
G3 X38.5 Y10.765 I0.108 J0.275
G1 Y25
Y26.392
G3 X38.222 Y26.576 I-0.2
G1 X-0.178 Y10.428
G2 X-0.456 Y10.613 I-0.078 J0.184
G19 G2 Y10.913 Z-12.3 K-0.3 F30
G1 Z-12.7
G3 Y11.213 Z-13 J0.3
G1 Y11.224
Y26.277 F70
G17 G3 X-1.046 I-0.295
G1 Y18.751
X-0.751 Y11.224
G3 X-0.5 Y10.944 I0.295 J0.012
G1 X0.386 Y10.812
G3 X0.724 Y11.104 I0.043 J0.292
G1 Y26.4
G3 X0.134 I-0.295
G1 Y18.752
X0.429 Y11.104
G3 X0.721 Y10.821 I0.295 J0.011
G1 X1.606 Y10.811
G3 X1.905 Y11.106 I0.003 J0.295
G1 Y26.39
G3 X1.315 I-0.295
G1 Y18.748
X1.61 Y11.106
G3 X1.901 Y10.822 I0.295 J0.011
G1 X2.787 Y10.812
G3 X3.085 Y11.107 I0.003 J0.295
G1 Y26.392
G3 X2.495 I-0.295
G1 Y18.749
X2.79 Y11.107
G3 X3.082 Y10.823 I0.295 J0.011
G1 X3.967 Y10.813
G3 X4.265 Y11.108 I0.003 J0.295
G1 Y26.393
G3 X3.675 I-0.295
G1 Y18.751
X3.97 Y11.108
G3 X4.262 Y10.825 I0.295 J0.011
G1 X5.147 Y10.815
G3 X5.446 Y11.11 I0.003 J0.295
G1 Y26.394
G3 X4.856 I-0.295
G1 Y18.752
X5.151 Y11.11
G3 X5.439 Y10.826 I0.295 J0.011
G1 X6.324 Y10.805
G3 X6.626 Y11.1 I0.007 J0.295
G1 Y26.396
G3 X6.036 I-0.295
G1 Y18.748
X6.331 Y11.1
G3 X6.623 Y10.816 I0.295 J0.011
G1 X7.508 Y10.806
G3 X7.806 Y11.101 I0.003 J0.295
G1 Y26.397
G3 X7.216 I-0.295
G1 Y18.749
X7.511 Y11.101
G3 X7.803 Y10.818 I0.295 J0.011
G1 X8.688 Y10.808
G3 X8.987 Y11.103 I0.003 J0.295
G1 Y26.398
G3 X8.397 I-0.295
G1 Y18.751
X8.692 Y11.103
G3 X8.983 Y10.819 I0.295 J0.011
G1 X9.869 Y10.809
G3 X10.167 Y11.104 I0.003 J0.295
G1 Y26.4
G3 X9.577 I-0.295
G1 Y18.752
X9.872 Y11.104
G3 X10.164 Y10.82 I0.295 J0.011
G1 X11.049 Y10.81
G3 X11.347 Y11.105 I0.003 J0.295
G1 Y26.39
G3 X10.757 I-0.295
G1 Y18.748
X11.052 Y11.105
G3 X11.344 Y10.822 I0.295 J0.011
G1 X12.229 Y10.812
G3 X12.528 Y11.107 I0.003 J0.295
G1 Y18.672
Y19.323
Y26.391
G3 X11.938 I-0.295
G1 Y22.857
X12.233 Y19.323
G3 X12.53 Y19.053 I0.294 J0.025
G1 X13.416 Y19.063
G3 X13.708 Y19.358 I-0.003 J0.295
G1 Y26.393
G3 X13.118 I-0.295
G1 Y22.875
X13.413 Y19.358
G3 X13.699 Y19.088 I0.294 J0.025
G1 X14.586 Y19.064
G3 X14.888 Y19.359 I0.008 J0.295
G1 Y26.394
G3 X14.298 I-0.295
G1 Y22.877
X14.593 Y19.359
G3 X14.879 Y19.089 I0.294 J0.025
G1 X15.727 Y19.065
G3 X16.031 Y19.361 I0.008 J0.295
G1 X16.024 Y25
X16.027 Y26.392
G3 X15.732 Y26.687 I-0.295 J0.001
X15.436 Y26.392 J-0.295
G1 Y22.875
X15.736 Y19.36
G3 X16.019 Y19.09 I0.294 J0.025
G1 X16.943 Y19.056
G3 X17.249 Y19.351 I0.011 J0.295
G1 Y26.397
G3 X16.659 I-0.295
G1 Y22.874
X16.954 Y19.351
G3 X17.24 Y19.081 I0.294 J0.025
G1 X18.127 Y19.057
G3 X18.429 Y19.352 I0.008 J0.295
G1 Y26.398
G3 X17.839 I-0.295
G1 Y22.875
X18.134 Y19.352
G3 X18.421 Y19.082 I0.294 J0.025
G1 X19.307 Y19.059
G3 X19.61 Y19.354 I0.008 J0.295
G1 Y26.4
G3 X19.02 I-0.295
G1 Y22.877
X19.315 Y19.354
G3 X19.601 Y19.083 I0.294 J0.025
G1 X20.487 Y19.06
G3 X20.79 Y19.355 I0.008 J0.295
G1 Y26.39
G3 X20.2 I-0.295
G1 Y22.872
X20.495 Y19.355
G3 X20.781 Y19.085 I0.294 J0.025
G1 X21.668 Y19.061
G3 X21.97 Y19.356 I0.008 J0.295
G1 Y26.391
G3 X21.38 I-0.295
G1 Y22.874
X21.675 Y19.356
G3 X21.962 Y19.086 I0.294 J0.025
G1 X22.848 Y19.063
G3 X23.151 Y19.358 I0.008 J0.295
G1 Y26.393
G3 X22.561 I-0.295
G1 Y22.875
X22.856 Y19.358
G3 X23.142 Y19.087 I0.294 J0.025
G1 X24.028 Y19.064
G3 X24.331 Y19.359 I0.008 J0.295
G1 Y26.394
G3 X23.741 I-0.295
G1 Y22.876
X24.036 Y19.359
G3 X24.322 Y19.089 I0.294 J0.025
G1 X25.209 Y19.065
G3 X25.511 Y19.36 I0.008 J0.295
G1 Y26.395
G3 X24.921 I-0.295
G1 Y22.878
X25.216 Y19.36
G3 X25.499 Y19.09 I0.294 J0.025
G1 X26.385 Y19.056
G3 X26.692 Y19.351 I0.011 J0.295
G1 Y26.397
G3 X26.465 Y26.526 I-0.15
G1 X12.593 Y18.302
X12.563 Y18.279
X12.54 Y18.249
X11.062 Y15.703
X11.048 Y15.669
X11.042 Y15.631
X11.046 Y15.594
X11.059 Y15.558
X13.425 Y11.039
G3 X13.708 Y11.108 I0.133 J0.07
G1 Y18.64
G3 X13.118 I-0.295
G1 Y14.874
X13.413 Y11.108
G3 X13.7 Y10.836 I0.294 J0.023
G1 X14.586 Y10.815
G3 X14.888 Y11.11 I0.007 J0.295
G1 Y18.641
G3 X14.298 I-0.295
G1 Y14.875
X14.593 Y11.11
G3 X14.88 Y10.838 I0.294 J0.023
G1 X15.738 Y10.815
G3 X16.041 Y11.111 I0.008 J0.295
G1 X16.032 Y18.643
G3 X15.441 Y18.642 I-0.295
G1 X15.446 Y14.876
X15.746 Y11.11
G3 X16.029 Y10.839 I0.294 J0.023
G1 X16.943 Y10.806
G3 X17.249 Y11.101 I0.011 J0.295
G1 Y18.644
G3 X16.659 I-0.295
G1 Y14.873
X16.954 Y11.101
G3 X17.241 Y10.829 I0.294 J0.023
G1 X18.127 Y10.808
G3 X18.429 Y11.103 I0.007 J0.295
G1 Y18.645
G3 X17.839 Y18.646 I-0.295
G1 Y14.874
X18.134 Y11.103
G3 X18.421 Y10.831 I0.294 J0.023
G1 X19.307 Y10.809
G3 X19.61 Y11.104 I0.007 J0.295
G1 Y18.647
G3 X19.02 I-0.295
G1 Y14.875
X19.315 Y11.104
G3 X19.602 Y10.832 I0.294 J0.023
G1 X20.488 Y10.81
G3 X20.79 Y11.105 I0.007 J0.295
G1 Y18.648
G3 X20.2 I-0.295
G1 Y14.877
X20.495 Y11.105
G3 X20.782 Y10.833 I0.294 J0.023
G1 X21.668 Y10.812
G3 X21.97 Y11.107 I0.007 J0.295
G1 Y18.65
G3 X21.38 I-0.295
G1 Y14.878
X21.675 Y11.107
G3 X21.962 Y10.835 I0.294 J0.023
G1 X22.848 Y10.813
G3 X23.151 Y11.108 I0.007 J0.295
G1 Y18.64
G3 X22.561 I-0.295
G1 Y14.874
X22.856 Y11.108
G3 X23.143 Y10.836 I0.294 J0.023
G1 X24.029 Y10.814
G3 X24.331 Y11.109 I0.007 J0.295
G1 Y18.641
G3 X23.741 I-0.295
G1 Y14.875
X24.036 Y11.109
G3 X24.323 Y10.837 I0.294 J0.023
G1 X25.209 Y10.816
G3 X25.511 Y11.111 I0.007 J0.295
G1 Y18.643
G3 X24.921 I-0.295
G1 Y14.877
X25.216 Y11.111
G3 X25.5 Y10.839 I0.294 J0.023
G1 X26.386 Y10.806
G3 X26.692 Y11.101 I0.011 J0.295
G1 Y18.644
G3 X26.102 I-0.295
G1 Y14.872
X26.397 Y11.101
G3 X26.684 Y10.829 I0.294 J0.023
G1 X27.57 Y10.807
G3 X27.872 Y11.102 I0.007 J0.295
G1 Y26.398
G3 X27.282 I-0.295
G1 Y18.75
X27.577 Y11.102
G3 X27.868 Y10.819 I0.295 J0.011
G1 X28.754 Y10.809
G3 X29.052 Y11.104 I0.003 J0.295
G1 Y26.399
G3 X28.462 I-0.295
G1 Y18.752
X28.757 Y11.104
G3 X29.049 Y10.82 I0.295 J0.011
G1 X29.934 Y10.81
G3 X30.233 Y11.105 I0.003 J0.295
G1 Y26.39
G3 X29.643 I-0.295
G1 Y18.747
X29.938 Y11.105
G3 X30.229 Y10.821 I0.295 J0.011
G1 X31.115 Y10.811
G3 X31.413 Y11.106 I0.003 J0.295
G1 Y26.391
G3 X30.823 I-0.295
G1 Y18.749
X31.118 Y11.106
G3 X31.409 Y10.823 I0.295 J0.011
G1 X32.295 Y10.813
G3 X32.593 Y11.108 I0.003 J0.295
G1 Y26.392
G3 X32.003 I-0.295
G1 Y18.75
X32.298 Y11.108
G3 X32.59 Y10.824 I0.295 J0.011
G1 X33.475 Y10.814
G3 X33.774 Y11.109 I0.003 J0.295
G1 Y26.394
G3 X33.184 I-0.295
G1 Y18.751
X33.479 Y11.109
G3 X33.77 Y10.825 I0.295 J0.011
G1 X34.656 Y10.815
G3 X34.954 Y11.11 I0.003 J0.295
G1 Y26.395
G3 X34.364 I-0.295
G1 Y18.753
X34.659 Y11.11
G3 X34.947 Y10.827 I0.295 J0.011
G1 X35.832 Y10.806
G3 X36.134 Y11.101 I0.007 J0.295
G1 Y26.396
G3 X35.544 I-0.295
G1 Y18.749
X35.839 Y11.101
G3 X36.131 Y10.817 I0.295 J0.011
G1 X37.016 Y10.807
G3 X37.315 Y11.102 I0.003 J0.295
G1 Y26.398
G3 X36.725 I-0.295
G1 Y18.75
X37.02 Y11.102
G3 X37.207 Y10.839 I0.295 J0.011
G1 X38.097 Y10.49
G3 X38.5 Y10.765 I0.108 J0.275
G1 Y25
Y26.392
X38.496 Y26.438 F100
X38.262 Y27.92
X38.251 Y27.986 Z-12.992
X38.241 Y28.049 Z-12.97
X38.232 Y28.105 Z-12.935
X38.225 Y28.152 Z-12.887
X38.219 Y28.187 Z-12.83
X38.216 Y28.209 Z-12.767
X38.215 Y28.216 Z-12.7
G0 Z2

(2D Pocket2)
X12.5 Y19.25
G1 Z2 F33
Z-1
G3 Y18.75 J-0.25 F50
G1 X27.5
G3 Y19.25 J0.25
G1 X12.5
Z-2 F33
G3 Y18.75 J-0.25 F50
G1 X27.5
G3 Y19.25 J0.25
G1 X12.5
Z-3 F33
G3 Y18.75 J-0.25 F50
G1 X27.5
G3 Y19.25 J0.25
G1 X12.5
Z-4 F33
G3 Y18.75 J-0.25 F50
G1 X27.5
G3 Y19.25 J0.25
G1 X12.5
Z-5 F33
G3 Y18.75 J-0.25 F50
G1 X27.5
G3 Y19.25 J0.25
G1 X12.5
Z-6 F33
G3 Y18.75 J-0.25 F50
G1 X27.5
G3 Y19.25 J0.25
G1 X12.5
Z-7 F33
G3 Y18.75 J-0.25 F50
G1 X27.5
G3 Y19.25 J0.25
G1 X12.5
Z-8 F33
G3 Y18.75 J-0.25 F50
G1 X27.5
G3 Y19.25 J0.25
G1 X12.5
Z-9 F33
G3 Y18.75 J-0.25 F50
G1 X27.5
G3 Y19.25 J0.25
G1 X12.5
Z-10 F33
G3 Y18.75 J-0.25 F50
G1 X27.5
G3 Y19.25 J0.25
G1 X12.5
Z-11 F33
G3 Y18.75 J-0.25 F50
G1 X27.5
G3 Y19.25 J0.25
G1 X12.5
Z-12 F33
G3 Y18.75 J-0.25 F50
G1 X27.5
G3 Y19.25 J0.25
G1 X12.5
Z-13 F33
G3 Y18.75 J-0.25 F50
G1 X27.5
G3 Y19.25 J0.25
G1 X12.5
Z-14 F33
G3 Y18.75 J-0.25 F50
G1 X27.5
G3 Y19.25 J0.25
G1 X12.5
Z-15 F33
G3 Y18.75 J-0.25 F50
G1 X27.5
G3 Y19.25 J0.25
G1 X12.5
Z-16 F33
G3 Y18.75 J-0.25 F50
G1 X27.5
G3 Y19.25 J0.25
G1 X12.5
Z-17 F33
G3 Y18.75 J-0.25 F50
G1 X27.5
G3 Y19.25 J0.25
G1 X12.5
Z-18 F33
G3 Y18.75 J-0.25 F50
G1 X27.5
G3 Y19.25 J0.25
G1 X12.5
Z-19 F33
G3 Y18.75 J-0.25 F50
G1 X27.5
G3 Y19.25 J0.25
G1 X12.5
Z-20 F33
G3 Y18.75 J-0.25 F50
G1 X27.5
G3 Y19.25 J0.25
G1 X12.5
Z-21 F33
G3 Y18.75 J-0.25 F50
G1 X27.5
G3 Y19.25 J0.25
G1 X12.5
X12.443 Y19.243 Z-20.989 F100
X12.389 Y19.224 Z-20.977
X12.348 Y19.198 Z-20.945
X12.312 Y19.165 Z-20.912
X12.293 Y19.14 Z-20.863
X12.276 Y19.111 Z-20.815
X12.267 Y19.091 Z-20.7
G0 Z2

(2D Contour1)
X50.3 Y-2.4
G1 Z2 F33
Z-0.7
G19 G3 Y-2.1 Z-1 J0.3
G1 Y-1.8 F30
G17 G3 X50 Y-1.5 I-0.3
G1 X40 F60
G2 X38.5 Y0 J1.5
G1 Y10.5
G3 X38 Y11 I-0.5
G1 X0
G2 X-1.5 Y12.5 J1.5
G1 Y25
G2 X0 Y26.5 I1.5
G1 X50
G2 X51.5 Y25 J-1.5
G1 Y0
G2 X50 Y-1.5 I-1.5
G3 X49.7 Y-1.8 J-0.3 F100
G1 Y-2.1
G19 G2 Y-2.4 Z-0.7 K0.3
G0 Z1.516
X50.3
G1 Z-1.7 F33
G3 Y-2.1 Z-2 J0.3
G1 Y-1.8 F30
G17 G3 X50 Y-1.5 I-0.3
G1 X40 F60
G2 X38.5 Y0 J1.5
G1 Y10.5
G3 X38 Y11 I-0.5
G1 X0
G2 X-1.5 Y12.5 J1.5
G1 Y25
G2 X0 Y26.5 I1.5
G1 X50
G2 X51.5 Y25 J-1.5
G1 Y0
G2 X50 Y-1.5 I-1.5
G3 X49.7 Y-1.8 J-0.3 F100
G1 Y-2.1
G19 G2 Y-2.4 Z-1.7 K0.3
G0 Z0.516
X50.3
G1 Z-2.7 F33
G3 Y-2.1 Z-3 J0.3
G1 Y-1.8 F30
G17 G3 X50 Y-1.5 I-0.3
G1 X40 F60
G2 X38.5 Y0 J1.5
G1 Y10.5
G3 X38 Y11 I-0.5
G1 X0
G2 X-1.5 Y12.5 J1.5
G1 Y25
G2 X0 Y26.5 I1.5
G1 X50
G2 X51.5 Y25 J-1.5
G1 Y0
G2 X50 Y-1.5 I-1.5
G3 X49.7 Y-1.8 J-0.3 F100
G1 Y-2.1
G19 G2 Y-2.4 Z-2.7 K0.3
G0 Z0.5
X50.3
Z0.3
G1 Z-0.484 F33
Z-3.7
G3 Y-2.1 Z-4 J0.3
G1 Y-1.8 F30
G17 G3 X50 Y-1.5 I-0.3
G1 X40 F60
G2 X38.5 Y0 J1.5
G1 Y10.5
G3 X38 Y11 I-0.5
G1 X0
G2 X-1.5 Y12.5 J1.5
G1 Y25
G2 X0 Y26.5 I1.5
G1 X50
G2 X51.5 Y25 J-1.5
G1 Y0
G2 X50 Y-1.5 I-1.5
G3 X49.7 Y-1.8 J-0.3 F100
G1 Y-2.1
G19 G2 Y-2.4 Z-3.7 K0.3
G0 Z0.5
X50.3
Z0.3
G1 Z-1.484 F33
Z-4.7
G3 Y-2.1 Z-5 J0.3
G1 Y-1.8 F30
G17 G3 X50 Y-1.5 I-0.3
G1 X40 F60
G2 X38.5 Y0 J1.5
G1 Y10.5
G3 X38 Y11 I-0.5
G1 X0
G2 X-1.5 Y12.5 J1.5
G1 Y25
G2 X0 Y26.5 I1.5
G1 X50
G2 X51.5 Y25 J-1.5
G1 Y0
G2 X50 Y-1.5 I-1.5
G3 X49.7 Y-1.8 J-0.3 F100
G1 Y-2.1
G19 G2 Y-2.4 Z-4.7 K0.3
G0 Z0.5
X50.3
Z0.3
G1 Z-2.484 F33
Z-5.7
G3 Y-2.1 Z-6 J0.3
G1 Y-1.8 F30
G17 G3 X50 Y-1.5 I-0.3
G1 X40 F60
G2 X38.5 Y0 J1.5
G1 Y10.5
G3 X38 Y11 I-0.5
G1 X0
G2 X-1.5 Y12.5 J1.5
G1 Y25
G2 X0 Y26.5 I1.5
G1 X50
G2 X51.5 Y25 J-1.5
G1 Y0
G2 X50 Y-1.5 I-1.5
G3 X49.7 Y-1.8 J-0.3 F100
G1 Y-2.1
G19 G2 Y-2.4 Z-5.7 K0.3
G0 Z0.5
X50.3
Z0.3
G1 Z-3.484 F33
Z-6.7
G3 Y-2.1 Z-7 J0.3
G1 Y-1.8 F30
G17 G3 X50 Y-1.5 I-0.3
G1 X40 F60
G2 X38.5 Y0 J1.5
G1 Y10.5
G3 X38 Y11 I-0.5
G1 X0
G2 X-1.5 Y12.5 J1.5
G1 Y25
G2 X0 Y26.5 I1.5
G1 X50
G2 X51.5 Y25 J-1.5
G1 Y0
G2 X50 Y-1.5 I-1.5
G3 X49.7 Y-1.8 J-0.3 F100
G1 Y-2.1
G19 G2 Y-2.4 Z-6.7 K0.3
G0 Z0.5
X50.3
Z0.3
G1 Z-4.484 F33
Z-7.7
G3 Y-2.1 Z-8 J0.3
G1 Y-1.8 F30
G17 G3 X50 Y-1.5 I-0.3
G1 X40 F60
G2 X38.5 Y0 J1.5
G1 Y10.5
G3 X38 Y11 I-0.5
G1 X0
G2 X-1.5 Y12.5 J1.5
G1 Y25
G2 X0 Y26.5 I1.5
G1 X50
G2 X51.5 Y25 J-1.5
G1 Y0
G2 X50 Y-1.5 I-1.5
G3 X49.7 Y-1.8 J-0.3 F100
G1 Y-2.1
G19 G2 Y-2.4 Z-7.7 K0.3
G0 Z0.5
X50.3
Z0.3
G1 Z-5.484 F33
Z-8.7
G3 Y-2.1 Z-9 J0.3
G1 Y-1.8 F30
G17 G3 X50 Y-1.5 I-0.3
G1 X40 F60
G2 X38.5 Y0 J1.5
G1 Y10.5
G3 X38 Y11 I-0.5
G1 X0
G2 X-1.5 Y12.5 J1.5
G1 Y25
G2 X0 Y26.5 I1.5
G1 X50
G2 X51.5 Y25 J-1.5
G1 Y0
G2 X50 Y-1.5 I-1.5
G3 X49.7 Y-1.8 J-0.3 F100
G1 Y-2.1
G19 G2 Y-2.4 Z-8.7 K0.3
G0 Z0.5
X50.3
Z0.3
G1 Z-6.484 F33
Z-9.7
G3 Y-2.1 Z-10 J0.3
G1 Y-1.8 F30
G17 G3 X50 Y-1.5 I-0.3
G1 X40 F60
G2 X38.5 Y0 J1.5
G1 Y10.5
G3 X38 Y11 I-0.5
G1 X0
G2 X-1.5 Y12.5 J1.5
G1 Y25
G2 X0 Y26.5 I1.5
G1 X50
G2 X51.5 Y25 J-1.5
G1 Y0
G2 X50 Y-1.5 I-1.5
G3 X49.7 Y-1.8 J-0.3 F100
G1 Y-2.1
G19 G2 Y-2.4 Z-9.7 K0.3
G0 Z0.5
X50.3
Z0.3
G1 Z-7.484 F33
Z-10.7
G3 Y-2.1 Z-11 J0.3
G1 Y-1.8 F30
G17 G3 X50 Y-1.5 I-0.3
G1 X40 F60
G2 X38.5 Y0 J1.5
G1 Y10.5
G3 X38 Y11 I-0.5
G1 X0
G2 X-1.5 Y12.5 J1.5
G1 Y25
G2 X0 Y26.5 I1.5
G1 X50
G2 X51.5 Y25 J-1.5
G1 Y0
G2 X50 Y-1.5 I-1.5
G3 X49.7 Y-1.8 J-0.3 F100
G1 Y-2.1
G19 G2 Y-2.4 Z-10.7 K0.3
G0 Z0.5
X50.3
Z0.3
G1 Z-8.484 F33
Z-11.7
G3 Y-2.1 Z-12 J0.3
G1 Y-1.8 F30
G17 G3 X50 Y-1.5 I-0.3
G1 X40 F60
G2 X38.5 Y0 J1.5
G1 Y10.5
G3 X38 Y11 I-0.5
G1 X0
G2 X-1.5 Y12.5 J1.5
G1 Y25
G2 X0 Y26.5 I1.5
G1 X50
G2 X51.5 Y25 J-1.5
G1 Y0
G2 X50 Y-1.5 I-1.5
G3 X49.7 Y-1.8 J-0.3 F100
G1 Y-2.1
G19 G2 Y-2.4 Z-11.7 K0.3
G0 Z0.5
X50.3
Z0.3
G1 Z-9.484 F33
Z-12.7
G3 Y-2.1 Z-13 J0.3
G1 Y-1.8 F30
G17 G3 X50 Y-1.5 I-0.3
G1 X40 F60
G2 X38.5 Y0 J1.5
G1 Y10.5
G3 X38 Y11 I-0.5
G1 X0
G2 X-1.5 Y12.5 J1.5
G1 Y25
G2 X0 Y26.5 I1.5
G1 X50
G2 X51.5 Y25 J-1.5
G1 Y0
G2 X50 Y-1.5 I-1.5
G3 X49.7 Y-1.8 J-0.3 F100
G1 Y-2.1
G19 G2 Y-2.4 Z-12.7 K0.3
G0 Z0.5
X50.3
Z0.3
G1 Z-10.484 F33
Z-13.7
G3 Y-2.1 Z-14 J0.3
G1 Y-1.8 F30
G17 G3 X50 Y-1.5 I-0.3
G1 X40 F60
G2 X38.5 Y0 J1.5
G1 Y10.5
G3 X38 Y11 I-0.5
G1 X0
G2 X-1.5 Y12.5 J1.5
G1 Y25
G2 X0 Y26.5 I1.5
G1 X50
G2 X51.5 Y25 J-1.5
G1 Y0
G2 X50 Y-1.5 I-1.5
G3 X49.7 Y-1.8 J-0.3 F100
G1 Y-2.1
G19 G2 Y-2.4 Z-13.7 K0.3
G0 Z0.5
X50.3
Z0.3
G1 Z-11.484 F33
Z-14.7
G3 Y-2.1 Z-15 J0.3
G1 Y-1.8 F30
G17 G3 X50 Y-1.5 I-0.3
G1 X40 F60
G2 X38.5 Y0 J1.5
G1 Y10.5
G3 X38 Y11 I-0.5
G1 X0
G2 X-1.5 Y12.5 J1.5
G1 Y25
G2 X0 Y26.5 I1.5
G1 X50
G2 X51.5 Y25 J-1.5
G1 Y0
G2 X50 Y-1.5 I-1.5
G3 X49.7 Y-1.8 J-0.3 F100
G1 Y-2.1
G19 G2 Y-2.4 Z-14.7 K0.3
G0 Z0.5
X50.3
Z0.3
G1 Z-12.484 F33
Z-15.7
G3 Y-2.1 Z-16 J0.3
G1 Y-1.8 F30
G17 G3 X50 Y-1.5 I-0.3
G1 X40 F60
G2 X38.5 Y0 J1.5
G1 Y10.5
G3 X38 Y11 I-0.5
G1 X0
G2 X-1.5 Y12.5 J1.5
G1 Y25
G2 X0 Y26.5 I1.5
G1 X50
G2 X51.5 Y25 J-1.5
G1 Y0
G2 X50 Y-1.5 I-1.5
G3 X49.7 Y-1.8 J-0.3 F100
G1 Y-2.1
G19 G2 Y-2.4 Z-15.7 K0.3
G0 Z0.5
X50.3
Z0.3
G1 Z-13.484 F33
Z-16.7
G3 Y-2.1 Z-17 J0.3
G1 Y-1.8 F30
G17 G3 X50 Y-1.5 I-0.3
G1 X40 F60
G2 X38.5 Y0 J1.5
G1 Y10.5
G3 X38 Y11 I-0.5
G1 X0
G2 X-1.5 Y12.5 J1.5
G1 Y25
G2 X0 Y26.5 I1.5
G1 X50
G2 X51.5 Y25 J-1.5
G1 Y0
G2 X50 Y-1.5 I-1.5
G3 X49.7 Y-1.8 J-0.3 F100
G1 Y-2.1
G19 G2 Y-2.4 Z-16.7 K0.3
G0 Z0.5
X50.3
Z0.3
G1 Z-14.484 F33
Z-17.7
G3 Y-2.1 Z-18 J0.3
G1 Y-1.8 F30
G17 G3 X50 Y-1.5 I-0.3
G1 X40 F60
G2 X38.5 Y0 J1.5
G1 Y10.5
G3 X38 Y11 I-0.5
G1 X0
G2 X-1.5 Y12.5 J1.5
G1 Y25
G2 X0 Y26.5 I1.5
G1 X50
G2 X51.5 Y25 J-1.5
G1 Y0
G2 X50 Y-1.5 I-1.5
G3 X49.7 Y-1.8 J-0.3 F100
G1 Y-2.1
G19 G2 Y-2.4 Z-17.7 K0.3
G0 Z0.5
X50.3
Z0.3
G1 Z-15.484 F33
Z-18.7
G3 Y-2.1 Z-19 J0.3
G1 Y-1.8 F30
G17 G3 X50 Y-1.5 I-0.3
G1 X40 F60
G2 X38.5 Y0 J1.5
G1 Y10.5
G3 X38 Y11 I-0.5
G1 X0
G2 X-1.5 Y12.5 J1.5
G1 Y25
G2 X0 Y26.5 I1.5
G1 X50
G2 X51.5 Y25 J-1.5
G1 Y0
G2 X50 Y-1.5 I-1.5
G3 X49.7 Y-1.8 J-0.3 F100
G1 Y-2.1
G19 G2 Y-2.4 Z-18.7 K0.3
G0 Z0.5
X50.3
Z0.3
G1 Z-16.484 F33
Z-19.7
G3 Y-2.1 Z-20 J0.3
G1 Y-1.8 F30
G17 G3 X50 Y-1.5 I-0.3
G1 X40 F60
G2 X38.5 Y0 J1.5
G1 Y10.5
G3 X38 Y11 I-0.5
G1 X0
G2 X-1.5 Y12.5 J1.5
G1 Y25
G2 X0 Y26.5 I1.5
G1 X50
G2 X51.5 Y25 J-1.5
G1 Y0
G2 X50 Y-1.5 I-1.5
G3 X49.7 Y-1.8 J-0.3 F100
G1 Y-2.1
G19 G2 Y-2.4 Z-19.7 K0.3
G0 Z0.5
X50.3
Z0.3
G1 Z-17.484 F33
Z-20.7
G3 Y-2.1 Z-21 J0.3
G1 Y-1.8 F30
G17 G3 X50 Y-1.5 I-0.3
G1 X40 F60
G2 X38.5 Y0 J1.5
G1 Y10.5
G3 X38 Y11 I-0.5
G1 X0
G2 X-1.5 Y12.5 J1.5
G1 Y25
G2 X0 Y26.5 I1.5
G1 X50
G2 X51.5 Y25 J-1.5
G1 Y0
G2 X50 Y-1.5 I-1.5
G3 X49.7 Y-1.8 J-0.3 F100
G1 Y-2.1
G19 G2 Y-2.4 Z-20.7 K0.3
G0 Z1.5
G17
M9
G28 G91 Z0
G90
G28 G91 X0 Y0
G90
M30
%
