%
(1001)
(T1  D=3 CR=0 - ZMIN=-5.5 - flat end mill)
G90 G94
G17
G21
G28 G91 Z6
G90

(2D Pocket1)
M9
T1 M6
S1000 M3
G54
M8
G0 X231.68 Y-0.081
Z5
Z2.8
G1 Z1.25 F30
Z-0.19
X231.678 Y-0.077 Z-0.213
X231.674 Y-0.065 Z-0.232
X231.668 Y-0.046 Z-0.245
X231.661 Y-0.024 Z-0.25
X231.642 Y0.016
X231.613 Y0.051
X231.577 Y0.078
X231.535 Y0.094
X231.49 Y0.1
X0 F40
X-1.489
X-1.505 Y0.096
X-1.518 Y0.083
X-1.522 Y0.067
X-1.523 Y-0.033
X-1.516 Y-0.053
X-1.5 Y-0.065
X-1.479
X-1.463 Y-0.053
X-1.456 Y-0.034
X-1.462 Y-0.014
X-1.479 Y-0.002
X-1.499 Y-0.001
X-1.516 Y-0.013
X-1.523 Y-0.033
Y-0.066
X-1.519 Y-0.083
X-1.507 Y-0.095
X-1.49 Y-0.1
X230
X231.489
X231.505 Y-0.096
X231.517 Y-0.084
X231.561 Y-0.016
X231.573 Y-0.004
X231.589 Y0
X231.921
X231.927 Y0.001
X231.992 Y0.021
X232.003 Y0.03
X232.006 Y0.043
X232 Y0.056
X231.987 Y0.061
X231.931 Y0.066 Z-0.255 F30
X231.877 Y0.07 Z-0.271
X231.826 Y0.074 Z-0.297
X231.782 Y0.077 Z-0.332
X231.745 Y0.08 Z-0.375
X231.707 Y0.083 Z-0.418
X231.663 Y0.087 Z-0.453
X231.612 Y0.091 Z-0.479
X231.558 Y0.095 Z-0.495
X231.502 Y0.1 Z-0.5
X231.49
X0 F40
X-1.489
X-1.505 Y0.096
X-1.518 Y0.083
X-1.522 Y0.067
X-1.523 Y-0.033
X-1.516 Y-0.053
X-1.5 Y-0.065
X-1.479
X-1.463 Y-0.053
X-1.456 Y-0.034
X-1.462 Y-0.014
X-1.479 Y-0.002
X-1.499 Y-0.001
X-1.516 Y-0.013
X-1.523 Y-0.033
Y-0.066
X-1.519 Y-0.083
X-1.507 Y-0.095
X-1.49 Y-0.1
X230
X231.489
X231.505 Y-0.096
X231.517 Y-0.084
X231.561 Y-0.016
X231.573 Y-0.004
X231.589 Y0
X231.921
X231.927 Y0.001
X231.992 Y0.021
X232.003 Y0.03
X232.006 Y0.043
X232 Y0.056
X231.987 Y0.061
X231.931 Y0.066 Z-0.505 F30
X231.877 Y0.07 Z-0.521
X231.826 Y0.074 Z-0.547
X231.782 Y0.077 Z-0.582
X231.745 Y0.08 Z-0.625
X231.707 Y0.083 Z-0.668
X231.663 Y0.087 Z-0.703
X231.612 Y0.091 Z-0.729
X231.558 Y0.095 Z-0.745
X231.502 Y0.1 Z-0.75
X231.49
X0 F40
X-1.489
X-1.505 Y0.096
X-1.518 Y0.083
X-1.522 Y0.067
X-1.523 Y-0.033
X-1.516 Y-0.053
X-1.5 Y-0.065
X-1.479
X-1.463 Y-0.053
X-1.456 Y-0.034
X-1.462 Y-0.014
X-1.479 Y-0.002
X-1.499 Y-0.001
X-1.516 Y-0.013
X-1.523 Y-0.033
Y-0.066
X-1.519 Y-0.083
X-1.507 Y-0.095
X-1.49 Y-0.1
X230
X231.489
X231.505 Y-0.096
X231.517 Y-0.084
X231.561 Y-0.016
X231.573 Y-0.004
X231.589 Y0
X231.921
X231.927 Y0.001
X231.992 Y0.021
X232.003 Y0.03
X232.006 Y0.043
X232 Y0.056
X231.987 Y0.061
X231.931 Y0.066 Z-0.755 F30
X231.877 Y0.07 Z-0.771
X231.826 Y0.074 Z-0.797
X231.782 Y0.077 Z-0.832
X231.745 Y0.08 Z-0.875
X231.707 Y0.083 Z-0.918
X231.663 Y0.087 Z-0.953
X231.612 Y0.091 Z-0.979
X231.558 Y0.095 Z-0.995
X231.502 Y0.1 Z-1
X231.49
X0 F40
X-1.489
X-1.505 Y0.096
X-1.518 Y0.083
X-1.522 Y0.067
X-1.523 Y-0.033
X-1.516 Y-0.053
X-1.5 Y-0.065
X-1.479
X-1.463 Y-0.053
X-1.456 Y-0.034
X-1.462 Y-0.014
X-1.479 Y-0.002
X-1.499 Y-0.001
X-1.516 Y-0.013
X-1.523 Y-0.033
Y-0.066
X-1.519 Y-0.083
X-1.507 Y-0.095
X-1.49 Y-0.1
X230
X231.489
X231.505 Y-0.096
X231.517 Y-0.084
X231.561 Y-0.016
X231.573 Y-0.004
X231.589 Y0
X231.921
X231.927 Y0.001
X231.992 Y0.021
X232.003 Y0.03
X232.006 Y0.043
X232 Y0.056
X231.987 Y0.061
X231.931 Y0.066 Z-1.005 F30
X231.877 Y0.07 Z-1.021
X231.826 Y0.074 Z-1.047
X231.782 Y0.077 Z-1.082
X231.745 Y0.08 Z-1.125
X231.707 Y0.083 Z-1.168
X231.663 Y0.087 Z-1.203
X231.612 Y0.091 Z-1.229
X231.558 Y0.095 Z-1.245
X231.502 Y0.1 Z-1.25
X231.49
X0 F40
X-1.489
X-1.505 Y0.096
X-1.518 Y0.083
X-1.522 Y0.067
X-1.523 Y-0.033
X-1.516 Y-0.053
X-1.5 Y-0.065
X-1.479
X-1.463 Y-0.053
X-1.456 Y-0.034
X-1.462 Y-0.014
X-1.479 Y-0.002
X-1.499 Y-0.001
X-1.516 Y-0.013
X-1.523 Y-0.033
Y-0.066
X-1.519 Y-0.083
X-1.507 Y-0.095
X-1.49 Y-0.1
X230
X231.489
X231.505 Y-0.096
X231.517 Y-0.084
X231.561 Y-0.016
X231.573 Y-0.004
X231.589 Y0
X231.921
X231.927 Y0.001
X231.992 Y0.021
X232.003 Y0.03
X232.006 Y0.043
X232 Y0.056
X231.987 Y0.061
X231.931 Y0.066 Z-1.255 F30
X231.877 Y0.07 Z-1.271
X231.826 Y0.074 Z-1.297
X231.782 Y0.077 Z-1.332
X231.745 Y0.08 Z-1.375
X231.707 Y0.083 Z-1.418
X231.663 Y0.087 Z-1.453
X231.612 Y0.091 Z-1.479
X231.558 Y0.095 Z-1.495
X231.502 Y0.1 Z-1.5
X231.49
X0 F40
X-1.489
X-1.505 Y0.096
X-1.518 Y0.083
X-1.522 Y0.067
X-1.523 Y-0.033
X-1.516 Y-0.053
X-1.5 Y-0.065
X-1.479
X-1.463 Y-0.053
X-1.456 Y-0.034
X-1.462 Y-0.014
X-1.479 Y-0.002
X-1.499 Y-0.001
X-1.516 Y-0.013
X-1.523 Y-0.033
Y-0.066
X-1.519 Y-0.083
X-1.507 Y-0.095
X-1.49 Y-0.1
X230
X231.489
X231.505 Y-0.096
X231.517 Y-0.084
X231.561 Y-0.016
X231.573 Y-0.004
X231.589 Y0
X231.921
X231.927 Y0.001
X231.992 Y0.021
X232.003 Y0.03
X232.006 Y0.043
X232 Y0.056
X231.987 Y0.061
X231.931 Y0.066 Z-1.505 F30
X231.877 Y0.07 Z-1.521
X231.826 Y0.074 Z-1.547
X231.782 Y0.077 Z-1.582
X231.745 Y0.08 Z-1.625
X231.707 Y0.083 Z-1.668
X231.663 Y0.087 Z-1.703
X231.612 Y0.091 Z-1.729
X231.558 Y0.095 Z-1.745
X231.502 Y0.1 Z-1.75
X231.49
X0 F40
X-1.489
X-1.505 Y0.096
X-1.518 Y0.083
X-1.522 Y0.067
X-1.523 Y-0.033
X-1.516 Y-0.053
X-1.5 Y-0.065
X-1.479
X-1.463 Y-0.053
X-1.456 Y-0.034
X-1.462 Y-0.014
X-1.479 Y-0.002
X-1.499 Y-0.001
X-1.516 Y-0.013
X-1.523 Y-0.033
Y-0.066
X-1.519 Y-0.083
X-1.507 Y-0.095
X-1.49 Y-0.1
X230
X231.489
X231.505 Y-0.096
X231.517 Y-0.084
X231.561 Y-0.016
X231.573 Y-0.004
X231.589 Y0
X231.921
X231.927 Y0.001
X231.992 Y0.021
X232.003 Y0.03
X232.006 Y0.043
X232 Y0.056
X231.987 Y0.061
X231.931 Y0.066 Z-1.755 F30
X231.877 Y0.07 Z-1.771
X231.826 Y0.074 Z-1.797
X231.782 Y0.077 Z-1.832
X231.745 Y0.08 Z-1.875
X231.707 Y0.083 Z-1.918
X231.663 Y0.087 Z-1.953
X231.612 Y0.091 Z-1.979
X231.558 Y0.095 Z-1.995
X231.502 Y0.1 Z-2
X231.49
X0 F40
X-1.489
X-1.505 Y0.096
X-1.518 Y0.083
X-1.522 Y0.067
X-1.523 Y-0.033
X-1.516 Y-0.053
X-1.5 Y-0.065
X-1.479
X-1.463 Y-0.053
X-1.456 Y-0.034
X-1.462 Y-0.014
X-1.479 Y-0.002
X-1.499 Y-0.001
X-1.516 Y-0.013
X-1.523 Y-0.033
Y-0.066
X-1.519 Y-0.083
X-1.507 Y-0.095
X-1.49 Y-0.1
X230
X231.489
X231.505 Y-0.096
X231.517 Y-0.084
X231.561 Y-0.016
X231.573 Y-0.004
X231.589 Y0
X231.921
X231.927 Y0.001
X231.992 Y0.021
X232.003 Y0.03
X232.006 Y0.043
X232 Y0.056
X231.987 Y0.061
X231.931 Y0.066 Z-2.005 F30
X231.877 Y0.07 Z-2.021
X231.826 Y0.074 Z-2.047
X231.782 Y0.077 Z-2.082
X231.745 Y0.08 Z-2.125
X231.707 Y0.083 Z-2.168
X231.663 Y0.087 Z-2.203
X231.612 Y0.091 Z-2.229
X231.558 Y0.095 Z-2.245
X231.502 Y0.1 Z-2.25
X231.49
X0 F40
X-1.489
X-1.505 Y0.096
X-1.518 Y0.083
X-1.522 Y0.067
X-1.523 Y-0.033
X-1.516 Y-0.053
X-1.5 Y-0.065
X-1.479
X-1.463 Y-0.053
X-1.456 Y-0.034
X-1.462 Y-0.014
X-1.479 Y-0.002
X-1.499 Y-0.001
X-1.516 Y-0.013
X-1.523 Y-0.033
Y-0.066
X-1.519 Y-0.083
X-1.507 Y-0.095
X-1.49 Y-0.1
X230
X231.489
X231.505 Y-0.096
X231.517 Y-0.084
X231.561 Y-0.016
X231.573 Y-0.004
X231.589 Y0
X231.921
X231.927 Y0.001
X231.992 Y0.021
X232.003 Y0.03
X232.006 Y0.043
X232 Y0.056
X231.987 Y0.061
X231.931 Y0.066 Z-2.255 F30
X231.877 Y0.07 Z-2.271
X231.826 Y0.074 Z-2.297
X231.782 Y0.077 Z-2.332
X231.745 Y0.08 Z-2.375
X231.707 Y0.083 Z-2.418
X231.663 Y0.087 Z-2.453
X231.612 Y0.091 Z-2.479
X231.558 Y0.095 Z-2.495
X231.502 Y0.1 Z-2.5
X231.49
X0 F40
X-1.489
X-1.505 Y0.096
X-1.518 Y0.083
X-1.522 Y0.067
X-1.523 Y-0.033
X-1.516 Y-0.053
X-1.5 Y-0.065
X-1.479
X-1.463 Y-0.053
X-1.456 Y-0.034
X-1.462 Y-0.014
X-1.479 Y-0.002
X-1.499 Y-0.001
X-1.516 Y-0.013
X-1.523 Y-0.033
Y-0.066
X-1.519 Y-0.083
X-1.507 Y-0.095
X-1.49 Y-0.1
X230
X231.489
X231.505 Y-0.096
X231.517 Y-0.084
X231.561 Y-0.016
X231.573 Y-0.004
X231.589 Y0
X231.921
X231.927 Y0.001
X231.992 Y0.021
X232.003 Y0.03
X232.006 Y0.043
X232 Y0.056
X231.987 Y0.061
X231.931 Y0.066 Z-2.505 F30
X231.877 Y0.07 Z-2.521
X231.826 Y0.074 Z-2.547
X231.782 Y0.077 Z-2.582
X231.745 Y0.08 Z-2.625
X231.707 Y0.083 Z-2.668
X231.663 Y0.087 Z-2.703
X231.612 Y0.091 Z-2.729
X231.558 Y0.095 Z-2.745
X231.502 Y0.1 Z-2.75
X231.49
X0 F40
X-1.489
X-1.505 Y0.096
X-1.518 Y0.083
X-1.522 Y0.067
X-1.523 Y-0.033
X-1.516 Y-0.053
X-1.5 Y-0.065
X-1.479
X-1.463 Y-0.053
X-1.456 Y-0.034
X-1.462 Y-0.014
X-1.479 Y-0.002
X-1.499 Y-0.001
X-1.516 Y-0.013
X-1.523 Y-0.033
Y-0.066
X-1.519 Y-0.083
X-1.507 Y-0.095
X-1.49 Y-0.1
X230
X231.489
X231.505 Y-0.096
X231.517 Y-0.084
X231.561 Y-0.016
X231.573 Y-0.004
X231.589 Y0
X231.921
X231.927 Y0.001
X231.992 Y0.021
X232.003 Y0.03
X232.006 Y0.043
X232 Y0.056
X231.987 Y0.061
X231.931 Y0.066 Z-2.755 F30
X231.877 Y0.07 Z-2.771
X231.826 Y0.074 Z-2.797
X231.782 Y0.077 Z-2.832
X231.745 Y0.08 Z-2.875
X231.707 Y0.083 Z-2.918
X231.663 Y0.087 Z-2.953
X231.612 Y0.091 Z-2.979
X231.558 Y0.095 Z-2.995
X231.502 Y0.1 Z-3
X231.49
X0 F40
X-1.489
X-1.505 Y0.096
X-1.518 Y0.083
X-1.522 Y0.067
X-1.523 Y-0.033
X-1.516 Y-0.053
X-1.5 Y-0.065
X-1.479
X-1.463 Y-0.053
X-1.456 Y-0.034
X-1.462 Y-0.014
X-1.479 Y-0.002
X-1.499 Y-0.001
X-1.516 Y-0.013
X-1.523 Y-0.033
Y-0.066
X-1.519 Y-0.083
X-1.507 Y-0.095
X-1.49 Y-0.1
X230
X231.489
X231.505 Y-0.096
X231.517 Y-0.084
X231.561 Y-0.016
X231.573 Y-0.004
X231.589 Y0
X231.921
X231.927 Y0.001
X231.992 Y0.021
X232.003 Y0.03
X232.006 Y0.043
X232 Y0.056
X231.987 Y0.061
X231.931 Y0.066 Z-3.005 F30
X231.877 Y0.07 Z-3.021
X231.826 Y0.074 Z-3.047
X231.782 Y0.077 Z-3.082
X231.745 Y0.08 Z-3.125
X231.707 Y0.083 Z-3.168
X231.663 Y0.087 Z-3.203
X231.612 Y0.091 Z-3.229
X231.558 Y0.095 Z-3.245
X231.502 Y0.1 Z-3.25
X231.49
X0 F40
X-1.489
X-1.505 Y0.096
X-1.518 Y0.083
X-1.522 Y0.067
X-1.523 Y-0.033
X-1.516 Y-0.053
X-1.5 Y-0.065
X-1.479
X-1.463 Y-0.053
X-1.456 Y-0.034
X-1.462 Y-0.014
X-1.479 Y-0.002
X-1.499 Y-0.001
X-1.516 Y-0.013
X-1.523 Y-0.033
Y-0.066
X-1.519 Y-0.083
X-1.507 Y-0.095
X-1.49 Y-0.1
X230
X231.489
X231.505 Y-0.096
X231.517 Y-0.084
X231.561 Y-0.016
X231.573 Y-0.004
X231.589 Y0
X231.921
X231.927 Y0.001
X231.992 Y0.021
X232.003 Y0.03
X232.006 Y0.043
X232 Y0.056
X231.987 Y0.061
X231.931 Y0.066 Z-3.255 F30
X231.877 Y0.07 Z-3.271
X231.826 Y0.074 Z-3.297
X231.782 Y0.077 Z-3.332
X231.745 Y0.08 Z-3.375
X231.707 Y0.083 Z-3.418
X231.663 Y0.087 Z-3.453
X231.612 Y0.091 Z-3.479
X231.558 Y0.095 Z-3.495
X231.502 Y0.1 Z-3.5
X231.49
X0 F40
X-1.489
X-1.505 Y0.096
X-1.518 Y0.083
X-1.522 Y0.067
X-1.523 Y-0.033
X-1.516 Y-0.053
X-1.5 Y-0.065
X-1.479
X-1.463 Y-0.053
X-1.456 Y-0.034
X-1.462 Y-0.014
X-1.479 Y-0.002
X-1.499 Y-0.001
X-1.516 Y-0.013
X-1.523 Y-0.033
Y-0.066
X-1.519 Y-0.083
X-1.507 Y-0.095
X-1.49 Y-0.1
X230
X231.489
X231.505 Y-0.096
X231.517 Y-0.084
X231.561 Y-0.016
X231.573 Y-0.004
X231.589 Y0
X231.921
X231.927 Y0.001
X231.992 Y0.021
X232.003 Y0.03
X232.006 Y0.043
X232 Y0.056
X231.987 Y0.061
X231.931 Y0.066 Z-3.505 F30
X231.877 Y0.07 Z-3.521
X231.826 Y0.074 Z-3.547
X231.782 Y0.077 Z-3.582
X231.745 Y0.08 Z-3.625
X231.707 Y0.083 Z-3.668
X231.663 Y0.087 Z-3.703
X231.612 Y0.091 Z-3.729
X231.558 Y0.095 Z-3.745
X231.502 Y0.1 Z-3.75
X231.49
X0 F40
X-1.489
X-1.505 Y0.096
X-1.518 Y0.083
X-1.522 Y0.067
X-1.523 Y-0.033
X-1.516 Y-0.053
X-1.5 Y-0.065
X-1.479
X-1.463 Y-0.053
X-1.456 Y-0.034
X-1.462 Y-0.014
X-1.479 Y-0.002
X-1.499 Y-0.001
X-1.516 Y-0.013
X-1.523 Y-0.033
Y-0.066
X-1.519 Y-0.083
X-1.507 Y-0.095
X-1.49 Y-0.1
X230
X231.489
X231.505 Y-0.096
X231.517 Y-0.084
X231.561 Y-0.016
X231.573 Y-0.004
X231.589 Y0
X231.921
X231.927 Y0.001
X231.992 Y0.021
X232.003 Y0.03
X232.006 Y0.043
X232 Y0.056
X231.987 Y0.061
X231.931 Y0.066 Z-3.755 F30
X231.877 Y0.07 Z-3.771
X231.826 Y0.074 Z-3.797
X231.782 Y0.077 Z-3.832
X231.745 Y0.08 Z-3.875
X231.707 Y0.083 Z-3.918
X231.663 Y0.087 Z-3.953
X231.612 Y0.091 Z-3.979
X231.558 Y0.095 Z-3.995
X231.502 Y0.1 Z-4
X231.49
X0 F40
X-1.489
X-1.505 Y0.096
X-1.518 Y0.083
X-1.522 Y0.067
X-1.523 Y-0.033
X-1.516 Y-0.053
X-1.5 Y-0.065
X-1.479
X-1.463 Y-0.053
X-1.456 Y-0.034
X-1.462 Y-0.014
X-1.479 Y-0.002
X-1.499 Y-0.001
X-1.516 Y-0.013
X-1.523 Y-0.033
Y-0.066
X-1.519 Y-0.083
X-1.507 Y-0.095
X-1.49 Y-0.1
X230
X231.489
X231.505 Y-0.096
X231.517 Y-0.084
X231.561 Y-0.016
X231.573 Y-0.004
X231.589 Y0
X231.921
X231.927 Y0.001
X231.992 Y0.021
X232.003 Y0.03
X232.006 Y0.043
X232 Y0.056
X231.987 Y0.061
X231.931 Y0.066 Z-4.005 F30
X231.877 Y0.07 Z-4.021
X231.826 Y0.074 Z-4.047
X231.782 Y0.077 Z-4.082
X231.745 Y0.08 Z-4.125
X231.707 Y0.083 Z-4.168
X231.663 Y0.087 Z-4.203
X231.612 Y0.091 Z-4.229
X231.558 Y0.095 Z-4.245
X231.502 Y0.1 Z-4.25
X231.49
X0 F40
X-1.489
X-1.505 Y0.096
X-1.518 Y0.083
X-1.522 Y0.067
X-1.523 Y-0.033
X-1.516 Y-0.053
X-1.5 Y-0.065
X-1.479
X-1.463 Y-0.053
X-1.456 Y-0.034
X-1.462 Y-0.014
X-1.479 Y-0.002
X-1.499 Y-0.001
X-1.516 Y-0.013
X-1.523 Y-0.033
Y-0.066
X-1.519 Y-0.083
X-1.507 Y-0.095
X-1.49 Y-0.1
X230
X231.489
X231.505 Y-0.096
X231.517 Y-0.084
X231.561 Y-0.016
X231.573 Y-0.004
X231.589 Y0
X231.921
X231.927 Y0.001
X231.992 Y0.021
X232.003 Y0.03
X232.006 Y0.043
X232 Y0.056
X231.987 Y0.061
X231.931 Y0.066 Z-4.255 F30
X231.877 Y0.07 Z-4.271
X231.826 Y0.074 Z-4.297
X231.782 Y0.077 Z-4.332
X231.745 Y0.08 Z-4.375
X231.707 Y0.083 Z-4.418
X231.663 Y0.087 Z-4.453
X231.612 Y0.091 Z-4.479
X231.558 Y0.095 Z-4.495
X231.502 Y0.1 Z-4.5
X231.49
X0 F40
X-1.489
X-1.505 Y0.096
X-1.518 Y0.083
X-1.522 Y0.067
X-1.523 Y-0.033
X-1.516 Y-0.053
X-1.5 Y-0.065
X-1.479
X-1.463 Y-0.053
X-1.456 Y-0.034
X-1.462 Y-0.014
X-1.479 Y-0.002
X-1.499 Y-0.001
X-1.516 Y-0.013
X-1.523 Y-0.033
Y-0.066
X-1.519 Y-0.083
X-1.507 Y-0.095
X-1.49 Y-0.1
X230
X231.489
X231.505 Y-0.096
X231.517 Y-0.084
X231.561 Y-0.016
X231.573 Y-0.004
X231.589 Y0
X231.921
X231.927 Y0.001
X231.992 Y0.021
X232.003 Y0.03
X232.006 Y0.043
X232 Y0.056
X231.987 Y0.061
X231.931 Y0.066 Z-4.505 F30
X231.877 Y0.07 Z-4.521
X231.826 Y0.074 Z-4.547
X231.782 Y0.077 Z-4.582
X231.745 Y0.08 Z-4.625
X231.707 Y0.083 Z-4.668
X231.663 Y0.087 Z-4.703
X231.612 Y0.091 Z-4.729
X231.558 Y0.095 Z-4.745
X231.502 Y0.1 Z-4.75
X231.49
X0 F40
X-1.489
X-1.505 Y0.096
X-1.518 Y0.083
X-1.522 Y0.067
X-1.523 Y-0.033
X-1.516 Y-0.053
X-1.5 Y-0.065
X-1.479
X-1.463 Y-0.053
X-1.456 Y-0.034
X-1.462 Y-0.014
X-1.479 Y-0.002
X-1.499 Y-0.001
X-1.516 Y-0.013
X-1.523 Y-0.033
Y-0.066
X-1.519 Y-0.083
X-1.507 Y-0.095
X-1.49 Y-0.1
X230
X231.489
X231.505 Y-0.096
X231.517 Y-0.084
X231.561 Y-0.016
X231.573 Y-0.004
X231.589 Y0
X231.921
X231.927 Y0.001
X231.992 Y0.021
X232.003 Y0.03
X232.006 Y0.043
X232 Y0.056
X231.987 Y0.061
X231.931 Y0.066 Z-4.755 F30
X231.877 Y0.07 Z-4.771
X231.826 Y0.074 Z-4.797
X231.782 Y0.077 Z-4.832
X231.745 Y0.08 Z-4.875
X231.707 Y0.083 Z-4.918
X231.663 Y0.087 Z-4.953
X231.612 Y0.091 Z-4.979
X231.558 Y0.095 Z-4.995
X231.502 Y0.1 Z-5
X231.49
X0 F40
X-1.489
X-1.505 Y0.096
X-1.518 Y0.083
X-1.522 Y0.067
X-1.523 Y-0.033
X-1.516 Y-0.053
X-1.5 Y-0.065
X-1.479
X-1.463 Y-0.053
X-1.456 Y-0.034
X-1.462 Y-0.014
X-1.479 Y-0.002
X-1.499 Y-0.001
X-1.516 Y-0.013
X-1.523 Y-0.033
Y-0.066
X-1.519 Y-0.083
X-1.507 Y-0.095
X-1.49 Y-0.1
X230
X231.489
X231.505 Y-0.096
X231.517 Y-0.084
X231.561 Y-0.016
X231.573 Y-0.004
X231.589 Y0
X231.921
X231.927 Y0.001
X231.992 Y0.021
X232.003 Y0.03
X232.006 Y0.043
X232 Y0.056
X231.987 Y0.061
X231.931 Y0.066 Z-5.005 F30
X231.877 Y0.07 Z-5.021
X231.826 Y0.074 Z-5.047
X231.782 Y0.077 Z-5.082
X231.745 Y0.08 Z-5.125
X231.707 Y0.083 Z-5.168
X231.663 Y0.087 Z-5.203
X231.612 Y0.091 Z-5.229
X231.558 Y0.095 Z-5.245
X231.502 Y0.1 Z-5.25
X231.49
X0 F40
X-1.489
X-1.505 Y0.096
X-1.518 Y0.083
X-1.522 Y0.067
X-1.523 Y-0.033
X-1.516 Y-0.053
X-1.5 Y-0.065
X-1.479
X-1.463 Y-0.053
X-1.456 Y-0.034
X-1.462 Y-0.014
X-1.479 Y-0.002
X-1.499 Y-0.001
X-1.516 Y-0.013
X-1.523 Y-0.033
Y-0.066
X-1.519 Y-0.083
X-1.507 Y-0.095
X-1.49 Y-0.1
X230
X231.489
X231.505 Y-0.096
X231.517 Y-0.084
X231.561 Y-0.016
X231.573 Y-0.004
X231.589 Y0
X231.921
X231.927 Y0.001
X231.992 Y0.021
X232.003 Y0.03
X232.006 Y0.043
X232 Y0.056
X231.987 Y0.061
X231.931 Y0.066 Z-5.255 F30
X231.877 Y0.07 Z-5.271
X231.826 Y0.074 Z-5.297
X231.782 Y0.077 Z-5.332
X231.745 Y0.08 Z-5.375
X231.707 Y0.083 Z-5.418
X231.663 Y0.087 Z-5.453
X231.612 Y0.091 Z-5.479
X231.558 Y0.095 Z-5.495
X231.502 Y0.1 Z-5.5
X231.49
X0 F40
X-1.489
X-1.505 Y0.096
X-1.518 Y0.083
X-1.522 Y0.067
X-1.523 Y-0.033
X-1.516 Y-0.053
X-1.5 Y-0.065
X-1.479
X-1.463 Y-0.053
X-1.456 Y-0.034
X-1.462 Y-0.014
X-1.479 Y-0.002
X-1.499 Y-0.001
X-1.516 Y-0.013
X-1.523 Y-0.033
Y-0.066
X-1.519 Y-0.083
X-1.507 Y-0.095
X-1.49 Y-0.1
X230
X231.489
X231.496 Y-0.099 Z-5.499
X231.503 Y-0.098 Z-5.498
X231.51 Y-0.095 Z-5.495
X231.515 Y-0.092 Z-5.491
X231.52 Y-0.089 Z-5.486
X231.523 Y-0.085 Z-5.48
X231.526 Y-0.082 Z-5.474
X231.527 Y-0.08 Z-5.467
X231.528 Y-0.079 Z-5.46
X231.529 Y-0.078 Z-5.452
G0 Z5
M9
G28 G91 Z0
G90
G28 G91 X0 Y0
G90
M30
%
