; generated by Slic3r 1.3.0 on 2021-06-05 at 12:58:07

; external perimeters extrusion width = 0.44mm (5.63mm^3/s)
; perimeters extrusion width = 0.48mm (6.28mm^3/s)
; infill extrusion width = 0.48mm (5.03mm^3/s)
; solid infill extrusion width = 0.48mm (2.51mm^3/s)
; top infill extrusion width = 0.40mm (5.03mm^3/s)
; support material extrusion width = 0.44mm (5.63mm^3/s)

M107
M190 S100 ; set bed temperature and wait for it to be reached
M104 S250 ; set temperature
G28 ; home all axes
G1 Z5 F5000 ; lift nozzle

; Filament gcode

M109 S250 ; set temperature and wait for it to be reached
G21 ; set units to millimeters
G90 ; use absolute coordinates
M82 ; use absolute distances for extrusion
G92 E0
G1 E-4.00000 F2400.00000
G92 E0
G1 Z0.300 F4800.000
G1 X60.150 Y66.055 F4800.000
G1 E4.00000 F2400.00000
G1 F1800
G1 X60.921 Y65.379 E4.04291
G1 X61.936 Y64.589 E4.09679
G1 X63.224 Y63.728 E4.16163
G1 X70.593 Y59.464 E4.51798
G1 X71.272 Y59.092 E4.55040
G1 X72.191 Y58.638 E4.59333
G1 X73.622 Y58.045 E4.65816
G1 X74.593 Y57.716 E4.70109
G1 X75.834 Y57.375 E4.75494
G1 X77.353 Y57.072 E4.81980
G1 X78.630 Y56.913 E4.87368
G1 X79.916 Y56.837 E4.92756
G1 X88.500 Y56.829 E5.28691
G1 X89.274 Y56.846 E5.31933
G1 X90.558 Y56.938 E5.37322
G1 X91.833 Y57.115 E5.42709
G1 X93.094 Y57.374 E5.48097
G1 X94.085 Y57.640 E5.52391
G1 X95.551 Y58.138 E5.58873
G1 X96.498 Y58.530 E5.63166
G1 X97.278 Y58.896 E5.66769
G1 X105.656 Y63.092 E6.05995
G1 X106.776 Y63.728 E6.11384
G1 X108.063 Y64.588 E6.17867
G1 X108.876 Y65.212 E6.22158
G1 X109.850 Y66.054 E6.27546
G1 X110.945 Y67.150 E6.34031
G1 X111.635 Y67.938 E6.38415
G1 X112.412 Y68.937 E6.43711
G1 X113.272 Y70.224 E6.50194
G1 X113.785 Y71.113 E6.54487
G1 X114.362 Y72.263 E6.59873
G1 X114.955 Y73.694 E6.66358
G1 X115.360 Y74.916 E6.71746
G1 X115.626 Y75.906 E6.76039
G1 X115.885 Y77.167 E6.81427
G1 X116.061 Y78.441 E6.86812
G1 X116.154 Y79.726 E6.92203
G1 X116.171 Y80.500 E6.95445
G1 X116.171 Y93.500 E7.49863
G1 X116.154 Y94.274 E7.53106
G1 X116.087 Y95.297 E7.57394
G1 X115.928 Y96.575 E7.62786
G1 X115.626 Y98.094 E7.69270
G1 X115.284 Y99.335 E7.74658
G1 X114.862 Y100.551 E7.80045
G1 X114.362 Y101.737 E7.85434
G1 X113.785 Y102.887 E7.90821
G1 X113.134 Y103.998 E7.96210
G1 X112.412 Y105.063 E8.01597
G1 X111.787 Y105.877 E8.05890
G1 X110.946 Y106.849 E8.11274
G1 X109.850 Y107.945 E8.17761
G1 X108.877 Y108.787 E8.23149
G1 X108.057 Y109.416 E8.27472
G1 X106.998 Y110.134 E8.32830
G1 X105.888 Y110.785 E8.38215
G1 X104.499 Y111.470 E8.44700
G1 X103.551 Y111.862 E8.48994
G1 X102.335 Y112.284 E8.54381
G1 X101.094 Y112.626 E8.59770
G1 X99.836 Y112.885 E8.65144
G1 X98.298 Y113.087 E8.71640
G1 X97.274 Y113.154 E8.75934
G1 X96.500 Y113.171 E8.79176
G1 X73.500 Y113.171 E9.75454
G1 X72.726 Y113.154 E9.78697
G1 X71.442 Y113.062 E9.84085
G1 X70.167 Y112.885 E9.89472
G1 X68.906 Y112.626 E9.94861
G1 X67.665 Y112.284 E10.00249
G1 X66.449 Y111.862 E10.05637
G1 X65.263 Y111.362 E10.11025
G1 X64.113 Y110.785 E10.16412
G1 X63.002 Y110.134 E10.21801
G1 X61.937 Y109.412 E10.27189
G1 X60.921 Y108.621 E10.32577
G1 X60.150 Y107.945 E10.36869
G1 X59.055 Y106.850 E10.43353
G1 X58.213 Y105.877 E10.48740
G1 X57.584 Y105.057 E10.53066
G1 X56.866 Y103.998 E10.58421
G1 X56.215 Y102.888 E10.63806
G1 X55.530 Y101.498 E10.70292
G1 X55.045 Y100.306 E10.75680
G1 X54.640 Y99.084 E10.81068
G1 X54.315 Y97.839 E10.86456
G1 X54.114 Y96.827 E10.90777
G1 X53.938 Y95.558 E10.96137
G1 X53.846 Y94.275 E11.01524
G1 X53.829 Y93.500 E11.04767
G1 X53.837 Y79.989 E11.61324
G1 X53.938 Y78.442 E11.67815
G1 X54.115 Y77.167 E11.73203
G1 X54.315 Y76.161 E11.77496
G1 X54.640 Y74.916 E11.82881
G1 X55.048 Y73.688 E11.88297
G1 X55.638 Y72.263 E11.94755
G1 X56.215 Y71.113 E12.00143
G1 X56.732 Y70.218 E12.04469
G1 X57.436 Y69.150 E12.09822
G1 X58.213 Y68.123 E12.15211
G1 X59.055 Y67.150 E12.20600
G1 X60.106 Y66.096 E12.26832
G1 X60.379 Y66.300 F4800.000
G1 F1800
G1 X61.140 Y65.633 E12.31063
G1 X62.132 Y64.861 E12.36327
G1 X63.402 Y64.013 E12.42719
G1 X70.760 Y59.755 E12.78308
G1 X71.430 Y59.388 E12.81504
G1 X72.330 Y58.944 E12.85705
G1 X73.741 Y58.360 E12.92097
G1 X74.941 Y57.961 E12.97392
G1 X75.922 Y57.699 E13.01643
G1 X77.150 Y57.446 E13.06890
G1 X78.402 Y57.272 E13.12183
G1 X79.927 Y57.173 E13.18577
G1 X88.500 Y57.164 E13.54466
G1 X89.263 Y57.181 E13.57662
G1 X90.525 Y57.272 E13.62958
G1 X91.778 Y57.446 E13.68254
G1 X93.018 Y57.701 E13.73550
G1 X93.987 Y57.961 E13.77752
G1 X95.433 Y58.452 E13.84142
G1 X96.360 Y58.836 E13.88343
G1 X97.127 Y59.196 E13.91892
G1 X105.498 Y63.388 E14.31080
G1 X106.598 Y64.013 E14.36377
G1 X107.868 Y64.861 E14.42768
G1 X108.681 Y65.486 E14.47061
G1 X109.620 Y66.299 E14.52263
G1 X110.700 Y67.379 E14.58656
G1 X111.376 Y68.151 E14.62948
G1 X112.139 Y69.132 E14.68152
G1 X112.987 Y70.402 E14.74544
G1 X113.489 Y71.271 E14.78745
G1 X114.056 Y72.401 E14.84039
G1 X114.640 Y73.812 E14.90432
G1 X115.039 Y75.013 E14.95727
G1 X115.299 Y75.982 E14.99929
G1 X115.554 Y77.222 E15.05225
G1 X115.727 Y78.474 E15.10518
G1 X115.819 Y79.737 E15.15817
G1 X115.836 Y80.500 E15.19013
G1 X115.836 Y93.500 E15.73431
G1 X115.819 Y94.263 E15.76628
G1 X115.753 Y95.264 E15.80824
G1 X115.597 Y96.520 E15.86124
G1 X115.299 Y98.018 E15.92516
G1 X114.963 Y99.238 E15.97812
G1 X114.548 Y100.433 E16.03108
G1 X114.056 Y101.598 E16.08404
G1 X113.489 Y102.729 E16.13700
G1 X112.849 Y103.821 E16.18997
G1 X112.139 Y104.868 E16.24292
G1 X111.528 Y105.664 E16.28493
G1 X110.701 Y106.620 E16.33785
G1 X109.621 Y107.700 E16.40180
G1 X108.867 Y108.362 E16.44379
G1 X107.868 Y109.139 E16.49674
G1 X106.821 Y109.849 E16.54973
G1 X105.730 Y110.489 E16.60266
G1 X104.360 Y111.164 E16.66660
G1 X103.433 Y111.548 E16.70861
G1 X102.238 Y111.963 E16.76157
G1 X101.018 Y112.299 E16.81453
G1 X99.782 Y112.553 E16.86736
G1 X98.265 Y112.753 E16.93140
G1 X97.263 Y112.819 E16.97341
G1 X96.500 Y112.836 E17.00537
G1 X73.500 Y112.836 E17.96816
G1 X72.737 Y112.819 E18.00013
G1 X71.475 Y112.728 E18.05309
G1 X70.222 Y112.554 E18.10604
G1 X68.982 Y112.299 E18.15901
G1 X67.762 Y111.963 E18.21197
G1 X66.567 Y111.548 E18.26493
G1 X65.402 Y111.056 E18.31789
G1 X64.271 Y110.489 E18.37085
G1 X63.179 Y109.849 E18.42381
G1 X62.132 Y109.139 E18.47677
G1 X61.336 Y108.528 E18.51878
G1 X60.379 Y107.700 E18.57174
G1 X59.479 Y106.812 E18.62470
G1 X58.638 Y105.867 E18.67764
G1 X57.709 Y104.655 E18.74157
G1 X57.013 Y103.598 E18.79453
G1 X56.508 Y102.723 E18.83684
G1 X55.944 Y101.598 E18.88950
G1 X55.452 Y100.433 E18.94244
G1 X54.961 Y98.987 E19.00637
G1 X54.701 Y98.018 E19.04838
G1 X54.446 Y96.780 E19.10129
G1 X54.272 Y95.525 E19.15430
G1 X54.181 Y94.264 E19.20726
G1 X54.164 Y93.500 E19.23923
G1 X54.173 Y80.000 E19.80433
G1 X54.272 Y78.475 E19.86833
G1 X54.404 Y77.474 E19.91059
G1 X54.642 Y76.237 E19.96329
G1 X54.961 Y75.014 E20.01623
G1 X55.362 Y73.807 E20.06947
G1 X55.944 Y72.402 E20.13313
G1 X56.511 Y71.271 E20.18609
G1 X57.016 Y70.397 E20.22832
G1 X57.708 Y69.345 E20.28104
G1 X58.472 Y68.336 E20.33401
G1 X59.300 Y67.379 E20.38698
G1 X60.336 Y66.341 E20.44838
G1 F3840
G1 X61.133 Y65.638 E19.81722
G1 F3840
G1 X61.140 Y65.633 E19.81256
G1 F3840
G1 X61.140 Y65.633 E19.81229
G1 F3840
G1 X61.336 Y65.472 E19.66154
G1 F3840
G1 X62.132 Y64.861 E19.06596
G1 F3840
G1 X62.138 Y64.857 E19.06130
G1 F3840
G1 X62.139 Y64.856 E19.06101
G1 F3840
G1 X62.345 Y64.709 E18.91026
G1 F3840
G1 X63.179 Y64.152 E18.31499
G1 F3840
G1 X63.185 Y64.147 E18.31032
G1 F3840
G1 X63.186 Y64.147 E18.30978
G1 F3840
G1 X63.402 Y64.013 E18.15903
G1 F3840
G1 X63.832 Y63.755 E17.86104
G1 F3840
G1 X65.601 Y62.734 E16.64838
G1 E16.44838 F2400.00000
G92 E0
G1 X85.071 Y105.398 F4800.000
G1 E4.00000 F2400.00000
G1 F1800
G1 X84.929 Y105.398 E4.00601
G1 X84.225 Y106.039 E4.04652
G1 X83.706 Y106.465 E4.07505
G1 X82.836 Y107.105 E4.12098
G1 X81.927 Y107.686 E4.16686
G1 X80.981 Y108.207 E4.21279
G1 X80.003 Y108.665 E4.25870
G1 X78.997 Y109.058 E4.30461
G1 X77.968 Y109.384 E4.35050
G1 X76.920 Y109.642 E4.39642
G1 X75.857 Y109.831 E4.44232
G1 X74.782 Y109.950 E4.48828
G1 X73.705 Y109.999 E4.53414
G1 X72.625 Y109.977 E4.58008
G1 X71.549 Y109.885 E4.62600
G1 X70.481 Y109.722 E4.67192
G1 X69.427 Y109.490 E4.71781
G1 X69.031 Y109.384 E4.73523
G1 X68.004 Y109.058 E4.78106
G1 X66.999 Y108.665 E4.82695
G1 X66.019 Y108.207 E4.87295
G1 X65.074 Y107.687 E4.91880
G1 X64.163 Y107.105 E4.96477
G1 X63.293 Y106.465 E5.01068
G1 X62.467 Y105.770 E5.05658
G1 X61.688 Y105.022 E5.10251
G1 X61.230 Y104.532 E5.13101
G1 X60.826 Y104.061 E5.15742
G1 X60.287 Y103.382 E5.19427
G1 X59.895 Y102.836 E5.22284
G1 X59.314 Y101.927 E5.26874
G1 X58.793 Y100.981 E5.31467
G1 X58.335 Y100.003 E5.36056
G1 X57.942 Y98.997 E5.40647
G1 X57.616 Y97.967 E5.45241
G1 X57.358 Y96.920 E5.49829
G1 X57.169 Y95.856 E5.54422
G1 X57.050 Y94.783 E5.59012
G1 X57.001 Y93.602 E5.64038
G1 X57.001 Y80.398 E6.20182
G1 X57.050 Y79.218 E6.25206
G1 X57.169 Y78.145 E6.29796
G1 X57.278 Y77.482 E6.32653
G1 X57.510 Y76.427 E6.37243
G1 X57.811 Y75.391 E6.41833
G1 X58.179 Y74.375 E6.46425
G1 X58.423 Y73.804 E6.49066
G1 X58.793 Y73.019 E6.52758
G1 X59.313 Y72.075 E6.57341
G1 X59.668 Y71.504 E6.60199
G1 X60.286 Y70.618 E6.64791
G1 X60.961 Y69.775 E6.69382
G1 X61.689 Y68.978 E6.73974
G1 X62.468 Y68.230 E6.78564
G1 X62.939 Y67.826 E6.81205
G1 X63.618 Y67.286 E6.84893
G1 X64.503 Y66.668 E6.89483
G1 X65.427 Y66.109 E6.94074
G1 X66.386 Y65.612 E6.98665
G1 X67.374 Y65.179 E7.03255
G1 X68.003 Y64.942 E7.06112
G1 X68.941 Y64.644 E7.10295
G1 X69.703 Y63.961 E7.14649
G1 X70.222 Y63.535 E7.17503
G1 X71.092 Y62.895 E7.22093
G1 X71.432 Y62.668 E7.23834
G1 X72.356 Y62.109 E7.28424
G1 X73.315 Y61.612 E7.33016
G1 X73.925 Y61.335 E7.35867
G1 X74.506 Y61.102 E7.38529
G1 X75.319 Y60.811 E7.42198
G1 X75.960 Y60.616 E7.45049
G1 X77.009 Y60.358 E7.49641
G1 X78.072 Y60.169 E7.54232
G1 X79.145 Y60.050 E7.58822
G1 X80.326 Y60.001 E7.63849
G1 X88.602 Y60.001 E7.99038
G1 X89.375 Y60.023 E8.02327
G1 X90.451 Y60.115 E8.06918
G1 X91.518 Y60.278 E8.11509
G1 X91.920 Y60.358 E8.13251
G1 X92.969 Y60.616 E8.17842
G1 X93.997 Y60.942 E8.22431
G1 X95.003 Y61.335 E8.27022
G1 X95.981 Y61.793 E8.31614
G1 X96.926 Y62.313 E8.36201
G1 X97.836 Y62.895 E8.40795
G1 X98.706 Y63.535 E8.45387
G1 X99.627 Y64.300 E8.50474
G1 X100.968 Y64.616 E8.56334
G1 X101.997 Y64.942 E8.60924
G1 X103.003 Y65.335 E8.65516
G1 X103.981 Y65.793 E8.70106
G1 X104.927 Y66.314 E8.74698
G1 X105.836 Y66.895 E8.79287
G1 X106.706 Y67.535 E8.83879
G1 X107.225 Y67.960 E8.86732
G1 X108.022 Y68.689 E8.91323
G1 X108.466 Y69.143 E8.94026
G1 X109.039 Y69.775 E8.97652
G1 X109.714 Y70.618 E9.02245
G1 X110.332 Y71.504 E9.06836
G1 X110.891 Y72.428 E9.11428
G1 X111.388 Y73.386 E9.16017
G1 X111.821 Y74.375 E9.20607
G1 X112.058 Y75.003 E9.23462
G1 X112.384 Y76.032 E9.28053
G1 X112.642 Y77.081 E9.32644
G1 X112.831 Y78.144 E9.37234
G1 X112.950 Y79.217 E9.41825
G1 X112.999 Y80.398 E9.46851
G1 X112.999 Y93.602 E10.02997
G1 X112.950 Y94.783 E10.08020
G1 X112.885 Y95.451 E10.10876
G1 X112.722 Y96.518 E10.15466
G1 X112.490 Y97.573 E10.20057
G1 X112.384 Y97.968 E10.21796
G1 X112.058 Y98.996 E10.26383
G1 X111.665 Y100.003 E10.30979
G1 X111.207 Y100.981 E10.35569
G1 X110.891 Y101.572 E10.38422
G1 X110.332 Y102.497 E10.43014
G1 X109.714 Y103.382 E10.47604
G1 X109.465 Y103.706 E10.49345
G1 X108.770 Y104.532 E10.53932
G1 X108.022 Y105.312 E10.58528
G1 X107.225 Y106.039 E10.63116
G1 X106.706 Y106.465 E10.65968
G1 X105.836 Y107.105 E10.70561
G1 X105.496 Y107.333 E10.72303
G1 X104.573 Y107.891 E10.76889
G1 X103.981 Y108.207 E10.79744
G1 X103.003 Y108.665 E10.84334
G1 X102.625 Y108.822 E10.86075
G1 X101.610 Y109.189 E10.90665
G1 X100.968 Y109.384 E10.93517
G1 X100.573 Y109.490 E10.95256
G1 X99.520 Y109.722 E10.99839
G1 X98.451 Y109.885 E11.04437
G1 X97.783 Y109.950 E11.07292
G1 X96.705 Y109.999 E11.11882
G1 X96.295 Y109.999 E11.13621
G1 X95.217 Y109.950 E11.18210
G1 X94.549 Y109.885 E11.21066
G1 X93.482 Y109.722 E11.25657
G1 X93.080 Y109.642 E11.27399
G1 X92.032 Y109.384 E11.31986
G1 X91.390 Y109.189 E11.34839
G1 X90.375 Y108.822 E11.39428
G1 X89.804 Y108.577 E11.42070
G1 X89.019 Y108.207 E11.45760
G1 X88.074 Y107.687 E11.50349
G1 X87.503 Y107.332 E11.53205
G1 X87.163 Y107.104 E11.54946
G1 X86.294 Y106.465 E11.59535
G1 X85.775 Y106.040 E11.62385
G1 X85.115 Y105.439 E11.66182
G1 X85.074 Y104.925 F4800.000
G1 F1800
G1 X84.926 Y104.925 E11.66813
G1 X84.004 Y105.779 E11.72155
G1 X83.179 Y106.440 E11.76652
G1 X82.310 Y107.046 E11.81155
G1 X81.407 Y107.593 E11.85643
G1 X80.468 Y108.080 E11.90141
G1 X79.499 Y108.504 E11.94639
G1 X78.505 Y108.865 E11.99135
G1 X77.491 Y109.159 E12.03625
G1 X76.458 Y109.386 E12.08123
G1 X75.413 Y109.546 E12.12617
G1 X74.356 Y109.637 E12.17128
G1 X73.699 Y109.658 E12.19922
G1 X73.095 Y109.651 E12.22490
G1 X72.244 Y109.610 E12.26113
G1 X71.588 Y109.546 E12.28918
G1 X70.542 Y109.386 E12.33415
G1 X69.510 Y109.159 E12.37910
G1 X68.495 Y108.865 E12.42404
G1 X67.501 Y108.504 E12.46899
G1 X66.532 Y108.080 E12.51398
G1 X65.594 Y107.593 E12.55892
G1 X64.688 Y107.045 E12.60391
G1 X63.821 Y106.440 E12.64887
G1 X62.996 Y105.779 E12.69383
G1 X62.215 Y105.066 E12.73879
G1 X61.933 Y104.785 E12.75572
G1 X61.221 Y104.004 E12.80066
G1 X60.560 Y103.179 E12.84559
G1 X59.954 Y102.311 E12.89061
G1 X59.407 Y101.407 E12.93554
G1 X58.920 Y100.468 E12.98054
G1 X58.496 Y99.500 E13.02547
G1 X58.263 Y98.882 E13.05352
G1 X57.944 Y97.874 E13.09851
G1 X57.691 Y96.848 E13.14344
G1 X57.506 Y95.806 E13.18842
G1 X57.389 Y94.755 E13.23338
G1 X57.342 Y93.599 E13.28257
G1 X57.342 Y80.401 E13.84377
G1 X57.389 Y79.246 E13.89294
G1 X57.506 Y78.195 E13.93789
G1 X57.614 Y77.543 E13.96599
G1 X57.841 Y76.510 E14.01094
G1 X58.135 Y75.495 E14.05590
G1 X58.496 Y74.501 E14.10087
G1 X58.733 Y73.945 E14.12656
G1 X59.096 Y73.175 E14.16277
G1 X59.605 Y72.250 E14.20765
G1 X59.954 Y71.688 E14.23576
G1 X60.560 Y70.821 E14.28073
G1 X61.221 Y69.996 E14.32569
G1 X61.934 Y69.215 E14.37066
G1 X62.697 Y68.483 E14.41561
G1 X63.155 Y68.089 E14.44131
G1 X63.821 Y67.560 E14.47748
G1 X64.688 Y66.955 E14.52243
G1 X65.593 Y66.407 E14.56739
G1 X66.531 Y65.920 E14.61235
G1 X67.500 Y65.496 E14.65731
G1 X68.118 Y65.263 E14.68540
G1 X69.116 Y64.947 E14.72990
G1 X69.924 Y64.221 E14.77611
G1 X70.434 Y63.802 E14.80417
G1 X71.286 Y63.176 E14.84913
G1 X71.617 Y62.954 E14.86606
G1 X72.521 Y62.407 E14.91101
G1 X73.460 Y61.920 E14.95598
G1 X74.061 Y61.648 E14.98402
G1 X74.627 Y61.421 E15.00993
G1 X75.423 Y61.135 E15.04590
G1 X76.054 Y60.944 E15.07394
G1 X77.081 Y60.691 E15.11891
G1 X78.122 Y60.506 E15.16387
G1 X79.173 Y60.389 E15.20883
G1 X80.329 Y60.342 E15.25802
G1 X88.599 Y60.342 E15.60968
G1 X89.358 Y60.363 E15.64198
G1 X90.412 Y60.454 E15.68694
G1 X91.457 Y60.614 E15.73190
G1 X91.848 Y60.691 E15.74884
G1 X92.875 Y60.944 E15.79381
G1 X93.882 Y61.263 E15.83874
G1 X94.867 Y61.648 E15.88370
G1 X95.825 Y62.096 E15.92868
G1 X96.751 Y62.606 E15.97360
G1 X97.642 Y63.176 E16.01859
G1 X98.495 Y63.802 E16.06356
G1 X99.465 Y64.615 E16.11738
G1 X100.490 Y64.841 E16.16202
G1 X100.875 Y64.944 E16.17895
G1 X101.882 Y65.263 E16.22390
G1 X102.867 Y65.648 E16.26887
G1 X103.825 Y66.096 E16.31382
G1 X104.752 Y66.606 E16.35879
G1 X105.642 Y67.175 E16.40374
G1 X106.494 Y67.802 E16.44870
G1 X107.004 Y68.220 E16.47676
G1 X107.785 Y68.934 E16.52172
G1 X108.217 Y69.376 E16.54804
G1 X108.779 Y69.996 E16.58359
G1 X109.440 Y70.822 E16.62857
G1 X110.046 Y71.689 E16.67353
G1 X110.593 Y72.593 E16.71850
G1 X111.080 Y73.532 E16.76344
G1 X111.504 Y74.500 E16.80840
G1 X111.737 Y75.118 E16.83647
G1 X112.056 Y76.126 E16.88143
G1 X112.309 Y77.153 E16.92639
G1 X112.494 Y78.194 E16.97134
