; generated by Slic3r 1.3.0 on 2021-06-06 at 11:02:22

; external perimeters extrusion width = 0.44mm (5.63mm^3/s)
; perimeters extrusion width = 0.48mm (6.28mm^3/s)
; infill extrusion width = 0.48mm (5.03mm^3/s)
; solid infill extrusion width = 0.48mm (2.51mm^3/s)
; top infill extrusion width = 0.40mm (5.03mm^3/s)
; support material extrusion width = 0.44mm (5.63mm^3/s)

M107
M190 S100 ; set bed temperature and wait for it to be reached
M104 S250 ; set temperature
G28 ; home all axes
G1 Z5 F5000 ; lift nozzle

; Filament gcode

M109 S250 ; set temperature and wait for it to be reached
G21 ; set units to millimeters
G90 ; use absolute coordinates
M82 ; use absolute distances for extrusion
G92 E0
G1 E-4.00000 F2400.00000
G92 E0
G1 Z0.300 F4800.000
G1 X56.256 Y65.564 F4800.000
G1 E4.00000 F2400.00000
G1 F1800
G1 X57.355 Y64.657 E4.05965
G1 X58.063 Y64.123 E4.09679
G1 X58.790 Y63.614 E4.13393
G1 X59.542 Y63.126 E4.17146
G1 X60.593 Y62.503 E4.22257
G1 X61.373 Y62.083 E4.25966
G1 X62.659 Y61.464 E4.31940
G1 X63.473 Y61.116 E4.35649
G1 X64.299 Y60.796 E4.39353
G1 X65.137 Y60.505 E4.43068
G1 X66.316 Y60.149 E4.48222
G1 X67.174 Y59.928 E4.51932
G1 X68.570 Y59.634 E4.57903
G1 X69.445 Y59.491 E4.61615
G1 X70.224 Y59.389 E4.64906
G1 X71.213 Y59.295 E4.69064
G1 X72.445 Y59.232 E4.74228
G1 X73.460 Y59.224 E4.78476
G1 X97.161 Y59.438 E5.77695
G1 X98.035 Y59.464 E5.81353
G1 X98.787 Y59.510 E5.84507
G1 X99.787 Y59.605 E5.88713
G1 X101.089 Y59.789 E5.94217
G1 X101.961 Y59.951 E5.97929
G1 X103.161 Y60.225 E6.03084
G1 X104.534 Y60.614 E6.09055
G1 X105.375 Y60.894 E6.12767
G1 X106.527 Y61.330 E6.17921
G1 X107.832 Y61.904 E6.23892
G1 X108.627 Y62.298 E6.27604
G1 X109.707 Y62.889 E6.32759
G1 X110.922 Y63.637 E6.38733
G1 X111.936 Y64.337 E6.43887
G1 X112.644 Y64.870 E6.47596
G1 X113.744 Y65.779 E6.53570
G1 X114.651 Y66.611 E6.58724
G1 X115.651 Y67.629 E6.64698
G1 X116.468 Y68.550 E6.69852
G1 X117.357 Y69.666 E6.75823
G1 X118.075 Y70.667 E6.80980
G1 X118.844 Y71.868 E6.86948
G1 X119.288 Y72.636 E6.90663
G1 X119.860 Y73.726 E6.95817
G1 X120.457 Y75.022 E7.01791
G1 X120.914 Y76.166 E7.06946
G1 X121.373 Y77.516 E7.12915
G1 X121.709 Y78.702 E7.18073
G1 X121.915 Y79.564 E7.21783
G1 X122.185 Y80.965 E7.27757
G1 X122.354 Y82.185 E7.32911
G1 X122.470 Y83.479 E7.38351
G1 X122.520 Y84.873 E7.44193
G1 X122.501 Y86.130 E7.49453
G1 X122.439 Y87.154 E7.53748
G1 X122.312 Y88.373 E7.58877
G1 X122.092 Y89.783 E7.64850
G1 X121.838 Y90.988 E7.70005
G1 X121.473 Y92.367 E7.75978
G1 X121.097 Y93.539 E7.81133
G1 X120.591 Y94.873 E7.87103
G1 X120.095 Y96.001 E7.92260
G1 X119.705 Y96.797 E7.95970
G1 X119.288 Y97.579 E7.99679
G1 X118.560 Y98.806 E8.05653
G1 X118.075 Y99.547 E8.09362
G1 X117.563 Y100.271 E8.13073
G1 X116.813 Y101.247 E8.18226
G1 X115.885 Y102.331 E8.24199
G1 X115.279 Y102.978 E8.27909
G1 X114.652 Y103.603 E8.31614
G1 X113.744 Y104.436 E8.36774
G1 X112.644 Y105.345 E8.42747
G1 X111.936 Y105.877 E8.46452
G1 X111.211 Y106.385 E8.50158
G1 X110.173 Y107.050 E8.55321
G1 X109.408 Y107.497 E8.59030
G1 X108.627 Y107.917 E8.62740
G1 X107.342 Y108.536 E8.68713
G1 X106.206 Y109.012 E8.73868
G1 X104.863 Y109.495 E8.79842
G1 X104.017 Y109.757 E8.83551
G1 X103.161 Y109.990 E8.87260
G1 X101.961 Y110.264 E8.92415
G1 X100.556 Y110.509 E8.98386
G1 X99.668 Y110.623 E9.02132
G1 X98.310 Y110.737 E9.07838
G1 X97.098 Y110.777 E9.12913
G1 X72.839 Y110.562 E10.14468
G1 X71.815 Y110.529 E10.18755
G1 X70.760 Y110.452 E10.23183
G1 X69.445 Y110.294 E10.28728
G1 X68.039 Y110.049 E10.34701
G1 X66.838 Y109.775 E10.39856
G1 X65.466 Y109.386 E10.45827
G1 X64.615 Y109.103 E10.49581
G1 X63.473 Y108.670 E10.54694
G1 X62.167 Y108.095 E10.60667
G1 X61.067 Y107.542 E10.65822
G1 X60.293 Y107.111 E10.69531
G1 X59.533 Y106.654 E10.73240
G1 X58.345 Y105.864 E10.79214
G1 X57.630 Y105.341 E10.82924
G1 X56.934 Y104.793 E10.86632
G1 X55.998 Y103.992 E10.91787
G1 X55.349 Y103.389 E10.95497
G1 X54.721 Y102.764 E10.99207
G1 X53.757 Y101.712 E11.05179
G1 X53.188 Y101.033 E11.08889
G1 X52.642 Y100.334 E11.12598
G1 X52.122 Y99.617 E11.16309
G1 X51.626 Y98.883 E11.20017
G1 X50.980 Y97.834 E11.25173
G1 X50.291 Y96.574 E11.31187
G1 X49.905 Y95.787 E11.34855
G1 X49.543 Y94.977 E11.38566
G1 X49.209 Y94.157 E11.42273
G1 X48.904 Y93.326 E11.45980
G1 X48.627 Y92.483 E11.49694
G1 X48.380 Y91.633 E11.53401
G1 X48.085 Y90.436 E11.58558
G1 X47.908 Y89.568 E11.62268
G1 X47.762 Y88.694 E11.65977
G1 X47.589 Y87.271 E11.71978
G1 X47.530 Y86.521 E11.75127
G1 X47.488 Y85.608 E11.78953
G1 X47.493 Y84.027 E11.85572
G1 X47.537 Y83.155 E11.89224
G1 X47.614 Y82.259 E11.92991
G1 X47.815 Y80.750 E11.99362
G1 X47.973 Y79.878 E12.03071
G1 X48.162 Y79.012 E12.06781
G1 X48.527 Y77.633 E12.12754
G1 X48.792 Y76.788 E12.16463
G1 X49.086 Y75.952 E12.20172
G1 X49.543 Y74.808 E12.25328
G1 X49.905 Y73.999 E12.29038
G1 X50.295 Y73.203 E12.32747
G1 X50.980 Y71.952 E12.38719
G1 X51.439 Y71.194 E12.42428
G1 X51.925 Y70.453 E12.46140
G1 X52.642 Y69.452 E12.51294
G1 X53.187 Y68.753 E12.55004
G1 X53.756 Y68.074 E12.58713
G1 X54.349 Y67.414 E12.62423
G1 X54.963 Y66.776 E12.66132
G1 X55.599 Y66.159 E12.69842
G1 X56.211 Y65.604 E12.73300
G1 X56.479 Y65.815 F4800.000
G1 F1800
G1 X57.560 Y64.923 E12.79168
G1 X58.259 Y64.396 E12.82833
G1 X58.976 Y63.893 E12.86499
G1 X59.718 Y63.412 E12.90201
G1 X60.759 Y62.795 E12.95266
G1 X61.529 Y62.380 E12.98927
G1 X62.313 Y61.993 E13.02588
G1 X63.598 Y61.427 E13.08465
G1 X64.412 Y61.112 E13.12120
G1 X65.240 Y60.824 E13.15787
G1 X66.407 Y60.472 E13.20892
G1 X67.254 Y60.253 E13.24554
G1 X68.627 Y59.965 E13.30427
G1 X69.491 Y59.823 E13.34091
G1 X70.261 Y59.723 E13.37343
G1 X71.236 Y59.630 E13.41443
G1 X72.456 Y59.567 E13.46557
G1 X73.457 Y59.559 E13.50745
G1 X97.158 Y59.774 E14.49964
G1 X98.020 Y59.799 E14.53575
G1 X98.764 Y59.845 E14.56692
G1 X99.750 Y59.938 E14.60839
G1 X101.031 Y60.120 E14.66256
G1 X101.892 Y60.279 E14.69920
G1 X103.081 Y60.551 E14.75026
G1 X104.431 Y60.933 E14.80900
G1 X105.262 Y61.210 E14.84564
G1 X106.402 Y61.642 E14.89670
G1 X107.687 Y62.207 E14.95543
G1 X108.471 Y62.595 E14.99207
G1 X109.541 Y63.180 E15.04313
G1 X110.736 Y63.917 E15.10190
G1 X111.740 Y64.610 E15.15296
G1 X112.439 Y65.136 E15.18957
G1 X113.521 Y66.030 E15.24833
G1 X114.420 Y66.854 E15.29939
G1 X115.404 Y67.856 E15.35816
G1 X116.213 Y68.769 E15.40922
G1 X117.088 Y69.866 E15.46796
G1 X117.798 Y70.858 E15.51904
G1 X118.555 Y72.039 E15.57776
G1 X118.994 Y72.797 E15.61442
G1 X119.560 Y73.877 E15.66547
G1 X120.148 Y75.152 E15.72424
G1 X120.600 Y76.285 E15.77530
G1 X121.052 Y77.613 E15.83403
G1 X121.385 Y78.787 E15.88512
G1 X121.588 Y79.638 E15.92174
G1 X121.853 Y81.017 E15.98050
G1 X122.021 Y82.225 E16.03156
G1 X122.135 Y83.499 E16.08511
G1 X122.185 Y84.878 E16.14288
G1 X122.166 Y86.115 E16.19467
G1 X122.105 Y87.125 E16.23702
G1 X121.979 Y88.332 E16.28782
G1 X121.762 Y89.719 E16.34659
G1 X121.511 Y90.913 E16.39765
G1 X121.152 Y92.270 E16.45641
G1 X120.779 Y93.431 E16.50747
G1 X120.281 Y94.743 E16.56621
G1 X119.790 Y95.860 E16.61729
G1 X119.159 Y97.115 E16.67605
G1 X118.555 Y98.175 E16.72712
G1 X118.091 Y98.916 E16.76373
G1 X117.602 Y99.641 E16.80034
G1 X116.765 Y100.768 E16.85911
G1 X116.213 Y101.445 E16.89569
G1 X115.638 Y102.104 E16.93232
G1 X114.798 Y102.989 E16.98338
G1 X113.780 Y103.955 E17.04213
G1 X113.119 Y104.528 E17.07874
G1 X112.439 Y105.079 E17.11537
G1 X111.459 Y105.806 E17.16643
G1 X110.291 Y106.583 E17.22517
G1 X109.241 Y107.205 E17.27625
G1 X108.471 Y107.620 E17.31286
G1 X107.687 Y108.007 E17.34948
G1 X106.890 Y108.368 E17.38609
G1 X106.082 Y108.701 E17.42270
G1 X104.760 Y109.176 E17.48147
G1 X103.925 Y109.434 E17.51807
G1 X103.081 Y109.664 E17.55469
G1 X101.892 Y109.935 E17.60575
G1 X100.510 Y110.176 E17.66449
G1 X99.633 Y110.289 E17.70147
G1 X98.290 Y110.402 E17.75791
G1 X97.096 Y110.441 E17.80789
G1 X72.842 Y110.226 E18.82324
G1 X71.832 Y110.194 E18.86551
G1 X70.793 Y110.118 E18.90915
G1 X69.491 Y109.962 E18.96403
G1 X68.108 Y109.721 E19.02279
G1 X66.919 Y109.449 E19.07385
G1 X65.569 Y109.067 E19.13259
G1 X64.729 Y108.787 E19.16964
G1 X63.598 Y108.358 E19.22029
G1 X62.313 Y107.793 E19.27905
G1 X61.223 Y107.245 E19.33011
G1 X60.459 Y106.820 E19.36672
G1 X59.710 Y106.369 E19.40333
G1 X58.540 Y105.591 E19.46210
G1 X57.835 Y105.075 E19.49871
G1 X57.148 Y104.534 E19.53531
G1 X56.220 Y103.741 E19.58638
G1 X55.580 Y103.146 E19.62299
G1 X54.960 Y102.528 E19.65960
G1 X54.363 Y101.890 E19.69621
G1 X53.787 Y101.231 E19.73282
G1 X52.906 Y100.125 E19.79202
G1 X52.398 Y99.426 E19.82820
G1 X51.909 Y98.702 E19.86479
G1 X51.445 Y97.960 E19.90142
G1 X51.006 Y97.203 E19.93803
G1 X50.595 Y96.432 E19.97461
G1 X50.210 Y95.646 E20.01124
G1 X49.719 Y94.529 E20.06231
G1 X49.221 Y93.218 E20.12103
G1 X48.948 Y92.386 E20.15768
G1 X48.704 Y91.547 E20.19427
G1 X48.412 Y90.362 E20.24535
G1 X48.238 Y89.505 E20.28196
G1 X48.094 Y88.642 E20.31858
G1 X47.924 Y87.242 E20.37761
G1 X47.865 Y86.501 E20.40874
G1 X47.824 Y85.600 E20.44649
G1 X47.828 Y84.038 E20.51187
G1 X47.872 Y83.178 E20.54792
G1 X47.947 Y82.293 E20.58509
G1 X48.147 Y80.802 E20.64806
G1 X48.303 Y79.942 E20.68467
G1 X48.489 Y79.087 E20.72128
G1 X48.848 Y77.730 E20.78004
G1 X49.110 Y76.896 E20.81664
G1 X49.400 Y76.071 E20.85325
G1 X49.852 Y74.938 E20.90432
G1 X50.210 Y74.139 E20.94093
G1 X50.595 Y73.354 E20.97755
G1 X51.268 Y72.123 E21.03630
G1 X51.722 Y71.375 E21.07290
G1 X52.202 Y70.643 E21.10953
G1 X52.705 Y69.930 E21.14610
G1 X53.235 Y69.232 E21.18275
G1 X54.012 Y68.292 E21.23381
G1 X54.596 Y67.641 E21.27042
G1 X55.202 Y67.011 E21.30703
G1 X55.830 Y66.402 E21.34364
G1 X56.434 Y65.855 E21.37774
G1 F3840
G1 X56.881 Y65.471 E21.02802
G1 F3840
G1 X56.889 Y65.465 E21.02187
G1 F3840
G1 X56.889 Y65.465 E21.02161
G1 F3840
G1 X57.147 Y65.251 E20.82279
G1 F3840
G1 X57.560 Y64.923 E20.50972
G1 F3840
G1 X57.568 Y64.916 E20.50357
G1 F3840
G1 X57.569 Y64.915 E20.50232
G1 F3840
G1 X57.835 Y64.711 E20.30350
G1 F3840
G1 X58.259 Y64.396 E19.98982
G1 F3840
G1 X58.267 Y64.390 E19.98367
G1 F3840
G1 X58.268 Y64.389 E19.98302
G1 F3840
G1 X58.540 Y64.194 E19.78420
G1 F3840
G1 X58.976 Y63.893 E19.46989
G1 F3840
G1 X59.264 Y63.702 E19.26492
G1 F3840
G1 X59.709 Y63.417 E18.95093
G1 F3840
G1 X59.718 Y63.412 E18.94479
G1 F3840
G1 X59.718 Y63.411 E18.94439
G1 F3840
G1 X60.003 Y63.236 E18.74557
G1 F3840
G1 X60.459 Y62.966 E18.43125
G1 F3840
G1 X60.759 Y62.795 E18.22628
G1 F3840
G1 X61.222 Y62.541 E17.91250
G1 F3840
G1 X61.231 Y62.536 E17.90635
G1 F3840
G1 X61.232 Y62.536 E17.90581
G1 F3840
G1 X61.529 Y62.380 E17.70699
G1 F3840
G1 X61.723 Y62.282 E17.57774
G1 E17.37774 F2400.00000
G92 E0
G1 X58.360 Y67.939 F4800.000
G1 E4.00000 F2400.00000
G1 F1800
G1 X59.037 Y67.370 E4.03759
G1 X59.650 Y66.893 E4.07063
G1 X60.280 Y66.438 E4.10367
G1 X61.106 Y65.888 E4.14584
G1 X61.769 Y65.484 E4.17889
G1 X62.550 Y65.048 E4.21691
G1 X63.641 Y64.501 E4.26878
G1 X64.350 Y64.185 E4.30181
G1 X65.271 Y63.818 E4.34397
G1 X66.005 Y63.558 E4.37706
G1 X67.284 Y63.171 E4.43390
G1 X68.038 Y62.982 E4.46694
G1 X69.008 Y62.778 E4.50911
G1 X69.775 Y62.648 E4.54217
G1 X70.480 Y62.552 E4.57243
G1 X71.416 Y62.461 E4.61239
G1 X72.582 Y62.401 E4.66205
G1 X73.409 Y62.395 E4.69722
G1 X74.285 Y62.422 E4.73450
G1 X75.118 Y62.480 E4.76997
G1 X75.820 Y62.552 E4.79999
G1 X76.737 Y62.681 E4.83935
G1 X77.502 Y62.818 E4.87240
G1 X78.806 Y63.116 E4.92927
G1 X79.554 Y63.324 E4.96229
G1 X80.295 Y63.558 E4.99533
G1 X81.027 Y63.818 E5.02835
G1 X81.949 Y64.185 E5.07056
G1 X82.657 Y64.501 E5.10355
G1 X83.356 Y64.842 E5.13660
G1 X84.042 Y65.206 E5.16963
G1 X85.123 Y65.845 E5.22303
G1 X85.225 Y65.845 E5.22735
G1 X85.958 Y65.421 E5.26336
G1 X86.644 Y65.056 E5.29640
G1 X87.342 Y64.716 E5.32942
G1 X88.052 Y64.400 E5.36245
G1 X88.972 Y64.032 E5.40461
G1 X90.240 Y63.601 E5.46152
G1 X91.195 Y63.331 E5.50373
G1 X91.950 Y63.148 E5.53678
G1 X92.710 Y62.992 E5.56975
G1 X94.182 Y62.767 E5.63306
G1 X95.609 Y62.643 E5.69397
G1 X97.030 Y62.610 E5.75441
G1 X98.191 Y62.649 E5.80380
G1 X99.521 Y62.767 E5.86060
G1 X100.991 Y62.992 E5.92383
G1 X101.963 Y63.197 E5.96605
G1 X102.716 Y63.386 E5.99908
G1 X103.462 Y63.601 E6.03206
G1 X104.728 Y64.032 E6.08895
G1 X105.451 Y64.317 E6.12198
G1 X106.163 Y64.626 E6.15499
G1 X107.058 Y65.056 E6.19721
G1 X108.231 Y65.698 E6.25407
G1 X108.894 Y66.103 E6.28711
G1 X109.721 Y66.653 E6.32933
G1 X110.794 Y67.450 E6.38617
G1 X111.560 Y68.082 E6.42837
G1 X112.545 Y68.986 E6.48523
G1 X113.241 Y69.694 E6.52744
G1 X114.128 Y70.695 E6.58430
G1 X114.746 Y71.470 E6.62649
G1 X115.273 Y72.193 E6.66453
G1 X115.947 Y73.210 E6.71639
G1 X116.453 Y74.064 E6.75860
G1 X117.075 Y75.248 E6.81546
G1 X117.490 Y76.150 E6.85769
G1 X117.829 Y76.978 E6.89571
G1 X118.239 Y78.126 E6.94756
G1 X118.527 Y79.076 E6.98977
G1 X118.847 Y80.375 E7.04664
G1 X119.034 Y81.350 E7.08885
G1 X119.212 Y82.625 E7.14361
G1 X119.297 Y83.563 E7.18365
G1 X119.342 Y84.533 E7.22495
G1 X119.340 Y85.777 E7.27784
G1 X119.284 Y86.825 E7.32248
G1 X119.150 Y88.097 E7.37686
G1 X118.997 Y89.078 E7.41907
G1 X118.820 Y89.955 E7.45709
G1 X118.526 Y91.139 E7.50896
G1 X118.239 Y92.089 E7.55118
G1 X117.787 Y93.347 E7.60802
G1 X117.403 Y94.263 E7.65023
G1 X116.823 Y95.468 E7.70710
G1 X116.346 Y96.339 E7.74932
G1 X115.644 Y97.477 E7.80618
G1 X115.207 Y98.118 E7.83919
G1 X114.746 Y98.744 E7.87223
G1 X114.265 Y99.353 E7.90524
G1 X113.763 Y99.946 E7.93827
G1 X113.092 Y100.678 E7.98048
G1 X112.546 Y101.228 E8.01346
G1 X111.980 Y101.761 E8.04651
G1 X110.963 Y102.631 E8.10339
G1 X110.081 Y103.304 E8.15058
G1 X108.894 Y104.112 E8.21161
G1 X107.743 Y104.794 E8.26851
G1 X107.058 Y105.158 E8.30152
G1 X106.359 Y105.499 E8.33456
G1 X105.650 Y105.815 E8.36758
G1 X104.930 Y106.106 E8.40061
G1 X103.995 Y106.442 E8.44284
G1 X102.715 Y106.829 E8.49968
G1 X101.963 Y107.018 E8.53268
G1 X101.203 Y107.182 E8.56573
G1 X100.226 Y107.352 E8.60790
G1 X98.987 Y107.504 E8.66098
G1 X98.044 Y107.575 E8.70117
G1 X97.062 Y107.605 E8.74297
G1 X95.883 Y107.585 E8.79310
G1 X94.906 Y107.522 E8.83473
G1 X94.010 Y107.426 E8.87302
G1 X92.710 Y107.222 E8.92898
G1 X91.739 Y107.018 E8.97118
G1 X90.446 Y106.676 E9.02804
G1 X89.501 Y106.372 E9.07023
G1 X88.771 Y106.106 E9.10331
G1 X87.538 Y105.589 E9.16015
G1 X86.837 Y105.255 E9.19316
G1 X85.958 Y104.794 E9.23538
G1 X84.877 Y104.155 E9.28878
G1 X84.775 Y104.155 E9.29309
G1 X84.042 Y104.580 E9.32913
G1 X83.356 Y104.944 E9.36214
G1 X82.658 Y105.284 E9.39518
G1 X81.948 Y105.600 E9.42820
G1 X81.026 Y105.968 E9.47042
G1 X79.760 Y106.399 E9.52727
G1 X79.014 Y106.614 E9.56030
G1 X78.261 Y106.804 E9.59330
G1 X77.289 Y107.008 E9.63554
G1 X75.817 Y107.233 E9.69886
G1 X74.391 Y107.357 E9.75972
G1 X72.970 Y107.390 E9.82018
G1 X71.809 Y107.351 E9.86954
G1 X70.479 Y107.233 E9.92631
G1 X69.009 Y107.008 E9.98958
G1 X68.037 Y106.804 E10.03178
G1 X67.284 Y106.614 E10.06483
G1 X66.538 Y106.399 E10.09781
G1 X65.272 Y105.968 E10.15471
G1 X64.549 Y105.684 E10.18772
G1 X63.837 Y105.374 E10.22076
G1 X63.135 Y105.041 E10.25377
G1 X62.446 Y104.683 E10.28680
G1 X61.583 Y104.191 E10.32901
G1 X60.923 Y103.780 E10.36207
G1 X60.279 Y103.347 E10.39508
G1 X59.650 Y102.893 E10.42807
G1 X59.037 Y102.416 E10.46109
G1 X58.021 Y101.546 E10.51798
G1 X57.455 Y101.014 E10.55100
G1 X56.908 Y100.463 E10.58402
G1 X56.160 Y99.642 E10.63124
G1 X55.254 Y98.530 E10.69225
G1 X54.793 Y97.904 E10.72529
G1 X54.355 Y97.262 E10.75830
G1 X53.654 Y96.124 E10.81518
G1 X53.278 Y95.444 E10.84820
G1 X52.925 Y94.752 E10.88123
G1 X52.510 Y93.850 E10.92345
G1 X52.213 Y93.133 E10.95645
G1 X51.941 Y92.406 E10.98946
G1 X51.694 Y91.668 E11.02254
G1 X51.474 Y90.924 E11.05552
G1 X51.153 Y89.625 E11.11241
