; generated by Slic3r 1.3.0 on 2021-06-08 at 20:21:50

; external perimeters extrusion width = 0.44mm (5.63mm^3/s)
; perimeters extrusion width = 0.48mm (6.28mm^3/s)
; infill extrusion width = 0.48mm (5.03mm^3/s)
; solid infill extrusion width = 0.48mm (2.51mm^3/s)
; top infill extrusion width = 0.40mm (5.03mm^3/s)
; support material extrusion width = 0.44mm (5.63mm^3/s)

M107
M190 S100 ; set bed temperature and wait for it to be reached
M104 S250 ; set temperature
G28 ; home all axes
G1 Z5 F5000 ; lift nozzle

; Filament gcode

M109 S250 ; set temperature and wait for it to be reached
G21 ; set units to millimeters
G90 ; use absolute coordinates
M82 ; use absolute distances for extrusion
G92 E0
G1 E-4.00000 F2400.00000
G92 E0
G1 Z0.300 F4800.000
G1 X62.582 Y62.203 F4800.000
G1 E4.00000 F2400.00000
G1 F1800
G1 X63.373 Y61.451 E4.04570
G1 X64.615 Y60.368 E4.11470
G1 X65.895 Y59.363 E4.18280
G1 X67.241 Y58.412 E4.25180
G1 X68.616 Y57.544 E4.31989
G1 X70.053 Y56.736 E4.38889
G1 X71.510 Y56.012 E4.45699
G1 X73.022 Y55.355 E4.52599
G1 X74.041 Y54.964 E4.57169
G1 X75.583 Y54.445 E4.63979
G1 X77.170 Y54.000 E4.70878
G1 X78.757 Y53.642 E4.77688
G1 X80.381 Y53.362 E4.84588
G1 X81.996 Y53.168 E4.91397
G1 X83.641 Y53.056 E4.98298
G1 X85.267 Y53.028 E5.05107
G1 X86.359 Y53.056 E5.09677
G1 X88.003 Y53.168 E5.16577
G1 X89.619 Y53.362 E5.23387
G1 X91.243 Y53.642 E5.30287
G1 X92.830 Y54.000 E5.37096
G1 X94.417 Y54.445 E5.43996
G1 X95.959 Y54.964 E5.50806
G1 X97.492 Y55.568 E5.57706
G1 X98.973 Y56.242 E5.64516
G1 X100.437 Y57.000 E5.71415
G1 X101.841 Y57.822 E5.78225
G1 X102.759 Y58.412 E5.82795
G1 X104.105 Y59.363 E5.89695
G1 X105.385 Y60.368 E5.96505
G1 X106.627 Y61.451 E6.03405
G1 X107.797 Y62.582 E6.10214
G1 X108.549 Y63.373 E6.14784
G1 X109.632 Y64.615 E6.21684
G1 X110.637 Y65.895 E6.28494
G1 X111.588 Y67.241 E6.35394
G1 X112.456 Y68.616 E6.42203
G1 X113.264 Y70.053 E6.49103
G1 X113.988 Y71.510 E6.55913
G1 X114.645 Y73.022 E6.62813
G1 X115.216 Y74.545 E6.69623
G1 X115.714 Y76.116 E6.76522
G1 X116.126 Y77.690 E6.83332
G1 X116.378 Y78.862 E6.88349
G1 X116.638 Y80.381 E6.94802
G1 X116.832 Y81.996 E7.01611
G1 X116.944 Y83.641 E7.08512
G1 X116.972 Y85.268 E7.15321
G1 X116.916 Y86.915 E7.22221
G1 X116.832 Y88.004 E7.26792
G1 X116.638 Y89.618 E7.33600
G1 X116.358 Y91.243 E7.40501
G1 X116.000 Y92.830 E7.47310
G1 X115.555 Y94.417 E7.54211
G1 X115.036 Y95.959 E7.61020
G1 X114.432 Y97.492 E7.67920
G1 X113.758 Y98.973 E7.74730
G1 X113.000 Y100.437 E7.81630
G1 X112.179 Y101.841 E7.88439
G1 X111.528 Y102.847 E7.93455
G1 X110.637 Y104.105 E7.99909
G1 X109.632 Y105.385 E8.06719
G1 X108.549 Y106.627 E8.13619
G1 X107.418 Y107.797 E8.20428
G1 X106.548 Y108.620 E8.25444
G1 X105.385 Y109.632 E8.31898
G1 X104.105 Y110.637 E8.38708
G1 X102.759 Y111.588 E8.45608
G1 X101.384 Y112.456 E8.52417
G1 X99.947 Y113.264 E8.59317
G1 X98.490 Y113.988 E8.66127
G1 X96.978 Y114.645 E8.73027
G1 X95.455 Y115.216 E8.79837
G1 X93.884 Y115.714 E8.86736
G1 X92.310 Y116.126 E8.93546
G1 X91.138 Y116.378 E8.98562
G1 X89.619 Y116.638 E9.05016
G1 X88.004 Y116.832 E9.11825
G1 X86.359 Y116.944 E9.18726
G1 X84.732 Y116.972 E9.25535
G1 X83.085 Y116.916 E9.32435
G1 X81.464 Y116.777 E9.39244
G1 X79.831 Y116.553 E9.46144
G1 X78.233 Y116.249 E9.52954
G1 X76.632 Y115.859 E9.59854
G1 X75.073 Y115.393 E9.66664
G1 X74.041 Y115.036 E9.71234
G1 X72.508 Y114.432 E9.78134
G1 X71.510 Y113.988 E9.82704
G1 X70.053 Y113.264 E9.89514
G1 X68.616 Y112.456 E9.96413
G1 X67.241 Y111.588 E10.03223
G1 X65.895 Y110.637 E10.10123
G1 X64.615 Y109.632 E10.16933
G1 X63.373 Y108.549 E10.23833
G1 X62.203 Y107.418 E10.30642
G1 X61.380 Y106.548 E10.35659
G1 X60.368 Y105.385 E10.42112
G1 X59.363 Y104.105 E10.48922
G1 X58.412 Y102.759 E10.55822
G1 X57.544 Y101.384 E10.62631
G1 X56.736 Y99.947 E10.69531
G1 X56.012 Y98.490 E10.76341
G1 X55.355 Y96.978 E10.83241
G1 X54.784 Y95.455 E10.90050
G1 X54.415 Y94.315 E10.95067
G1 X54.000 Y92.830 E11.01520
G1 X53.642 Y91.243 E11.08330
G1 X53.362 Y89.619 E11.15230
G1 X53.168 Y88.004 E11.22039
G1 X53.056 Y86.359 E11.28940
G1 X53.028 Y84.733 E11.35748
G1 X53.084 Y83.085 E11.42649
G1 X53.223 Y81.464 E11.49458
G1 X53.362 Y80.381 E11.54029
G1 X53.642 Y78.757 E11.60929
G1 X54.000 Y77.170 E11.67738
G1 X54.445 Y75.583 E11.74638
G1 X54.964 Y74.041 E11.81448
G1 X55.568 Y72.508 E11.88348
G1 X56.242 Y71.027 E11.95157
G1 X57.000 Y69.563 E12.02057
G1 X57.821 Y68.159 E12.08866
G1 X58.412 Y67.241 E12.13437
G1 X59.363 Y65.895 E12.20337
G1 X60.368 Y64.615 E12.27147
G1 X61.451 Y63.373 E12.34047
G1 X62.539 Y62.246 E12.40605
G1 X62.815 Y62.445 F4800.000
G1 F1800
G1 X63.677 Y61.629 E12.45574
G1 X64.832 Y60.625 E12.51979
G1 X66.093 Y59.634 E12.58693
G1 X67.430 Y58.690 E12.65545
G1 X68.786 Y57.833 E12.72258
G1 X70.213 Y57.031 E12.79110
G1 X71.649 Y56.318 E12.85824
G1 X73.150 Y55.665 E12.92676
G1 X74.652 Y55.103 E12.99390
G1 X75.781 Y54.736 E13.04358
G1 X77.255 Y54.325 E13.10764
G1 X78.820 Y53.972 E13.17477
G1 X80.433 Y53.694 E13.24329
G1 X82.025 Y53.503 E13.31042
G1 X83.658 Y53.391 E13.37895
G1 X85.262 Y53.364 E13.44608
G1 X86.342 Y53.391 E13.49131
G1 X87.975 Y53.503 E13.55983
G1 X89.567 Y53.694 E13.62697
G1 X91.180 Y53.972 E13.69548
G1 X92.745 Y54.325 E13.76262
G1 X94.321 Y54.767 E13.83114
G1 X95.841 Y55.278 E13.89828
G1 X97.364 Y55.878 E13.96680
G1 X98.824 Y56.542 E14.03394
G1 X100.277 Y57.295 E14.10245
G1 X101.661 Y58.105 E14.16959
G1 X102.658 Y58.750 E14.21928
G1 X103.907 Y59.634 E14.28333
G1 X105.168 Y60.625 E14.35047
G1 X106.402 Y61.700 E14.41899
G1 X107.555 Y62.815 E14.48612
G1 X108.300 Y63.598 E14.53134
G1 X109.375 Y64.832 E14.59986
G1 X110.366 Y66.093 E14.66700
G1 X111.310 Y67.430 E14.73552
G1 X112.167 Y68.786 E14.80266
G1 X112.969 Y70.213 E14.87118
G1 X113.682 Y71.649 E14.93831
G1 X114.335 Y73.150 E15.00683
G1 X114.897 Y74.652 E15.07397
G1 X115.393 Y76.212 E15.14249
G1 X115.799 Y77.764 E15.20963
G1 X116.048 Y78.925 E15.25931
G1 X116.306 Y80.433 E15.32337
G1 X116.497 Y82.025 E15.39050
G1 X116.609 Y83.658 E15.45903
G1 X116.636 Y85.262 E15.52616
G1 X116.581 Y86.898 E15.59468
G1 X116.497 Y87.975 E15.63991
G1 X116.306 Y89.567 E15.70704
G1 X116.028 Y91.180 E15.77556
G1 X115.675 Y92.745 E15.84269
G1 X115.233 Y94.321 E15.91122
G1 X114.722 Y95.841 E15.97835
G1 X114.122 Y97.364 E16.04687
G1 X113.458 Y98.824 E16.11401
G1 X112.705 Y100.277 E16.18253
G1 X111.895 Y101.661 E16.24966
G1 X111.250 Y102.658 E16.29935
G1 X110.366 Y103.907 E16.36341
G1 X109.375 Y105.169 E16.43054
G1 X108.300 Y106.402 E16.49906
G1 X107.185 Y107.555 E16.56619
G1 X106.323 Y108.371 E16.61588
G1 X105.169 Y109.375 E16.67994
G1 X103.907 Y110.366 E16.74707
G1 X102.570 Y111.310 E16.81560
G1 X101.214 Y112.167 E16.88272
G1 X99.787 Y112.969 E16.95125
G1 X98.351 Y113.683 E17.01839
G1 X96.850 Y114.335 E17.08691
G1 X95.348 Y114.897 E17.15405
G1 X93.788 Y115.393 E17.22256
G1 X92.236 Y115.799 E17.28970
G1 X91.076 Y116.048 E17.33938
G1 X89.567 Y116.306 E17.40344
G1 X87.975 Y116.497 E17.47057
G1 X86.342 Y116.609 E17.53910
G1 X84.738 Y116.636 E17.60624
G1 X83.102 Y116.581 E17.67475
G1 X82.025 Y116.497 E17.71998
G1 X80.433 Y116.306 E17.78711
G1 X78.820 Y116.028 E17.85563
G1 X77.255 Y115.675 E17.92276
G1 X75.679 Y115.233 E17.99129
G1 X74.159 Y114.722 E18.05843
G1 X72.636 Y114.122 E18.12694
G1 X71.176 Y113.458 E18.19408
G1 X70.213 Y112.969 E18.23930
G1 X68.786 Y112.167 E18.30782
G1 X67.430 Y111.310 E18.37496
G1 X66.093 Y110.366 E18.44348
G1 X64.832 Y109.375 E18.51062
G1 X63.598 Y108.300 E18.57914
G1 X62.445 Y107.185 E18.64627
G1 X61.327 Y105.989 E18.71479
G1 X60.294 Y104.762 E18.78193
G1 X59.305 Y103.458 E18.85045
G1 X58.403 Y102.132 E18.91758
G1 X57.552 Y100.734 E18.98611
G1 X56.790 Y99.322 E19.05324
G1 X56.317 Y98.351 E19.09846
G1 X55.665 Y96.850 E19.16698
G1 X55.278 Y95.841 E19.21220
G1 X54.767 Y94.321 E19.27934
G1 X54.325 Y92.745 E19.34786
G1 X53.972 Y91.180 E19.41500
G1 X53.694 Y89.567 E19.48352
G1 X53.503 Y87.975 E19.55065
G1 X53.391 Y86.342 E19.61918
G1 X53.364 Y84.738 E19.68630
G1 X53.419 Y83.102 E19.75483
G1 X53.556 Y81.504 E19.82196
G1 X53.694 Y80.433 E19.86719
G1 X53.972 Y78.820 E19.93571
G1 X54.325 Y77.255 E20.00284
G1 X54.767 Y75.679 E20.07136
G1 X55.278 Y74.159 E20.13850
G1 X55.878 Y72.636 E20.20702
G1 X56.542 Y71.176 E20.27415
G1 X57.295 Y69.723 E20.34268
G1 X58.105 Y68.339 E20.40981
G1 X58.690 Y67.430 E20.45504
G1 X59.634 Y66.093 E20.52355
G1 X60.625 Y64.832 E20.59069
G1 X61.700 Y63.598 E20.65921
G1 X62.772 Y62.487 E20.72384
G1 F3840
G1 X62.928 Y62.335 E20.59471
G1 F3840
G1 X62.928 Y62.335 E20.59468
G1 F3840
G1 X63.215 Y62.058 E20.35765
G1 F3840
G1 X63.598 Y61.700 E20.04676
G1 F3840
G1 X63.677 Y61.629 E19.98340
G1 F3840
G1 X63.677 Y61.629 E19.98339
G1 F3840
G1 X64.011 Y61.327 E19.71623
G1 F3840
G1 X64.406 Y60.983 E19.40531
G1 F3840
G1 X64.832 Y60.625 E19.07477
G1 F3840
G1 X65.238 Y60.294 E18.76385
G1 F3840
G1 X65.676 Y59.950 E18.43332
G1 F3840
G1 X66.093 Y59.634 E18.12241
G1 F3840
G1 X66.542 Y59.305 E17.79188
G1 F3840
G1 X66.970 Y59.003 E17.48095
G1 F3840
G1 X67.430 Y58.690 E17.15042
G1 F3840
G1 X67.749 Y58.480 E16.92384
G1 E16.72384 F2400.00000
G92 E0
G1 X64.786 Y64.484 F4800.000
G1 E4.00000 F2400.00000
G1 F1800
G1 X65.991 Y63.362 E4.07002
G1 X66.906 Y62.591 E4.12091
G1 X67.682 Y61.986 E4.16273
G1 X68.303 Y61.531 E4.19547
G1 X69.293 Y60.858 E4.24636
G1 X70.310 Y60.228 E4.29725
G1 X71.654 Y59.476 E4.36273
G1 X72.726 Y58.944 E4.41362
G1 X73.623 Y58.540 E4.45544
G1 X74.335 Y58.245 E4.48818
G1 X75.455 Y57.825 E4.53907
G1 X76.389 Y57.515 E4.58089
G1 X77.127 Y57.295 E4.61364
G1 X78.077 Y57.042 E4.65545
G1 X79.245 Y56.779 E4.70635
G1 X80.211 Y56.599 E4.74816
G1 X80.972 Y56.481 E4.78091
G1 X82.161 Y56.338 E4.83179
G1 X82.928 Y56.272 E4.86454
G1 X83.910 Y56.218 E4.90636
G1 X85.107 Y56.198 E4.95725
G1 X85.877 Y56.211 E4.99000
G1 X86.859 Y56.258 E5.03181
G1 X87.839 Y56.338 E5.07363
G1 X89.028 Y56.481 E5.12452
G1 X89.999 Y56.635 E5.16633
G1 X90.756 Y56.779 E5.19909
G1 X91.923 Y57.042 E5.24997
G1 X92.873 Y57.295 E5.29179
G1 X93.611 Y57.515 E5.32454
G1 X94.746 Y57.897 E5.37543
G1 X95.467 Y58.167 E5.40817
G1 X96.377 Y58.540 E5.44999
G1 X97.466 Y59.035 E5.50088
G1 X98.533 Y59.578 E5.55177
G1 X99.874 Y60.336 E5.61725
G1 X100.886 Y60.975 E5.66814
G1 X101.522 Y61.408 E5.70088
G1 X102.318 Y61.986 E5.74270
G1 X103.259 Y62.725 E5.79359
G1 X103.848 Y63.221 E5.82634
G1 X104.581 Y63.878 E5.86816
G1 X105.442 Y64.709 E5.91904
G1 X106.122 Y65.419 E5.96086
G1 X106.638 Y65.991 E5.99361
G1 X107.275 Y66.741 E6.03543
G1 X108.014 Y67.682 E6.08632
G1 X108.469 Y68.303 E6.11906
G1 X109.025 Y69.114 E6.16088
G1 X109.664 Y70.126 E6.21177
G1 X110.158 Y70.977 E6.25359
G1 X110.524 Y71.654 E6.28633
G1 X111.056 Y72.726 E6.33722
G1 X111.375 Y73.427 E6.36997
G1 X111.755 Y74.335 E6.41179
G1 X112.175 Y75.455 E6.46268
G1 X112.485 Y76.389 E6.50449
G1 X112.705 Y77.127 E6.53724
G1 X113.008 Y78.285 E6.58814
G1 X113.261 Y79.454 E6.63902
G1 X113.519 Y80.972 E6.70450
G1 X113.662 Y82.161 E6.75539
G1 X113.742 Y83.141 E6.79721
G1 X113.782 Y83.910 E6.82995
G1 X113.802 Y85.107 E6.88085
G1 X113.789 Y85.877 E6.91359
G1 X113.742 Y86.859 E6.95540
G1 X113.662 Y87.839 E6.99723
G1 X113.519 Y89.028 E7.04811
G1 X113.401 Y89.789 E7.08086
G1 X113.221 Y90.755 E7.12267
G1 X112.958 Y91.923 E7.17357
G1 X112.763 Y92.668 E7.20631
G1 X112.485 Y93.611 E7.24813
G1 X112.103 Y94.746 E7.29902
G1 X111.833 Y95.467 E7.33176
G1 X111.460 Y96.377 E7.37358
G1 X110.965 Y97.467 E7.42448
G1 X110.622 Y98.156 E7.45722
G1 X110.158 Y99.023 E7.49903
G1 X109.554 Y100.056 E7.54992
G1 X108.905 Y101.062 E7.60081
G1 X108.014 Y102.318 E7.66629
G1 X107.275 Y103.259 E7.71719
G1 X106.638 Y104.009 E7.75899
G1 X106.122 Y104.581 E7.79175
G1 X105.291 Y105.442 E7.84263
G1 X104.581 Y106.122 E7.88445
G1 X104.009 Y106.638 E7.91720
G1 X103.094 Y107.409 E7.96809
G1 X102.318 Y108.014 E8.00991
G1 X101.697 Y108.469 E8.04265
G1 X100.734 Y109.125 E8.09216
G1 X100.396 Y109.636 E8.11826
G1 X96.573 Y111.375 E8.29684
G1 X95.665 Y111.755 E8.33866
G1 X94.545 Y112.175 E8.38955
G1 X93.611 Y112.485 E8.43136
G1 X92.873 Y112.705 E8.46411
G1 X91.715 Y113.008 E8.51501
G1 X90.546 Y113.261 E8.56589
G1 X89.028 Y113.519 E8.63137
G1 X87.839 Y113.662 E8.68226
G1 X86.859 Y113.742 E8.72407
G1 X86.090 Y113.782 E8.75683
G1 X84.893 Y113.802 E8.80772
G1 X84.123 Y113.789 E8.84046
G1 X83.141 Y113.742 E8.88227
G1 X81.948 Y113.640 E8.93317
G1 X80.972 Y113.519 E8.97498
G1 X80.211 Y113.401 E9.00773
G1 X79.245 Y113.221 E9.04955
G1 X78.077 Y112.958 E9.10044
G1 X77.332 Y112.763 E9.13318
G1 X76.389 Y112.485 E9.17500
G1 X75.254 Y112.103 E9.22589
G1 X74.533 Y111.833 E9.25864
G1 X73.623 Y111.460 E9.30045
G1 X72.534 Y110.965 E9.35134
G1 X71.654 Y110.524 E9.39317
G1 X70.791 Y110.053 E9.43497
G1 X70.126 Y109.664 E9.46772
G1 X69.114 Y109.025 E9.51861
G1 X68.303 Y108.469 E9.56043
G1 X67.682 Y108.014 E9.59318
G1 X66.741 Y107.275 E9.64407
G1 X65.991 Y106.638 E9.68588
G1 X65.419 Y106.122 E9.71863
G1 X64.558 Y105.291 E9.76952
G1 X63.878 Y104.581 E9.81133
G1 X63.362 Y104.009 E9.84408
G1 X62.591 Y103.094 E9.89498
G1 X62.115 Y102.488 E9.92772
G1 X61.531 Y101.697 E9.96953
G1 X60.875 Y100.734 E10.01905
G1 X60.364 Y100.396 E10.04514
G1 X58.625 Y96.573 E10.22372
G1 X58.245 Y95.665 E10.26554
G1 X57.825 Y94.545 E10.31643
G1 X57.454 Y93.407 E10.36732
G1 X57.042 Y91.923 E10.43280
G1 X56.779 Y90.755 E10.48369
G1 X56.599 Y89.789 E10.52551
G1 X56.481 Y89.028 E10.55825
G1 X56.338 Y87.839 E10.60914
G1 X56.272 Y87.072 E10.64189
G1 X56.218 Y86.090 E10.68371
G1 X56.198 Y84.893 E10.73459
G1 X56.211 Y84.123 E10.76734
G1 X56.258 Y83.141 E10.80916
G1 X56.360 Y81.949 E10.86004
G1 X56.481 Y80.972 E10.90187
G1 X56.635 Y80.001 E10.94368
G1 X56.779 Y79.244 E10.97643
G1 X57.042 Y78.077 E11.02732
G1 X57.295 Y77.127 E11.06914
G1 X57.515 Y76.389 E11.10188
G1 X57.897 Y75.254 E11.15277
G1 X58.167 Y74.533 E11.18552
G1 X58.540 Y73.623 E11.22733
G1 X59.035 Y72.534 E11.27822
G1 X59.378 Y71.844 E11.31097
G1 X59.842 Y70.977 E11.35279
G1 X60.446 Y69.944 E11.40367
G1 X60.858 Y69.293 E11.43642
G1 X61.408 Y68.478 E11.47824
G1 X62.115 Y67.512 E11.52914
G1 X62.591 Y66.906 E11.56188
G1 X63.221 Y66.152 E11.60369
G1 X64.023 Y65.263 E11.65458
G1 X64.743 Y64.526 E11.69839
G1 X65.023 Y64.729 F4800.000
G1 F1800
G1 X66.217 Y63.617 E11.76779
G1 X67.119 Y62.857 E11.81794
G1 X67.720 Y62.385 E11.85043
G1 X68.502 Y61.808 E11.89175
G1 X69.477 Y61.144 E11.94190
G1 X70.482 Y60.522 E11.99217
G1 X71.814 Y59.778 E12.05704
G1 X72.870 Y59.253 E12.10718
G1 X73.756 Y58.854 E12.14850
G1 X74.462 Y58.561 E12.18100
G1 X75.567 Y58.147 E12.23115
G1 X76.691 Y57.781 E12.28142
G1 X78.161 Y57.373 E12.34628
G1 X79.311 Y57.113 E12.39644
G1 X80.062 Y56.970 E12.42893
G1 X81.022 Y56.818 E12.47025
G1 X82.193 Y56.677 E12.52039
G1 X82.954 Y56.612 E12.55290
G1 X83.925 Y56.559 E12.59422
G1 X85.104 Y56.539 E12.64436
G1 X85.868 Y56.552 E12.67687
G1 X86.839 Y56.598 E12.71819
G1 X87.807 Y56.677 E12.75951
G1 X88.978 Y56.818 E12.80966
G1 X89.938 Y56.970 E12.85097
G1 X90.689 Y57.113 E12.88348
G1 X91.839 Y57.373 E12.93362
G1 X92.579 Y57.566 E12.96612
G1 X93.511 Y57.841 E13.00745
G1 X94.629 Y58.217 E13.05759
G1 X95.345 Y58.485 E13.09009
G1 X96.244 Y58.854 E13.13141
G1 X97.317 Y59.342 E13.18157
G1 X98.002 Y59.682 E13.21406
G1 X98.859 Y60.141 E13.25538
G1 X99.877 Y60.736 E13.30553
G1 X100.870 Y61.377 E13.35580
G1 X102.115 Y62.259 E13.42066
G1 X103.042 Y62.988 E13.47081
G1 X103.627 Y63.480 E13.50331
G1 X104.350 Y64.129 E13.54463
G1 X105.198 Y64.948 E13.59478
G1 X105.871 Y65.650 E13.63610
G1 X106.383 Y66.217 E13.66860
G1 X107.012 Y66.958 E13.70992
G1 X107.741 Y67.885 E13.76007
G1 X108.312 Y68.672 E13.80139
G1 X108.742 Y69.304 E13.83389
