%
(010)
(T1  D=3 CR=0.75 - ZMIN=-4 - bullnose end mill)
G90 G94
G17
G21
G28 G91 Z6
G90

(Drill1)
M9
T1 M6
S300 M3
G54
M8
G0 X6 Y5
Z8
Z3
Z1
G1 Z-1.75 F50
G0 Z1
Z0.25
G1 Z-2.5 F50
G0 Z1
Z-0.5
G1 Z-3.25 F50
G0 Z1
Z-1.25
G1 Z-4 F50
G0 Z3
X110
Z1
G1 Z-1.75 F50
G0 Z1
Z0.25
G1 Z-2.5 F50
G0 Z1
Z-0.5
G1 Z-3.25 F50
G0 Z1
Z-1.25
G1 Z-4 F50
G0 Z3
Z8

(2D Contour1)
S250 M3
X112.3 Y-2.4
Z8
Z2
G1 Z1.2 F50
Z0.1
G19 G3 Y-2.1 Z-0.2 J0.3
G1 Y-1.8 F100
G17 G3 X112 Y-1.5 I-0.3
G1 X4
G2 X2.5 Y0 J1.5
G1 Y22.484
X0
G2 X-1.5 Y23.984 J1.5
G1 Y34.984
G2 X-0.5 Y36.399 I1.5
G1 Y68
G2 X1 Y69.5 I1.5
G1 X112
G2 X113.5 Y68 J-1.5
G1 Y0
G2 X112 Y-1.5 I-1.5
G3 X111.7 Y-1.8 J-0.3
G1 Y-2.1
G19 G2 Y-2.4 Z0.1 K0.3
G0 Z3
X112.3
Z2
G1 Z1.516 F50
Z-0.1
G3 Y-2.1 Z-0.4 J0.3
G1 Y-1.8 F100
G17 G3 X112 Y-1.5 I-0.3
G1 X4
G2 X2.5 Y0 J1.5
G1 Y22.484
X0
G2 X-1.5 Y23.984 J1.5
G1 Y34.984
G2 X-0.5 Y36.399 I1.5
G1 Y68
G2 X1 Y69.5 I1.5
G1 X112
G2 X113.5 Y68 J-1.5
G1 Y0
G2 X112 Y-1.5 I-1.5
G3 X111.7 Y-1.8 J-0.3
G1 Y-2.1
G19 G2 Y-2.4 Z-0.1 K0.3
G0 Z3
X112.3
Z2
G1 Z1.316 F50
Z-0.3
G3 Y-2.1 Z-0.6 J0.3
G1 Y-1.8 F100
G17 G3 X112 Y-1.5 I-0.3
G1 X4
G2 X2.5 Y0 J1.5
G1 Y22.484
X0
G2 X-1.5 Y23.984 J1.5
G1 Y34.984
G2 X-0.5 Y36.399 I1.5
G1 Y68
G2 X1 Y69.5 I1.5
G1 X112
G2 X113.5 Y68 J-1.5
G1 Y0
G2 X112 Y-1.5 I-1.5
G3 X111.7 Y-1.8 J-0.3
G1 Y-2.1
G19 G2 Y-2.4 Z-0.3 K0.3
G0 Z3
X112.3
Z2
G1 Z1.116 F50
Z-0.5
G3 Y-2.1 Z-0.8 J0.3
G1 Y-1.8 F100
G17 G3 X112 Y-1.5 I-0.3
G1 X4
G2 X2.5 Y0 J1.5
G1 Y22.484
X0
G2 X-1.5 Y23.984 J1.5
G1 Y34.984
G2 X-0.5 Y36.399 I1.5
G1 Y68
G2 X1 Y69.5 I1.5
G1 X112
G2 X113.5 Y68 J-1.5
G1 Y0
G2 X112 Y-1.5 I-1.5
G3 X111.7 Y-1.8 J-0.3
G1 Y-2.1
G19 G2 Y-2.4 Z-0.5 K0.3
G0 Z3
X112.3
Z2
G1 Z0.916 F50
Z-0.7
G3 Y-2.1 Z-1 J0.3
G1 Y-1.8 F100
G17 G3 X112 Y-1.5 I-0.3
G1 X4
G2 X2.5 Y0 J1.5
G1 Y22.484
X0
G2 X-1.5 Y23.984 J1.5
G1 Y34.984
G2 X-0.5 Y36.399 I1.5
G1 Y68
G2 X1 Y69.5 I1.5
G1 X112
G2 X113.5 Y68 J-1.5
G1 Y0
G2 X112 Y-1.5 I-1.5
G3 X111.7 Y-1.8 J-0.3
G1 Y-2.1
G19 G2 Y-2.4 Z-0.7 K0.3
G0 Z3
X112.3
Z2
G1 Z0.716 F50
Z-0.9
G3 Y-2.1 Z-1.2 J0.3
G1 Y-1.8 F100
G17 G3 X112 Y-1.5 I-0.3
G1 X4
G2 X2.5 Y0 J1.5
G1 Y22.484
X0
G2 X-1.5 Y23.984 J1.5
G1 Y34.984
G2 X-0.5 Y36.399 I1.5
G1 Y68
G2 X1 Y69.5 I1.5
G1 X112
G2 X113.5 Y68 J-1.5
G1 Y0
G2 X112 Y-1.5 I-1.5
G3 X111.7 Y-1.8 J-0.3
G1 Y-2.1
G19 G2 Y-2.4 Z-0.9 K0.3
G0 Z3
X112.3
Z2
G1 Z0.516 F50
Z-1.1
G3 Y-2.1 Z-1.4 J0.3
G1 Y-1.8 F100
G17 G3 X112 Y-1.5 I-0.3
G1 X4
G2 X2.5 Y0 J1.5
G1 Y22.484
X0
G2 X-1.5 Y23.984 J1.5
G1 Y34.984
G2 X-0.5 Y36.399 I1.5
G1 Y68
G2 X1 Y69.5 I1.5
G1 X112
G2 X113.5 Y68 J-1.5
G1 Y0
G2 X112 Y-1.5 I-1.5
G3 X111.7 Y-1.8 J-0.3
G1 Y-2.1
G19 G2 Y-2.4 Z-1.1 K0.3
G0 Z3
X112.3
Z2
G1 Z0.316 F50
Z-1.3
G3 Y-2.1 Z-1.6 J0.3
G1 Y-1.8 F100
G17 G3 X112 Y-1.5 I-0.3
G1 X4
G2 X2.5 Y0 J1.5
G1 Y22.484
X0
G2 X-1.5 Y23.984 J1.5
G1 Y34.984
G2 X-0.5 Y36.399 I1.5
G1 Y68
G2 X1 Y69.5 I1.5
G1 X112
G2 X113.5 Y68 J-1.5
G1 Y0
G2 X112 Y-1.5 I-1.5
G3 X111.7 Y-1.8 J-0.3
G1 Y-2.1
G19 G2 Y-2.4 Z-1.3 K0.3
G0 Z3
X112.3
Z2
G1 Z0.116 F50
Z-1.5
G3 Y-2.1 Z-1.8 J0.3
G1 Y-1.8 F100
G17 G3 X112 Y-1.5 I-0.3
G1 X4
G2 X2.5 Y0 J1.5
G1 Y22.484
X0
G2 X-1.5 Y23.984 J1.5
G1 Y34.984
G2 X-0.5 Y36.399 I1.5
G1 Y68
G2 X1 Y69.5 I1.5
G1 X112
G2 X113.5 Y68 J-1.5
G1 Y0
G2 X112 Y-1.5 I-1.5
G3 X111.7 Y-1.8 J-0.3
G1 Y-2.1
G19 G2 Y-2.4 Z-1.5 K0.3
G0 Z3
X112.3
Z2
G1 Z-0.084 F50
Z-1.7
G3 Y-2.1 Z-2 J0.3
G1 Y-1.8 F100
G17 G3 X112 Y-1.5 I-0.3
G1 X4
G2 X2.5 Y0 J1.5
G1 Y22.484
X0
G2 X-1.5 Y23.984 J1.5
G1 Y34.984
G2 X-0.5 Y36.399 I1.5
G1 Y68
G2 X1 Y69.5 I1.5
G1 X112
G2 X113.5 Y68 J-1.5
G1 Y0
G2 X112 Y-1.5 I-1.5
G3 X111.7 Y-1.8 J-0.3
G1 Y-2.1
G19 G2 Y-2.4 Z-1.7 K0.3
G0 Z3
X112.3
Z2
G1 Z-0.284 F50
Z-1.9
G3 Y-2.1 Z-2.2 J0.3
G1 Y-1.8 F100
G17 G3 X112 Y-1.5 I-0.3
G1 X4
G2 X2.5 Y0 J1.5
G1 Y22.484
X0
G2 X-1.5 Y23.984 J1.5
G1 Y34.984
G2 X-0.5 Y36.399 I1.5
G1 Y68
G2 X1 Y69.5 I1.5
G1 X112
G2 X113.5 Y68 J-1.5
G1 Y0
G2 X112 Y-1.5 I-1.5
G3 X111.7 Y-1.8 J-0.3
G1 Y-2.1
G19 G2 Y-2.4 Z-1.9 K0.3
G0 Z3
X112.3
Z2
G1 Z-0.484 F50
Z-2.1
G3 Y-2.1 Z-2.4 J0.3
G1 Y-1.8 F100
G17 G3 X112 Y-1.5 I-0.3
G1 X4
G2 X2.5 Y0 J1.5
G1 Y22.484
X0
G2 X-1.5 Y23.984 J1.5
G1 Y34.984
G2 X-0.5 Y36.399 I1.5
G1 Y68
G2 X1 Y69.5 I1.5
G1 X112
G2 X113.5 Y68 J-1.5
G1 Y0
G2 X112 Y-1.5 I-1.5
G3 X111.7 Y-1.8 J-0.3
G1 Y-2.1
G19 G2 Y-2.4 Z-2.1 K0.3
G0 Z3
X112.3
Z2
G1 Z-0.684 F50
Z-2.3
G3 Y-2.1 Z-2.6 J0.3
G1 Y-1.8 F100
G17 G3 X112 Y-1.5 I-0.3
G1 X4
G2 X2.5 Y0 J1.5
G1 Y22.484
X0
G2 X-1.5 Y23.984 J1.5
G1 Y34.984
G2 X-0.5 Y36.399 I1.5
G1 Y68
G2 X1 Y69.5 I1.5
G1 X112
G2 X113.5 Y68 J-1.5
G1 Y0
G2 X112 Y-1.5 I-1.5
G3 X111.7 Y-1.8 J-0.3
G1 Y-2.1
G19 G2 Y-2.4 Z-2.3 K0.3
G0 Z3
X112.3
Z2
G1 Z-0.884 F50
Z-2.5
G3 Y-2.1 Z-2.8 J0.3
G1 Y-1.8 F100
G17 G3 X112 Y-1.5 I-0.3
G1 X4
G2 X2.5 Y0 J1.5
G1 Y22.484
X0
G2 X-1.5 Y23.984 J1.5
G1 Y34.984
G2 X-0.5 Y36.399 I1.5
G1 Y68
G2 X1 Y69.5 I1.5
G1 X112
G2 X113.5 Y68 J-1.5
G1 Y0
G2 X112 Y-1.5 I-1.5
G3 X111.7 Y-1.8 J-0.3
G1 Y-2.1
G19 G2 Y-2.4 Z-2.5 K0.3
G0 Z3
X112.3
Z2
G1 Z-1.084 F50
Z-2.7
G3 Y-2.1 Z-3 J0.3
G1 Y-1.8 F100
G17 G3 X112 Y-1.5 I-0.3
G1 X4
G2 X2.5 Y0 J1.5
G1 Y22.484
X0
G2 X-1.5 Y23.984 J1.5
G1 Y34.984
G2 X-0.5 Y36.399 I1.5
G1 Y68
G2 X1 Y69.5 I1.5
G1 X112
G2 X113.5 Y68 J-1.5
G1 Y0
G2 X112 Y-1.5 I-1.5
G3 X111.7 Y-1.8 J-0.3
G1 Y-2.1
G19 G2 Y-2.4 Z-2.7 K0.3
G0 Z3
X112.3
Z2
G1 Z-1.284 F50
Z-2.9
G3 Y-2.1 Z-3.2 J0.3
G1 Y-1.8 F100
G17 G3 X112 Y-1.5 I-0.3
G1 X4
G2 X2.5 Y0 J1.5
G1 Y22.484
X0
G2 X-1.5 Y23.984 J1.5
G1 Y34.984
G2 X-0.5 Y36.399 I1.5
G1 Y68
G2 X1 Y69.5 I1.5
G1 X112
G2 X113.5 Y68 J-1.5
G1 Y0
G2 X112 Y-1.5 I-1.5
G3 X111.7 Y-1.8 J-0.3
G1 Y-2.1
G19 G2 Y-2.4 Z-2.9 K0.3
G0 Z3
X112.3
Z2
G1 Z-1.484 F50
Z-3.1
G3 Y-2.1 Z-3.4 J0.3
G1 Y-1.8 F100
G17 G3 X112 Y-1.5 I-0.3
G1 X4
G2 X2.5 Y0 J1.5
G1 Y22.484
X0
G2 X-1.5 Y23.984 J1.5
G1 Y34.984
G2 X-0.5 Y36.399 I1.5
G1 Y68
G2 X1 Y69.5 I1.5
G1 X112
G2 X113.5 Y68 J-1.5
G1 Y0
G2 X112 Y-1.5 I-1.5
G3 X111.7 Y-1.8 J-0.3
G1 Y-2.1
G19 G2 Y-2.4 Z-3.1 K0.3
G0 Z3
X112.3
Z2
G1 Z-1.684 F50
Z-3.3
G3 Y-2.1 Z-3.6 J0.3
G1 Y-1.8 F100
G17 G3 X112 Y-1.5 I-0.3
G1 X4
G2 X2.5 Y0 J1.5
G1 Y22.484
X0
G2 X-1.5 Y23.984 J1.5
G1 Y34.984
G2 X-0.5 Y36.399 I1.5
G1 Y68
G2 X1 Y69.5 I1.5
G1 X112
G2 X113.5 Y68 J-1.5
G1 Y0
G2 X112 Y-1.5 I-1.5
G3 X111.7 Y-1.8 J-0.3
G1 Y-2.1
G19 G2 Y-2.4 Z-3.3 K0.3
G0 Z3
X112.3
Z2
G1 Z-1.884 F50
Z-3.5
G3 Y-2.1 Z-3.8 J0.3
G1 Y-1.8 F100
G17 G3 X112 Y-1.5 I-0.3
G1 X4
G2 X2.5 Y0 J1.5
G1 Y22.484
X0
G2 X-1.5 Y23.984 J1.5
G1 Y34.984
G2 X-0.5 Y36.399 I1.5
G1 Y68
G2 X1 Y69.5 I1.5
G1 X112
G2 X113.5 Y68 J-1.5
G1 Y0
G2 X112 Y-1.5 I-1.5
G3 X111.7 Y-1.8 J-0.3
G1 Y-2.1
G19 G2 Y-2.4 Z-3.5 K0.3
G0 Z3
X112.3
Z2
G1 Z-2.084 F50
Z-3.7
G3 Y-2.1 Z-4 J0.3
G1 Y-1.8 F100
G17 G3 X112 Y-1.5 I-0.3
G1 X4
G2 X2.5 Y0 J1.5
G1 Y22.484
X0
G2 X-1.5 Y23.984 J1.5
G1 Y34.984
G2 X-0.5 Y36.399 I1.5
G1 Y68
G2 X1 Y69.5 I1.5
G1 X112
G2 X113.5 Y68 J-1.5
G1 Y0
G2 X112 Y-1.5 I-1.5
G3 X111.7 Y-1.8 J-0.3
G1 Y-2.1
G19 G2 Y-2.4 Z-3.7 K0.3
G0 Z8
G17
M9
G28 G91 Z0
G90
G28 G91 X0 Y0
G90
M30
%
