; generated by Slic3r 1.3.0 on 2021-04-24 at 12:27:15

; external perimeters extrusion width = 0.44mm (6.76mm^3/s)
; perimeters extrusion width = 0.48mm (7.54mm^3/s)
; infill extrusion width = 0.48mm (6.28mm^3/s)
; solid infill extrusion width = 0.48mm (3.77mm^3/s)
; top infill extrusion width = 0.40mm (7.05mm^3/s)
; support material extrusion width = 0.44mm (7.89mm^3/s)

M107
M190 S100 ; set bed temperature and wait for it to be reached
M104 S240 ; set temperature
G28 ; home all axes
G1 Z5 F5000 ; lift nozzle

; Filament gcode

M109 S240 ; set temperature and wait for it to be reached
G21 ; set units to millimeters
G90 ; use absolute coordinates
M82 ; use absolute distances for extrusion
G92 E0
G1 E-6.00000 F2400.00000
G92 E0
G1 Z0.300 F4800.000
G1 X57.093 Y68.606 F4800.000
G1 E6.00000 F2400.00000
G1 F1800
G1 X57.736 Y68.125 E6.03363
G1 X57.965 Y67.978 E6.04501
G1 X58.697 Y67.577 E6.07994
G1 X59.343 Y67.306 E6.10927
G1 X59.916 Y67.119 E6.13451
G1 X60.700 Y66.942 E6.16814
G1 X61.093 Y66.883 E6.18477
G1 X61.805 Y66.832 E6.21467
G1 X108.000 Y66.829 E8.14841
G1 X108.917 Y66.884 E8.18685
G1 X109.729 Y67.027 E8.22139
G1 X110.084 Y67.119 E8.23672
G1 X110.657 Y67.306 E8.26197
G1 X111.303 Y67.577 E8.29129
G1 X112.035 Y67.978 E8.32623
G1 X112.727 Y68.461 E8.36155
G1 X113.490 Y69.145 E8.40445
G1 X114.046 Y69.781 E8.43982
G1 X114.522 Y70.465 E8.47469
G1 X114.923 Y71.199 E8.50970
G1 X115.194 Y71.843 E8.53894
G1 X115.381 Y72.416 E8.56419
G1 X115.473 Y72.770 E8.57951
G1 X115.616 Y73.583 E8.61406
G1 X115.671 Y74.500 E8.65251
G1 X115.668 Y83.697 E9.03749
G1 X115.590 Y84.603 E9.07555
G1 X115.473 Y85.230 E9.10225
G1 X115.381 Y85.584 E9.11756
G1 X115.122 Y86.344 E9.15119
G1 X114.786 Y87.074 E9.18482
G1 X114.375 Y87.764 E9.21843
G1 X114.046 Y88.219 E9.24193
G1 X113.687 Y88.649 E9.26538
G1 X102.200 Y101.310 E9.98101
G1 X100.507 Y102.587 E10.06978
G1 X98.000 Y103.171 E10.17754
G1 X72.000 Y103.171 E11.26590
G1 X69.917 Y102.775 E11.35467
G1 X67.800 Y101.310 E11.46243
G1 X56.313 Y88.649 E12.17806
G1 X55.955 Y88.220 E12.20146
G1 X55.477 Y87.535 E12.23639
G1 X55.077 Y86.803 E12.27131
G1 X54.806 Y86.157 E12.30064
G1 X54.619 Y85.584 E12.32589
G1 X54.442 Y84.800 E12.35951
G1 X54.383 Y84.407 E12.37614
G1 X54.332 Y83.695 E12.40604
G1 X54.329 Y74.500 E12.79095
G1 X54.384 Y73.583 E12.82939
G1 X54.527 Y72.770 E12.86394
G1 X54.619 Y72.416 E12.87926
G1 X54.878 Y71.656 E12.91289
G1 X55.214 Y70.926 E12.94651
G1 X55.516 Y70.404 E12.97175
G1 X55.961 Y69.773 E13.00408
G1 X56.503 Y69.152 E13.03861
G1 X57.048 Y68.646 E13.06972
G1 X57.304 Y68.867 F4800.000
G1 F1800
G1 X57.919 Y68.407 E13.10187
G1 X58.144 Y68.261 E13.11310
G1 X58.844 Y67.879 E13.14648
G1 X59.463 Y67.619 E13.17457
G1 X60.003 Y67.443 E13.19834
G1 X60.752 Y67.273 E13.23050
G1 X61.134 Y67.216 E13.24667
G1 X61.817 Y67.168 E13.27531
G1 X108.000 Y67.164 E15.20856
G1 X108.875 Y67.217 E15.24527
G1 X109.652 Y67.353 E15.27826
G1 X109.997 Y67.443 E15.29320
G1 X110.537 Y67.619 E15.31698
G1 X111.156 Y67.879 E15.34506
G1 X111.856 Y68.261 E15.37845
G1 X112.517 Y68.723 E15.41222
G1 X113.253 Y69.383 E15.45361
G1 X113.784 Y69.991 E15.48740
G1 X114.239 Y70.644 E15.52072
G1 X114.622 Y71.346 E15.55419
G1 X114.881 Y71.963 E15.58219
G1 X115.057 Y72.503 E15.60597
G1 X115.147 Y72.848 E15.62090
G1 X115.283 Y73.625 E15.65390
G1 X115.336 Y74.500 E15.69061
G1 X115.332 Y83.685 E16.07510
G1 X115.258 Y84.550 E16.11144
G1 X115.147 Y85.152 E16.13706
G1 X115.057 Y85.497 E16.15198
G1 X114.809 Y86.224 E16.18415
G1 X114.487 Y86.921 E16.21630
G1 X114.093 Y87.581 E16.24844
G1 X113.784 Y88.009 E16.27055
G1 X113.438 Y88.423 E16.29313
G1 X101.952 Y101.085 E17.00876
G1 X100.303 Y102.313 E17.09484
G1 X98.000 Y102.836 E17.19368
G1 X72.000 Y102.836 E18.28205
G1 X69.982 Y102.439 E18.36813
G1 X68.048 Y101.085 E18.46696
G1 X56.562 Y88.423 E19.18259
G1 X56.217 Y88.010 E19.20512
G1 X55.761 Y87.355 E19.23851
G1 X55.379 Y86.656 E19.27188
G1 X55.119 Y86.037 E19.29997
G1 X54.943 Y85.497 E19.32375
G1 X54.773 Y84.748 E19.35590
G1 X54.716 Y84.366 E19.37207
G1 X54.668 Y83.683 E19.40071
G1 X54.664 Y74.500 E19.78513
G1 X54.717 Y73.625 E19.82184
G1 X54.853 Y72.848 E19.85483
G1 X54.943 Y72.503 E19.86977
G1 X55.191 Y71.776 E19.90192
G1 X55.513 Y71.079 E19.93408
G1 X55.798 Y70.587 E19.95785
G1 X56.223 Y69.983 E19.98878
G1 X56.741 Y69.389 E20.02176
G1 X57.259 Y68.907 E20.05140
G1 F3840
G1 X57.460 Y68.741 E19.89684
G1 F3840
G1 X57.483 Y68.723 E19.87947
G1 F3840
G1 X57.490 Y68.717 E19.87386
G1 F3840
G1 X57.919 Y68.407 E19.55956
G1 F3840
G1 X58.087 Y68.298 E19.44059
G1 F3840
G1 X58.136 Y68.266 E19.40592
G1 F3840
G1 X58.144 Y68.261 E19.40031
G1 F3840
G1 X58.579 Y68.013 E19.10334
G1 F3840
G1 X58.757 Y67.922 E18.98437
G1 F3840
G1 X58.836 Y67.883 E18.93229
G1 F3840
G1 X58.844 Y67.879 E18.92668
G1 F3840
G1 X59.276 Y67.691 E18.64710
G1 F3840
G1 X59.463 Y67.619 E18.52813
G1 F3840
G1 X59.574 Y67.578 E18.45814
G1 F3840
G1 X59.582 Y67.575 E18.45253
G1 F3840
G1 X60.003 Y67.443 E18.19088
G1 F3840
G1 X60.197 Y67.392 E18.07191
G1 F3840
G1 X60.340 Y67.355 E17.98434
G1 F3840
G1 X60.349 Y67.353 E17.97874
G1 F3840
G1 X60.752 Y67.273 E17.73460
G1 F3840
G1 X60.950 Y67.242 E17.61563
G1 F3840
G1 X61.125 Y67.217 E17.51083
G1 F3840
G1 X61.134 Y67.216 E17.50522
G1 F3840
G1 X61.515 Y67.182 E17.27830
G1 F3840
G1 X61.715 Y67.172 E17.15933
G1 F3840
G1 X61.811 Y67.168 E17.10240
G1 F3840
G1 X61.817 Y67.168 E17.09890
G1 F3840
G1 X62.000 Y67.164 E16.98996
G1 F3840
G1 X66.444 Y67.164 E14.35140
G1 E14.05140 F2400.00000
G92 E0
G1 X70.837 Y89.772 F4800.000
G1 E6.00000 F2400.00000
G1 F1800
G1 X70.728 Y89.663 E6.00692
G1 X61.893 Y89.661 E6.40047
G1 X61.353 Y89.629 E6.42456
G1 X60.699 Y89.524 E6.45406
G1 X60.059 Y89.350 E6.48359
G1 X59.442 Y89.108 E6.51313
G1 X58.855 Y88.801 E6.54264
G1 X58.471 Y88.553 E6.56297
G1 X57.958 Y88.153 E6.59199
G1 X57.493 Y87.704 E6.62076
G1 X57.068 Y87.196 E6.65027
G1 X56.699 Y86.645 E6.67980
G1 X56.392 Y86.058 E6.70931
G1 X56.150 Y85.440 E6.73886
G1 X55.976 Y84.801 E6.76838
G1 X55.858 Y83.998 E6.80452
G1 X55.837 Y83.536 E6.82515
G1 X55.837 Y74.464 E7.22924
G1 X55.871 Y73.853 E7.25650
G1 X55.976 Y73.199 E7.28602
G1 X56.150 Y72.559 E7.31555
G1 X56.392 Y71.942 E7.34508
G1 X56.603 Y71.524 E7.36592
G1 X56.763 Y71.255 E7.37988
G1 X57.068 Y70.804 E7.40413
G1 X57.347 Y70.458 E7.42395
G1 X57.796 Y69.993 E7.45273
G1 X58.304 Y69.568 E7.48223
G1 X58.855 Y69.199 E7.51175
G1 X59.442 Y68.892 E7.54127
G1 X60.224 Y68.599 E7.57846
G1 X60.699 Y68.476 E7.60033
G1 X61.167 Y68.395 E7.62151
G1 X61.502 Y68.358 E7.63649
G1 X61.964 Y68.337 E7.65711
G1 X108.036 Y68.337 E9.70936
G1 X108.498 Y68.358 E9.72998
G1 X109.301 Y68.476 E9.76614
G1 X109.776 Y68.599 E9.78800
G1 X110.095 Y68.706 E9.80299
G1 X110.558 Y68.892 E9.82520
G1 X110.976 Y69.103 E9.84604
G1 X111.696 Y69.568 E9.88424
G1 X112.042 Y69.847 E9.90406
G1 X112.423 Y70.212 E9.92755
G1 X112.653 Y70.458 E9.94253
G1 X112.933 Y70.804 E9.96238
G1 X113.301 Y71.355 E9.99186
G1 X113.681 Y72.111 E10.02957
G1 X113.850 Y72.560 E10.05094
G1 X114.024 Y73.199 E10.08043
G1 X114.129 Y73.853 E10.10996
G1 X114.159 Y74.331 E10.13130
G1 X114.163 Y83.536 E10.54133
G1 X114.129 Y84.147 E10.56857
G1 X114.024 Y84.801 E10.59811
G1 X113.850 Y85.440 E10.62760
G1 X113.608 Y86.057 E10.65711
G1 X113.301 Y86.645 E10.68667
G1 X112.933 Y87.196 E10.71616
G1 X112.507 Y87.704 E10.74572
G1 X112.043 Y88.153 E10.77447
G1 X111.529 Y88.553 E10.80350
G1 X110.976 Y88.897 E10.83251
G1 X110.389 Y89.181 E10.86151
G1 X109.941 Y89.350 E10.88288
G1 X109.472 Y89.483 E10.90457
G1 X108.765 Y89.614 E10.93662
G1 X108.107 Y89.661 E10.96598
G1 X99.272 Y89.663 E11.35953
G1 X99.163 Y89.772 E11.36645
G1 X99.163 Y90.228 E11.38672
G1 X99.272 Y90.337 E11.39364
G1 X99.724 Y90.337 E11.41377
G1 X102.163 Y92.776 E11.56737
G1 X102.163 Y99.224 E11.85462
G1 X99.724 Y101.663 E12.00823
G1 X70.276 Y101.663 E13.32000
G1 X67.837 Y99.224 E13.47361
G1 X67.837 Y92.776 E13.76085
G1 X70.276 Y90.337 E13.91446
G1 X70.728 Y90.337 E13.93458
G1 X70.837 Y90.228 E13.94150
G1 X70.837 Y89.832 E13.95911
G1 X71.195 Y89.415 F4800.000
G1 F1800
G1 X71.085 Y89.305 E13.96602
G1 X61.967 Y89.305 E14.37216
G1 X61.391 Y89.274 E14.39788
G1 X60.775 Y89.175 E14.42565
G1 X60.173 Y89.011 E14.45345
G1 X59.592 Y88.783 E14.48126
G1 X59.039 Y88.495 E14.50904
G1 X58.673 Y88.259 E14.52843
G1 X58.190 Y87.881 E14.55576
G1 X57.752 Y87.458 E14.58286
G1 X57.352 Y86.980 E14.61064
G1 X57.005 Y86.461 E14.63844
G1 X56.717 Y85.908 E14.66622
G1 X56.489 Y85.327 E14.69403
G1 X56.325 Y84.725 E14.72182
G1 X56.214 Y83.973 E14.75567
G1 X56.195 Y83.533 E14.77531
G1 X56.195 Y74.467 E15.17913
G1 X56.226 Y73.891 E15.20484
G1 X56.325 Y73.275 E15.23263
G1 X56.489 Y72.673 E15.26043
G1 X56.717 Y72.092 E15.28823
G1 X57.064 Y71.447 E15.32086
G1 X57.352 Y71.020 E15.34380
G1 X57.619 Y70.690 E15.36272
G1 X58.042 Y70.252 E15.38983
G1 X58.520 Y69.852 E15.41760
G1 X59.039 Y69.506 E15.44539
G1 X59.592 Y69.217 E15.47318
G1 X60.323 Y68.942 E15.50798
G1 X60.775 Y68.825 E15.52878
G1 X61.220 Y68.748 E15.54890
G1 X61.967 Y68.695 E15.58226
G1 X108.188 Y68.699 E17.64115
G1 X108.609 Y68.726 E17.65994
G1 X109.081 Y68.796 E17.68120
G1 X109.827 Y68.989 E17.71552
G1 X110.254 Y69.150 E17.73585
G1 X110.534 Y69.279 E17.74958
G1 X110.961 Y69.506 E17.77112
G1 X111.327 Y69.741 E17.79051
G1 X111.958 Y70.252 E17.82669
G1 X112.248 Y70.542 E17.84493
G1 X112.573 Y70.927 E17.86739
G1 X112.759 Y71.173 E17.88113
G1 X112.994 Y71.539 E17.90050
G1 X113.350 Y72.246 E17.93577
G1 X113.511 Y72.673 E17.95611
G1 X113.675 Y73.275 E17.98388
G1 X113.774 Y73.891 E18.01167
G1 X113.802 Y74.345 E18.03195
G1 X113.805 Y83.533 E18.44122
G1 X113.774 Y84.109 E18.46691
G1 X113.675 Y84.725 E18.49471
G1 X113.511 Y85.327 E18.52248
G1 X113.284 Y85.907 E18.55025
G1 X112.995 Y86.461 E18.57808
G1 X112.648 Y86.979 E18.60585
G1 X112.248 Y87.458 E18.63367
G1 X111.810 Y87.881 E18.66076
G1 X111.327 Y88.259 E18.68809
G1 X110.806 Y88.583 E18.71542
G1 X110.254 Y88.850 E18.74273
G1 X109.827 Y89.011 E18.76307
G1 X109.331 Y89.150 E18.78599
G1 X108.718 Y89.260 E18.81378
G1 X108.098 Y89.304 E18.84144
G1 X98.915 Y89.305 E19.25048
G1 X98.805 Y89.415 E19.25740
G1 X98.805 Y90.585 E19.30950
G1 X98.915 Y90.695 E19.31642
G1 X99.576 Y90.695 E19.34586
G1 X101.805 Y92.924 E19.48629
G1 X101.805 Y99.076 E19.76035
G1 X99.576 Y101.305 E19.90078
G1 X70.424 Y101.305 E21.19938
G1 X68.195 Y99.076 E21.33980
G1 X68.195 Y92.924 E21.61387
G1 X70.424 Y90.695 E21.75430
G1 X71.085 Y90.695 E21.78374
G1 X71.195 Y90.585 E21.79066
G1 X71.195 Y89.475 E21.84008
G1 X71.552 Y89.058 F4800.000
G1 F1800
G1 X71.442 Y88.948 E21.84700
G1 X61.970 Y88.948 E22.26891
G1 X61.429 Y88.919 E22.29308
G1 X60.982 Y88.852 E22.31320
G1 X60.423 Y88.715 E22.33884
G1 X59.881 Y88.520 E22.36448
G1 X59.364 Y88.268 E22.39011
G1 X59.123 Y88.125 E22.40260
G1 X58.737 Y87.864 E22.42337
G1 X58.287 Y87.489 E22.44943
G1 X57.890 Y87.078 E22.47487
G1 X57.536 Y86.625 E22.50050
G1 X57.232 Y86.136 E22.52614
G1 X57.041 Y85.758 E22.54500
G1 X56.861 Y85.307 E22.56664
G1 X56.674 Y84.649 E22.59713
G1 X56.570 Y83.948 E22.62868
G1 X56.552 Y83.530 E22.64734
G1 X56.552 Y74.470 E23.05088
G1 X56.570 Y74.052 E23.06954
G1 X56.674 Y73.351 E23.10110
G1 X56.827 Y72.787 E23.12716
G1 X57.041 Y72.242 E23.15323
G1 X57.312 Y71.723 E23.17929
G1 X57.636 Y71.236 E23.20535
G1 X58.011 Y70.787 E23.23140
G1 X58.422 Y70.390 E23.25684
G1 X58.875 Y70.036 E23.28247
G1 X59.223 Y69.812 E23.30091
G1 X59.627 Y69.597 E23.32127
G1 X60.287 Y69.327 E23.35303
G1 X60.982 Y69.148 E23.38501
G1 X61.429 Y69.081 E23.40515
G1 X61.911 Y69.053 E23.42667
G1 X108.140 Y69.054 E25.48592
G1 X108.571 Y69.081 E25.50517
G1 X109.018 Y69.148 E25.52531
G1 X109.713 Y69.327 E25.55728
G1 X110.373 Y69.597 E25.58905
G1 X110.777 Y69.812 E25.60940
G1 X111.125 Y70.036 E25.62784
G1 X111.713 Y70.511 E25.66151
G1 X111.989 Y70.788 E25.67892
G1 X112.295 Y71.151 E25.70011
G1 X112.688 Y71.723 E25.73100
G1 X113.020 Y72.381 E25.76384
G1 X113.173 Y72.787 E25.78315
G1 X113.326 Y73.351 E25.80919
G1 X113.419 Y73.929 E25.83525
G1 X113.445 Y74.359 E25.85446
G1 X113.448 Y83.530 E26.26297
G1 X113.430 Y83.948 E26.28162
G1 X113.352 Y84.518 E26.30726
G1 X113.303 Y84.746 E26.31763
G1 X113.173 Y85.213 E26.33923
G1 X113.020 Y85.619 E26.35853
G1 X112.688 Y86.277 E26.39136
G1 X112.364 Y86.763 E26.41740
G1 X112.109 Y87.078 E26.43545
G1 X111.713 Y87.488 E26.46086
G1 X111.349 Y87.795 E26.48207
G1 X111.125 Y87.964 E26.49456
G1 X110.636 Y88.268 E26.52019
G1 X110.258 Y88.459 E26.53905
G1 X109.713 Y88.673 E26.56513
G1 X109.149 Y88.826 E26.59118
G1 X108.727 Y88.898 E26.61027
G1 X108.030 Y88.948 E26.64140
G1 X98.558 Y88.948 E27.06330
G1 X98.448 Y89.058 E27.07022
G1 X98.448 Y90.942 E27.15413
G1 X98.558 Y91.052 E27.16105
G1 X99.428 Y91.052 E27.19981
G1 X101.448 Y93.072 E27.32706
G1 X101.448 Y98.928 E27.58795
G1 X99.428 Y100.948 E27.71520
G1 X70.572 Y100.948 E29.00061
G1 X68.552 Y98.928 E29.12786
G1 X68.552 Y93.072 E29.38875
G1 X70.572 Y91.052 E29.51600
G1 X71.442 Y91.052 E29.55476
G1 X71.552 Y90.942 E29.56168
G1 X71.552 Y89.118 E29.64292
G1 X71.909 Y88.701 F4800.000
G1 F1800
G1 X71.799 Y88.591 E29.64984
G1 X61.973 Y88.591 E30.08751
G1 X61.466 Y88.564 E30.11013
G1 X61.044 Y88.501 E30.12914
G1 X60.522 Y88.372 E30.15309
G1 X60.017 Y88.189 E30.17705
G1 X59.533 Y87.954 E30.20099
G1 X59.317 Y87.825 E30.21223
G1 X58.953 Y87.579 E30.23177
G1 X58.533 Y87.229 E30.25610
G1 X58.162 Y86.846 E30.27987
G1 X57.831 Y86.423 E30.30382
G1 X57.546 Y85.967 E30.32777
G1 X57.365 Y85.609 E30.34564
G1 X57.197 Y85.185 E30.36597
G1 X57.023 Y84.573 E30.39431
G1 X56.927 Y83.923 E30.42356
G1 X56.909 Y83.527 E30.44124
G1 X56.909 Y74.473 E30.84451
G1 X56.927 Y74.077 E30.86219
G1 X57.023 Y73.427 E30.89144
G1 X57.166 Y72.900 E30.91577
G1 X57.365 Y72.391 E30.94011
G1 X57.618 Y71.907 E30.96444
G1 X57.921 Y71.453 E30.98877
G1 X58.271 Y71.033 E31.01309
G1 X58.654 Y70.662 E31.03686
G1 X59.077 Y70.331 E31.06081
G1 X59.407 Y70.118 E31.07830
G1 X59.788 Y69.916 E31.09748
G1 X60.400 Y69.666 E31.12696
G1 X61.044 Y69.499 E31.15659
G1 X61.467 Y69.436 E31.17561
G1 X61.920 Y69.410 E31.19586
G1 X108.126 Y69.411 E33.25409
G1 X108.533 Y69.436 E33.27226
G1 X108.956 Y69.499 E33.29129
G1 X109.600 Y69.666 E33.32092
G1 X110.212 Y69.916 E33.35040
G1 X110.593 Y70.118 E33.36957
G1 X110.923 Y70.331 E33.38707
G1 X111.467 Y70.771 E33.41822
G1 X111.730 Y71.034 E33.43479
G1 X112.018 Y71.376 E33.45471
G1 X112.382 Y71.907 E33.48342
G1 X112.689 Y72.517 E33.51383
G1 X112.834 Y72.901 E33.53210
G1 X112.977 Y73.427 E33.55641
G1 X113.064 Y73.967 E33.58074
G1 X113.090 Y74.420 E33.60095
G1 X113.091 Y83.527 E34.00663
G1 X113.073 Y83.923 E34.02430
G1 X113.001 Y84.456 E34.04825
G1 X112.946 Y84.702 E34.05948
G1 X112.834 Y85.099 E34.07788
G1 X112.635 Y85.608 E34.10220
G1 X112.382 Y86.093 E34.12656
G1 X112.169 Y86.423 E34.14405
G1 X111.729 Y86.967 E34.17521
G1 X111.346 Y87.338 E34.19897
G1 X111.047 Y87.579 E34.21611
G1 X110.467 Y87.954 E34.24687
G1 X110.109 Y88.135 E34.26474
G1 X109.600 Y88.334 E34.28909
G1 X109.073 Y88.477 E34.31341
G1 X108.623 Y88.552 E34.33371
G1 X108.027 Y88.591 E34.36035
G1 X98.201 Y88.591 E34.79803
G1 X98.091 Y88.701 E34.80495
G1 X98.091 Y91.299 E34.92067
G1 X98.201 Y91.409 E34.92759
G1 X99.280 Y91.409 E34.97567
G1 X101.091 Y93.220 E35.08975
G1 X101.091 Y98.780 E35.33745
G1 X99.280 Y100.591 E35.45152
G1 X70.720 Y100.591 E36.72376
G1 X68.909 Y98.780 E36.83783
G1 X68.909 Y93.220 E37.08553
G1 X70.720 Y91.409 E37.19960
G1 X71.799 Y91.409 E37.24768
G1 X71.909 Y91.299 E37.25460
G1 X71.909 Y88.761 E37.36766
G1 X72.266 Y88.344 F4800.000
G1 F1800
G1 X72.156 Y88.234 E37.37458
G1 X61.976 Y88.234 E37.82803
