; generated by Slic3r 1.3.0 on 2021-04-10 at 17:55:47

; external perimeters extrusion width = 0.44mm (6.76mm^3/s)
; perimeters extrusion width = 0.48mm (7.54mm^3/s)
; infill extrusion width = 0.48mm (6.28mm^3/s)
; solid infill extrusion width = 0.48mm (3.77mm^3/s)
; top infill extrusion width = 0.40mm (7.05mm^3/s)
; support material extrusion width = 0.44mm (7.89mm^3/s)

M107
M190 S100 ; set bed temperature and wait for it to be reached
M104 S240 ; set temperature
G28 ; home all axes
G1 Z5 F5000 ; lift nozzle

; Filament gcode

M109 S240 ; set temperature and wait for it to be reached
G21 ; set units to millimeters
G90 ; use absolute coordinates
M82 ; use absolute distances for extrusion
G92 E0
G1 E-6.00000 F2400.00000
G92 E0
G1 Z0.300 F6000.000
G1 X72.252 Y77.960 F6000.000
G1 E6.00000 F2400.00000
G1 F1800
G1 X72.780 Y77.499 E6.02933
G1 X73.340 Y77.077 E6.05867
G1 X73.927 Y76.696 E6.08800
G1 X74.540 Y76.357 E6.11732
G1 X75.176 Y76.061 E6.14667
G1 X75.831 Y75.812 E6.17600
G1 X76.502 Y75.609 E6.20534
G1 X77.185 Y75.454 E6.23467
G1 X77.849 Y75.351 E6.26279
G1 X92.724 Y73.653 E6.88952
G1 X93.411 Y73.622 E6.91828
G1 X93.987 Y73.638 E6.94242
G1 X94.485 Y73.683 E6.96333
G1 X95.130 Y73.784 E6.99069
G1 X96.006 Y74.003 E7.02847
G1 X96.762 Y74.274 E7.06209
G1 X97.584 Y74.664 E7.10017
G1 X98.276 Y75.080 E7.13398
G1 X99.002 Y75.621 E7.17188
G1 X99.602 Y76.169 E7.20588
G1 X100.204 Y76.839 E7.24358
G1 X100.687 Y77.497 E7.27778
G1 X101.143 Y78.268 E7.31528
G1 X101.490 Y79.013 E7.34966
G1 X101.784 Y79.855 E7.38698
G1 X101.978 Y80.658 E7.42158
G1 X102.101 Y81.536 E7.45869
G1 X102.134 Y82.365 E7.49344
G1 X102.081 Y83.249 E7.53048
G1 X101.951 Y84.066 E7.56514
G1 X101.822 Y84.597 E7.58801
G1 X101.681 Y85.058 E7.60817
G1 X101.490 Y85.573 E7.63117
G1 X101.296 Y86.011 E7.65121
G1 X101.044 Y86.501 E7.67430
G1 X100.802 Y86.911 E7.69424
G1 X100.491 Y87.371 E7.71745
G1 X100.204 Y87.747 E7.73727
G1 X99.839 Y88.169 E7.76060
G1 X99.511 Y88.506 E7.78031
G1 X99.098 Y88.884 E7.80374
G1 X98.734 Y89.178 E7.82334
G1 X98.276 Y89.505 E7.84689
G1 X97.882 Y89.753 E7.86637
G1 X97.386 Y90.026 E7.89005
G1 X96.969 Y90.224 E7.90940
G1 X96.441 Y90.436 E7.93320
G1 X96.006 Y90.583 E7.95244
G1 X81.358 Y94.861 E8.59122
G1 X80.889 Y94.962 E8.61131
G1 X80.325 Y95.052 E8.63522
G1 X79.847 Y95.103 E8.65532
G1 X79.277 Y95.133 E8.67923
G1 X78.797 Y95.133 E8.69932
G1 X78.226 Y95.103 E8.72323
G1 X77.749 Y95.052 E8.74333
G1 X77.058 Y94.937 E8.77266
G1 X76.377 Y94.773 E8.80199
G1 X75.709 Y94.562 E8.83133
G1 X75.176 Y94.355 E8.85524
G1 X74.540 Y94.059 E8.88459
G1 X73.927 Y93.720 E8.91391
G1 X73.340 Y93.339 E8.94324
G1 X72.780 Y92.917 E8.97258
G1 X72.252 Y92.456 E9.00191
G1 X71.758 Y91.959 E9.03124
G1 X71.300 Y91.429 E9.06058
G1 X71.008 Y91.048 E9.08067
G1 X70.616 Y90.467 E9.11001
G1 X70.266 Y89.860 E9.13934
G1 X69.960 Y89.230 E9.16867
G1 X69.699 Y88.579 E9.19801
G1 X69.484 Y87.912 E9.22734
G1 X69.317 Y87.232 E9.25668
G1 X69.217 Y86.669 E9.28059
G1 X69.138 Y85.973 E9.30992
G1 X69.109 Y85.273 E9.33926
G1 X69.129 Y84.572 E9.36859
G1 X69.199 Y83.875 E9.39792
G1 X69.317 Y83.184 E9.42726
G1 X69.484 Y82.504 E9.45659
G1 X69.699 Y81.837 E9.48593
G1 X69.933 Y81.249 E9.51243
G1 X70.165 Y80.752 E9.53535
G1 X70.501 Y80.138 E9.56469
G1 X70.880 Y79.548 E9.59402
G1 X71.300 Y78.987 E9.62335
G1 X71.758 Y78.457 E9.65269
G1 X72.209 Y78.001 E9.67951
G1 X72.479 Y78.207 F6000.000
G1 F1800
G1 X72.989 Y77.762 E9.70785
G1 X73.529 Y77.354 E9.73620
G1 X74.097 Y76.985 E9.76454
G1 X74.689 Y76.657 E9.79287
G1 X75.303 Y76.372 E9.82122
G1 X75.936 Y76.131 E9.84957
G1 X76.584 Y75.934 E9.87791
G1 X77.244 Y75.784 E9.90625
G1 X77.887 Y75.684 E9.93349
G1 X92.751 Y73.988 E10.55974
G1 X93.411 Y73.958 E10.58738
G1 X93.970 Y73.973 E10.61082
G1 X94.442 Y74.015 E10.63063
G1 X95.052 Y74.110 E10.65650
G1 X95.911 Y74.325 E10.69355
G1 X96.632 Y74.583 E10.72561
G1 X97.428 Y74.961 E10.76247
G1 X98.087 Y75.358 E10.79470
G1 X98.790 Y75.882 E10.83140
G1 X99.362 Y76.404 E10.86381
G1 X99.945 Y77.053 E10.90033
G1 X100.406 Y77.680 E10.93292
G1 X100.848 Y78.427 E10.96926
G1 X101.178 Y79.137 E11.00201
G1 X101.409 Y79.775 E11.03042
G1 X101.623 Y80.592 E11.06576
G1 X101.747 Y81.370 E11.09876
G1 X101.798 Y82.227 E11.13469
G1 X101.767 Y83.017 E11.16778
G1 X101.648 Y83.868 E11.20376
G1 X101.549 Y84.315 E11.22292
G1 X101.403 Y84.828 E11.24525
G1 X101.253 Y85.258 E11.26429
G1 X101.047 Y85.752 E11.28671
G1 X100.848 Y86.158 E11.30566
G1 X100.583 Y86.627 E11.32819
G1 X100.339 Y87.005 E11.34703
G1 X100.019 Y87.441 E11.36967
G1 X99.733 Y87.785 E11.38839
G1 X99.362 Y88.182 E11.41113
G1 X99.039 Y88.488 E11.42976
G1 X98.622 Y88.840 E11.45261
G1 X98.267 Y89.104 E11.47113
G1 X97.809 Y89.406 E11.49408
G1 X97.263 Y89.711 E11.52027
G1 X96.836 Y89.915 E11.54007
G1 X96.324 Y90.122 E11.56321
G1 X95.911 Y90.261 E11.58144
G1 X81.276 Y94.536 E12.21967
G1 X80.830 Y94.632 E12.23877
G1 X80.277 Y94.720 E12.26218
G1 X79.824 Y94.768 E12.28129
G1 X79.265 Y94.798 E12.30470
G1 X78.809 Y94.798 E12.32380
G1 X78.250 Y94.768 E12.34722
G1 X77.796 Y94.720 E12.36632
G1 X77.244 Y94.632 E12.38974
G1 X76.584 Y94.482 E12.41808
G1 X75.936 Y94.285 E12.44642
G1 X75.303 Y94.044 E12.47476
G1 X74.886 Y93.856 E12.49392
G1 X74.287 Y93.542 E12.52221
G1 X73.711 Y93.186 E12.55055
G1 X73.162 Y92.791 E12.57889
G1 X72.642 Y92.358 E12.60724
G1 X72.236 Y91.973 E12.63065
G1 X71.775 Y91.476 E12.65899
G1 X71.351 Y90.948 E12.68734
G1 X70.966 Y90.392 E12.71568
G1 X70.620 Y89.810 E12.74402
G1 X70.316 Y89.204 E12.77236
G1 X70.056 Y88.579 E12.80071
G1 X69.841 Y87.937 E12.82905
G1 X69.671 Y87.282 E12.85739
G1 X69.559 Y86.683 E12.88290
G1 X69.492 Y86.163 E12.90483
G1 X69.448 Y85.488 E12.93318
G1 X69.453 Y84.811 E12.96152
G1 X69.504 Y84.136 E12.98986
G1 X69.604 Y83.466 E13.01820
G1 X69.750 Y82.805 E13.04655
G1 X69.943 Y82.156 E13.07489
G1 X70.181 Y81.522 E13.10323
G1 X70.463 Y80.906 E13.13157
G1 X70.788 Y80.312 E13.15992
G1 X71.154 Y79.743 E13.18826
G1 X71.559 Y79.200 E13.21660
G1 X72.001 Y78.687 E13.24494
G1 X72.435 Y78.249 E13.27078
G1 F4800
G1 X72.592 Y78.104 E13.16953
G1 F4800
G1 X72.592 Y78.104 E13.16953
G1 F4800
G1 X72.642 Y78.058 E13.13736
G1 F4800
G1 X72.730 Y77.980 E13.08144
G1 F4800
G1 X72.898 Y77.837 E12.97653
G1 F4800
G1 X72.989 Y77.762 E12.92061
G1 F4800
G1 X73.109 Y77.667 E12.84787
G1 F4800
G1 X73.109 Y77.667 E12.84786
G1 F4800
G1 X73.162 Y77.625 E12.81570
G1 F4800
G1 X73.255 Y77.553 E12.75977
G1 F4800
G1 X73.379 Y77.463 E12.68702
G1 F4800
G1 X73.379 Y77.463 E12.68701
G1 F4800
G1 X73.433 Y77.422 E12.65484
G1 F4800
G1 X73.529 Y77.354 E12.59893
G1 F4800
G1 X73.711 Y77.229 E12.49402
G1 F4800
G1 X73.810 Y77.165 E12.43810
G1 F4800
G1 X73.996 Y77.047 E12.33319
G1 F4800
G1 X74.097 Y76.985 E12.27726
G1 F4800
G1 X74.287 Y76.874 E12.17235
G1 F4800
G1 X74.390 Y76.816 E12.11643
G1 F4800
G1 X74.585 Y76.711 E12.01152
G1 F4800
G1 X74.689 Y76.657 E11.95573
G1 F4800
G1 X74.886 Y76.560 E11.85134
G1 F4800
G1 X74.992 Y76.510 E11.79541
G1 F4800
G1 X75.195 Y76.419 E11.68998
G1 F4800
G1 X75.303 Y76.372 E11.63392
G1 F4800
G1 X75.508 Y76.288 E11.52901
G1 F4800
G1 X75.617 Y76.246 E11.47308
G1 F4800
G1 X75.825 Y76.169 E11.36817
G1 F4800
G1 X75.936 Y76.131 E11.31226
G1 F4800
G1 X76.081 Y76.083 E11.23951
G1 F4800
G1 X76.081 Y76.083 E11.23948
G1 F4800
G1 X76.146 Y76.062 E11.20732
G1 F4800
G1 X76.258 Y76.027 E11.15142
G1 F4800
G1 X76.470 Y75.965 E11.04651
G1 F4800
G1 X76.584 Y75.934 E10.99057
G1 F4800
G1 X76.798 Y75.880 E10.88566
G1 F4800
G1 X76.913 Y75.854 E10.82976
G1 F4800
G1 X77.062 Y75.821 E10.75701
G1 F4800
G1 X77.062 Y75.821 E10.75698
G1 F4800
G1 X77.129 Y75.807 E10.72482
G1 F4800
G1 X77.244 Y75.784 E10.66891
G1 F4800
G1 X77.395 Y75.758 E10.59617
G1 F4800
G1 X77.395 Y75.758 E10.59617
G1 F4800
G1 X77.461 Y75.746 E10.56400
G1 F4800
G1 X77.578 Y75.727 E10.50807
G1 F4800
G1 X77.729 Y75.705 E10.43532
G1 F4800
G1 X77.729 Y75.705 E10.43531
G1 F4800
G1 X77.796 Y75.696 E10.40315
G1 F4800
G1 X77.887 Y75.684 E10.35981
G1 F4800
G1 X83.721 Y75.017 E7.57078
G1 E7.27078 F2400.00000
G92 E0
G1 X85.268 Y83.949 F6000.000
G1 E6.00000 F2400.00000
G1 F1800
G1 X88.464 Y83.303 E6.13650
G1 X88.540 Y83.627 E6.15041
G1 X85.326 Y84.276 E6.28770
G1 X85.268 Y83.949 E6.30160
G1 F4800
G1 X85.326 Y84.276 E6.14381
G1 F4800
G1 X88.540 Y83.627 E4.58597
G1 F4800
G1 X88.464 Y83.303 E4.42814
G1 F4800
G1 X85.268 Y83.949 E2.87924
G1 E0.30160 F2400.00000
G92 E0
G1 X96.709 Y85.829 F6000.000
G1 E6.00000 F2400.00000
G1 F1800
G1 X96.412 Y86.080 E6.01629
G1 X96.105 Y86.300 E6.03209
G1 X95.619 Y86.581 E6.05558
G1 X95.267 Y86.741 E6.07179
G1 X94.735 Y86.921 E6.09527
G1 X94.358 Y87.009 E6.11149
G1 X93.802 Y87.081 E6.13497
G1 X93.415 Y87.092 E6.15118
G1 X92.855 Y87.054 E6.17466
G1 X92.473 Y86.989 E6.19088
G1 X91.932 Y86.842 E6.21436
G1 X91.570 Y86.704 E6.23057
G1 X91.068 Y86.453 E6.25405
G1 X90.741 Y86.246 E6.27027
G1 X90.298 Y85.901 E6.29375
G1 X90.017 Y85.634 E6.30996
G1 X89.651 Y85.209 E6.33344
G1 X89.428 Y84.893 E6.34966
G1 X89.153 Y84.404 E6.37314
G1 X88.996 Y84.050 E6.38935
G1 X88.822 Y83.517 E6.41283
G1 X88.738 Y83.137 E6.42913
G1 X88.686 Y82.763 E6.44493
G1 X88.664 Y82.202 E6.46841
G1 X88.687 Y81.815 E6.48463
G1 X88.776 Y81.261 E6.50811
G1 X88.874 Y80.887 E6.52432
G1 X89.069 Y80.361 E6.54780
G1 X89.239 Y80.013 E6.56402
G1 X89.534 Y79.536 E6.58750
G1 X89.769 Y79.228 E6.60371
G1 X90.152 Y78.818 E6.62719
G1 X90.443 Y78.562 E6.64341
G1 X90.899 Y78.235 E6.66689
G1 X91.235 Y78.042 E6.68310
G1 X91.746 Y77.811 E6.70658
G1 X92.113 Y77.687 E6.72280
G1 X92.659 Y77.561 E6.74628
G1 X93.044 Y77.512 E6.76249
G1 X93.604 Y77.495 E6.78597
G1 X93.991 Y77.522 E6.80219
G1 X94.544 Y77.616 E6.82567
G1 X94.917 Y77.719 E6.84188
G1 X95.441 Y77.920 E6.86536
G1 X95.787 Y78.093 E6.88158
G1 X96.261 Y78.393 E6.90506
G1 X96.566 Y78.632 E6.92127
G1 X96.973 Y79.019 E6.94475
G1 X97.225 Y79.312 E6.96097
G1 X97.547 Y79.772 E6.98445
G1 X97.737 Y80.109 E7.00066
G1 X97.963 Y80.623 E7.02414
G1 X98.083 Y80.991 E7.04036
G1 X98.203 Y81.539 E7.06384
G1 X98.248 Y81.924 E7.08006
G1 X98.259 Y82.483 E7.10346
G1 X98.204 Y83.039 E7.12687
G1 X98.129 Y83.419 E7.14309
G1 X97.965 Y83.956 E7.16657
G1 X97.817 Y84.313 E7.18278
G1 X97.551 Y84.807 E7.20626
G1 X97.334 Y85.131 E7.22255
G1 X97.099 Y85.426 E7.23835
G1 X96.751 Y85.786 E7.25933
G1 X96.709 Y85.829 F6000.000
G1 X96.479 Y85.583 F6000.000
G1 F1800
G1 X96.205 Y85.815 E7.27436
G1 X95.923 Y86.018 E7.28890
G1 X95.466 Y86.282 E7.31101
G1 X95.143 Y86.428 E7.32584
G1 X94.643 Y86.598 E7.34793
G1 X94.298 Y86.678 E7.36275
G1 X93.775 Y86.746 E7.38484
G1 X93.421 Y86.756 E7.39967
G1 X92.894 Y86.720 E7.42176
G1 X92.545 Y86.661 E7.43658
G1 X92.036 Y86.522 E7.45868
G1 X91.705 Y86.396 E7.47350
G1 X91.233 Y86.160 E7.49559
G1 X90.934 Y85.971 E7.51042
G1 X90.517 Y85.647 E7.53251
G1 X90.261 Y85.403 E7.54733
G1 X89.916 Y85.003 E7.56942
G1 X89.712 Y84.713 E7.58425
G1 X89.453 Y84.254 E7.60634
G1 X89.310 Y83.930 E7.62116
G1 X89.146 Y83.428 E7.64326
G1 X89.069 Y83.077 E7.65829
G1 X89.021 Y82.733 E7.67284
G1 X89.000 Y82.205 E7.69494
G1 X89.021 Y81.852 E7.70977
G1 X89.104 Y81.331 E7.73186
G1 X89.194 Y80.988 E7.74668
G1 X89.378 Y80.493 E7.76877
G1 X89.534 Y80.175 E7.78360
G1 X89.811 Y79.726 E7.80569
G1 X90.026 Y79.445 E7.82052
G1 X90.386 Y79.059 E7.84261
G1 X90.652 Y78.825 E7.85743
G1 X91.081 Y78.518 E7.87952
G1 X91.388 Y78.341 E7.89435
G1 X91.869 Y78.124 E7.91644
G1 X92.204 Y78.010 E7.93126
G1 X92.719 Y77.892 E7.95335
G1 X93.070 Y77.847 E7.96818
G1 X93.597 Y77.831 E7.99027
G1 X93.951 Y77.856 E8.00510
G1 X94.471 Y77.944 E8.02719
G1 X94.812 Y78.038 E8.04201
G1 X95.305 Y78.227 E8.06410
G1 X95.622 Y78.386 E8.07893
G1 X96.068 Y78.668 E8.10102
G1 X96.347 Y78.886 E8.11584
G1 X96.729 Y79.250 E8.13793
G1 X96.960 Y79.519 E8.15276
G1 X97.263 Y79.951 E8.17485
G1 X97.436 Y80.259 E8.18967
G1 X97.649 Y80.742 E8.21177
G1 X97.758 Y81.079 E8.22659
G1 X97.872 Y81.595 E8.24868
G1 X97.913 Y81.946 E8.26351
G1 X97.923 Y82.469 E8.28540
G1 X97.872 Y82.990 E8.30730
G1 X97.803 Y83.337 E8.32213
G1 X97.649 Y83.842 E8.34422
G1 X97.513 Y84.169 E8.35904
G1 X97.263 Y84.634 E8.38113
G1 X97.063 Y84.932 E8.39617
G1 X96.847 Y85.204 E8.41071
G1 X96.521 Y85.540 E8.43031
G1 X96.250 Y85.338 F6000.000
G1 F1800
G1 X95.999 Y85.551 E8.44409
G1 X95.741 Y85.735 E8.45737
G1 X95.312 Y85.983 E8.47810
G1 X95.020 Y86.116 E8.49154
G1 X94.551 Y86.275 E8.51224
G1 X94.239 Y86.347 E8.52567
G1 X93.748 Y86.411 E8.54638
G1 X93.427 Y86.420 E8.55981
G1 X92.934 Y86.387 E8.58051
G1 X92.618 Y86.333 E8.59395
G1 X92.140 Y86.203 E8.61465
G1 X91.841 Y86.088 E8.62808
G1 X91.398 Y85.867 E8.64879
G1 X91.127 Y85.696 E8.66222
G1 X90.737 Y85.392 E8.68292
G1 X90.504 Y85.171 E8.69636
G1 X90.181 Y84.796 E8.71706
G1 X89.997 Y84.534 E8.73049
G1 X89.753 Y84.103 E8.75120
G1 X89.624 Y83.809 E8.76463
G1 X89.470 Y83.339 E8.78533
G1 X89.399 Y83.018 E8.79911
G1 X89.356 Y82.703 E8.81240
G1 X89.336 Y82.209 E8.83313
G1 X89.355 Y81.888 E8.84656
G1 X89.433 Y81.400 E8.86727
G1 X89.515 Y81.090 E8.88070
G1 X89.687 Y80.626 E8.90140
G1 X89.828 Y80.338 E8.91484
G1 X90.088 Y79.917 E8.93554
G1 X90.283 Y79.662 E8.94897
G1 X90.620 Y79.300 E8.96968
G1 X90.861 Y79.089 E8.98311
G1 X91.263 Y78.800 E9.00381
G1 X91.541 Y78.640 E9.01725
G1 X91.992 Y78.436 E9.03795
G1 X92.296 Y78.334 E9.05138
G1 X92.778 Y78.222 E9.07209
G1 X93.096 Y78.182 E9.08552
G1 X93.591 Y78.167 E9.10622
G1 X93.911 Y78.190 E9.11966
G1 X94.398 Y78.273 E9.14036
G1 X94.708 Y78.357 E9.15379
G1 X95.170 Y78.534 E9.17450
G1 X95.456 Y78.679 E9.18793
G1 X95.874 Y78.943 E9.20863
G1 X96.127 Y79.140 E9.22207
G1 X96.485 Y79.481 E9.24277
G1 X96.694 Y79.725 E9.25620
G1 X96.979 Y80.130 E9.27691
G1 X97.136 Y80.409 E9.29034
G1 X97.335 Y80.862 E9.31104
G1 X97.434 Y81.167 E9.32448
G1 X97.540 Y81.650 E9.34518
G1 X97.578 Y81.969 E9.35862
G1 X97.587 Y82.456 E9.37900
G1 X97.539 Y82.941 E9.39939
G1 X97.477 Y83.256 E9.41282
G1 X97.333 Y83.729 E9.43352
G1 X97.210 Y84.025 E9.44696
G1 X96.976 Y84.461 E9.46766
G1 X96.792 Y84.734 E9.48144
G1 X96.595 Y84.982 E9.49472
G1 X96.292 Y85.295 E9.51294
G1 X95.865 Y85.247 F6000.000
G1 F1800
G1 X96.496 Y84.606 E9.55160
G1 X96.675 Y84.381 E9.56395
G1 X96.842 Y84.133 E9.57680
G1 X97.061 Y83.727 E9.59662
G1 X97.174 Y83.452 E9.60939
G1 X94.630 Y85.996 E9.76395
G1 X94.305 Y86.106 E9.77868
G1 X93.959 Y86.179 E9.79388
G1 X97.352 Y82.787 E9.99999
G1 X97.405 Y82.246 E10.02332
G1 X93.417 Y86.235 E10.26562
G1 X92.948 Y86.216 E10.28577
G1 X97.390 Y81.775 E10.55561
G1 X97.320 Y81.357 E10.57382
G1 X92.522 Y86.155 E10.86538
G1 X92.139 Y86.051 E10.88242
G1 X97.221 Y80.969 E11.19121
G1 X97.084 Y80.619 E11.20735
G1 X91.786 Y85.917 E11.52923
G1 X91.461 Y85.755 E11.54483
G1 X96.925 Y80.291 E11.87681
G1 X96.735 Y79.993 E11.89196
G1 X91.159 Y85.570 E12.23078
G1 X90.885 Y85.356 E12.24569
G1 X96.528 Y79.713 E12.58858
G1 X96.293 Y79.461 E12.60338
G1 X90.628 Y85.126 E12.94760
G1 X90.399 Y84.868 E12.96243
G1 X96.042 Y79.225 E13.30529
G1 X95.763 Y79.017 E13.32025
G1 X90.186 Y84.594 E13.65905
G1 X90.003 Y84.290 E13.67429
G1 X95.464 Y78.829 E14.00610
G1 X95.137 Y78.668 E14.02173
G1 X89.838 Y83.967 E14.34370
G1 X89.708 Y83.611 E14.36001
G1 X94.785 Y78.533 E14.66852
G1 X94.399 Y78.433 E14.68568
G1 X89.601 Y83.230 E14.97715
G1 X89.535 Y82.809 E14.99547
G1 X93.979 Y78.366 E15.26541
G1 X93.501 Y78.356 E15.28592
G1 X89.520 Y82.337 E15.52783
G1 X89.535 Y82.079 E15.53895
G1 X89.581 Y81.789 E15.55158
G1 X92.965 Y78.405 E15.75716
G1 X92.542 Y78.503 E15.77581
G1 X92.298 Y78.585 E15.78688
G1 X89.765 Y81.117 E15.94074
G1 X89.968 Y80.654 E15.96246
G1 X90.210 Y80.262 E15.98228
G1 X90.385 Y80.033 E15.99465
G1 X91.010 Y79.386 E16.03327
G1 F4800
