; generated by Slic3r 1.3.0 on 2021-04-22 at 22:05:26

; external perimeters extrusion width = 0.44mm (6.76mm^3/s)
; perimeters extrusion width = 0.48mm (7.54mm^3/s)
; infill extrusion width = 0.48mm (6.28mm^3/s)
; solid infill extrusion width = 0.48mm (3.77mm^3/s)
; top infill extrusion width = 0.40mm (7.05mm^3/s)
; support material extrusion width = 0.44mm (7.89mm^3/s)

M107
M190 S100 ; set bed temperature and wait for it to be reached
M104 S240 ; set temperature
G28 ; home all axes
G1 Z5 F5000 ; lift nozzle

; Filament gcode

M109 S240 ; set temperature and wait for it to be reached
G21 ; set units to millimeters
G90 ; use absolute coordinates
M82 ; use absolute distances for extrusion
G92 E0
G1 E-6.00000 F2400.00000
G92 E0
G1 Z0.300 F4800.000
G1 X22.243 Y39.797 F4800.000
G1 E6.00000 F2400.00000
G1 F1800
G1 X24.500 Y39.329 E6.09648
G1 X145.500 Y39.329 E11.16158
G1 X147.583 Y39.725 E11.25035
G1 X149.510 Y40.990 E11.34683
G1 X151.510 Y42.990 E11.46523
G1 X152.703 Y44.743 E11.55400
G1 X153.171 Y47.000 E11.65048
G1 X153.171 Y123.000 E14.83186
G1 X152.775 Y125.083 E14.92063
G1 X151.510 Y127.010 E15.01712
G1 X149.510 Y129.010 E15.13551
G1 X147.757 Y130.203 E15.22428
G1 X145.500 Y130.671 E15.32077
G1 X24.500 Y130.671 E20.38586
G1 X22.417 Y130.275 E20.47463
G1 X20.490 Y129.010 E20.57111
G1 X18.490 Y127.010 E20.68951
G1 X17.297 Y125.257 E20.77828
G1 X16.829 Y123.000 E20.87476
G1 X16.829 Y47.000 E24.05615
G1 X17.225 Y44.917 E24.14492
G1 X18.490 Y42.990 E24.24140
G1 X20.490 Y40.990 E24.35980
G1 X22.194 Y39.831 E24.44606
G1 X22.434 Y40.081 F4800.000
G1 F1800
G1 X24.500 Y39.664 E24.53427
G1 X145.500 Y39.664 E29.59937
G1 X147.518 Y40.061 E29.68545
G1 X149.273 Y41.227 E29.77366
G1 X151.273 Y43.227 E29.89206
G1 X152.419 Y44.934 E29.97814
G1 X152.836 Y47.000 E30.06635
G1 X152.836 Y123.000 E33.24774
G1 X152.439 Y125.018 E33.33382
G1 X151.273 Y126.773 E33.42203
G1 X149.273 Y128.773 E33.54043
G1 X147.566 Y129.919 E33.62651
G1 X145.500 Y130.336 E33.71472
G1 X24.500 Y130.336 E38.77982
G1 X22.482 Y129.939 E38.86590
G1 X20.727 Y128.773 E38.95411
G1 X18.727 Y126.773 E39.07251
G1 X17.581 Y125.066 E39.15859
G1 X17.164 Y123.000 E39.24681
G1 X17.164 Y47.000 E42.42819
G1 X17.561 Y44.982 E42.51427
G1 X18.727 Y43.227 E42.60248
G1 X20.727 Y41.227 E42.72088
G1 X22.384 Y40.114 E42.80445
G1 X22.883 Y41.164 F4800.000
G1 F1800
G1 X23.672 Y40.837 E42.84249
G1 X146.328 Y40.837 E48.30618
G1 X147.858 Y41.471 E48.37995
G1 X151.029 Y44.642 E48.57970
G1 X151.663 Y46.172 E48.65347
G1 X151.663 Y123.828 E52.11264
G1 X151.029 Y125.358 E52.18641
G1 X147.858 Y128.529 E52.38616
G1 X146.328 Y129.163 E52.45993
G1 X23.672 Y129.163 E57.92362
G1 X22.142 Y128.529 E57.99738
G1 X18.971 Y125.358 E58.19714
G1 X18.337 Y123.828 E58.27091
G1 X18.337 Y46.172 E61.73008
G1 X18.971 Y44.642 E61.80384
G1 X22.142 Y41.471 E62.00360
G1 X22.828 Y41.187 E62.03665
G1 X23.020 Y41.494 F4800.000
G1 F1800
G1 X23.743 Y41.195 E62.07153
G1 X146.257 Y41.195 E67.52889
G1 X147.656 Y41.774 E67.59633
G1 X150.726 Y44.844 E67.78975
G1 X151.305 Y46.243 E67.85719
G1 X151.305 Y123.757 E71.31003
G1 X150.726 Y125.156 E71.37747
G1 X147.656 Y128.226 E71.57090
G1 X146.257 Y128.805 E71.63833
G1 X23.743 Y128.805 E77.09570
G1 X22.344 Y128.226 E77.16313
G1 X19.274 Y125.156 E77.35656
G1 X18.695 Y123.757 E77.42400
G1 X18.695 Y46.243 E80.87684
G1 X19.274 Y44.844 E80.94428
G1 X22.344 Y41.774 E81.13770
G1 X22.964 Y41.517 E81.16759
G1 X23.156 Y41.824 F4800.000
G1 F1800
G1 X23.814 Y41.552 E81.19930
G1 X146.186 Y41.552 E86.65034
G1 X147.453 Y42.077 E86.71144
G1 X150.423 Y45.047 E86.89854
G1 X150.948 Y46.314 E86.95965
G1 X150.948 Y123.686 E90.40616
G1 X150.423 Y124.953 E90.46727
G1 X147.453 Y127.923 E90.65437
G1 X146.186 Y128.448 E90.71548
G1 X23.814 Y128.448 E96.16651
G1 X22.547 Y127.923 E96.22762
G1 X19.577 Y124.953 E96.41472
G1 X19.052 Y123.686 E96.47582
G1 X19.052 Y46.314 E99.92234
G1 X19.577 Y45.047 E99.98345
G1 X22.547 Y42.077 E100.17055
G1 X23.101 Y41.847 E100.19727
G1 X23.293 Y42.154 F4800.000
G1 F1800
G1 X23.885 Y41.909 E100.22582
G1 X146.115 Y41.909 E105.67052
G1 X147.251 Y42.379 E105.72530
G1 X150.121 Y45.249 E105.90607
G1 X150.591 Y46.385 E105.96085
G1 X150.591 Y123.615 E109.40103
G1 X150.121 Y124.751 E109.45581
G1 X147.251 Y127.621 E109.63658
G1 X146.115 Y128.091 E109.69136
G1 X23.885 Y128.091 E115.13606
G1 X22.749 Y127.621 E115.19084
G1 X19.879 Y124.751 E115.37161
G1 X19.409 Y123.615 E115.42639
G1 X19.409 Y46.385 E118.86658
G1 X19.879 Y45.249 E118.92135
G1 X22.749 Y42.379 E119.10212
G1 X23.238 Y42.177 E119.12568
G1 X23.430 Y42.484 F4800.000
G1 F1800
G1 X23.956 Y42.266 E119.15107
G1 X146.044 Y42.266 E124.58944
G1 X147.049 Y42.682 E124.63789
G1 X149.818 Y45.451 E124.81233
G1 X150.234 Y46.456 E124.86078
G1 X150.234 Y123.544 E128.29464
G1 X149.818 Y124.549 E128.34309
G1 X147.049 Y127.318 E128.51753
G1 X146.044 Y127.734 E128.56598
G1 X23.956 Y127.734 E134.00435
G1 X22.951 Y127.318 E134.05280
G1 X20.182 Y124.549 E134.22724
G1 X19.766 Y123.544 E134.27569
G1 X19.766 Y46.456 E137.70955
G1 X20.182 Y45.451 E137.75800
G1 X22.951 Y42.682 E137.93244
G1 X23.374 Y42.507 E137.95283
G1 X23.566 Y42.814 F4800.000
G1 F1800
G1 X24.027 Y42.623 E137.97505
G1 X145.973 Y42.623 E143.40710
G1 X146.846 Y42.985 E143.44922
G1 X149.515 Y45.654 E143.61733
G1 X149.877 Y46.527 E143.65945
G1 X149.877 Y123.473 E147.08698
G1 X149.515 Y124.346 E147.12910
G1 X146.846 Y127.015 E147.29721
G1 X145.973 Y127.377 E147.33933
G1 X24.027 Y127.377 E152.77138
G1 X23.154 Y127.015 E152.81350
G1 X20.485 Y124.346 E152.98161
G1 X20.123 Y123.473 E153.02373
G1 X20.123 Y46.527 E156.45126
G1 X20.485 Y45.654 E156.49338
G1 X23.154 Y42.985 E156.66149
G1 X23.511 Y42.837 E156.67872
G1 X23.703 Y43.144 F4800.000
G1 F1800
G1 X24.098 Y42.980 E156.69778
G1 X145.902 Y42.980 E162.12349
G1 X146.644 Y43.288 E162.15928
G1 X149.212 Y45.856 E162.32107
G1 X149.520 Y46.598 E162.35686
G1 X149.520 Y123.402 E165.77806
G1 X149.212 Y124.144 E165.81385
G1 X146.644 Y126.712 E165.97563
G1 X145.902 Y127.020 E166.01142
G1 X24.098 Y127.020 E171.43714
G1 X23.356 Y126.712 E171.47293
G1 X20.788 Y124.144 E171.63472
G1 X20.480 Y123.402 E171.67051
G1 X20.480 Y46.598 E175.09171
G1 X20.788 Y45.856 E175.12750
G1 X23.356 Y43.288 E175.28928
G1 X23.648 Y43.167 E175.30335
G1 X23.840 Y43.474 F4800.000
G1 F1800
G1 X24.169 Y43.337 E175.31924
G1 X145.831 Y43.337 E180.73862
G1 X146.442 Y43.591 E180.76809
G1 X148.909 Y46.058 E180.92354
G1 X149.163 Y46.669 E180.95300
G1 X149.163 Y123.331 E184.36787
G1 X148.909 Y123.942 E184.39734
G1 X146.442 Y126.409 E184.55279
G1 X145.831 Y126.663 E184.58225
G1 X24.169 Y126.663 E190.00164
G1 X23.558 Y126.409 E190.03110
G1 X21.091 Y123.942 E190.18656
G1 X20.837 Y123.331 E190.21602
G1 X20.837 Y46.669 E193.63089
G1 X21.091 Y46.058 E193.66035
G1 X23.558 Y43.591 E193.81581
G1 X23.784 Y43.497 E193.82671
G1 X23.976 Y43.804 F4800.000
G1 F1800
G1 X24.240 Y43.695 E193.83943
G1 X145.760 Y43.695 E199.25249
G1 X146.239 Y43.893 E199.27563
G1 X148.607 Y46.261 E199.42475
G1 X148.805 Y46.740 E199.44789
G1 X148.805 Y123.260 E202.85643
G1 X148.607 Y123.739 E202.87956
G1 X146.239 Y126.107 E203.02869
G1 X145.760 Y126.305 E203.05182
G1 X24.240 Y126.305 E208.46488
G1 X23.761 Y126.107 E208.48801
G1 X21.393 Y123.739 E208.63714
G1 X21.195 Y123.260 E208.66027
G1 X21.195 Y46.740 E212.06881
G1 X21.393 Y46.261 E212.09195
G1 X23.761 Y43.893 E212.24107
G1 X23.921 Y43.827 E212.24881
G1 X24.113 Y44.134 F4800.000
G1 F1800
G1 X24.311 Y44.052 E212.25837
G1 X145.689 Y44.052 E217.66510
G1 X146.037 Y44.196 E217.68190
G1 X148.304 Y46.463 E217.82470
G1 X148.448 Y46.811 E217.84151
G1 X148.448 Y123.189 E221.24372
G1 X148.304 Y123.537 E221.26052
G1 X146.037 Y125.804 E221.40332
G1 X145.689 Y125.948 E221.42012
G1 X24.311 Y125.948 E226.82685
G1 X23.963 Y125.804 E226.84366
G1 X21.696 Y123.537 E226.98646
G1 X21.552 Y123.189 E227.00326
G1 X21.552 Y46.811 E230.40547
G1 X21.696 Y46.463 E230.42228
G1 X23.963 Y44.196 E230.56507
G1 X24.058 Y44.157 E230.56965
G1 X24.250 Y44.464 F4800.000
G1 F1800
G1 X24.382 Y44.409 E230.57604
G1 X145.618 Y44.409 E235.97644
G1 X145.835 Y44.499 E235.98692
G1 X148.001 Y46.665 E236.12339
G1 X148.091 Y46.882 E236.13386
G1 X148.091 Y123.118 E239.52975
G1 X148.001 Y123.335 E239.54022
G1 X145.835 Y125.501 E239.67669
G1 X145.618 Y125.591 E239.68717
G1 X24.382 Y125.591 E245.08757
G1 X24.165 Y125.501 E245.09804
G1 X21.999 Y123.335 E245.23451
G1 X21.909 Y123.118 E245.24499
G1 X21.909 Y46.882 E248.64087
G1 X21.999 Y46.665 E248.65135
G1 X24.194 Y44.487 E248.78911
G1 X24.386 Y44.794 F4800.000
G1 F1800
G1 X24.453 Y44.766 E248.79235
G1 X145.547 Y44.766 E254.18642
G1 X145.633 Y44.802 E254.19056
G1 X147.698 Y46.867 E254.32070
G1 X147.734 Y46.953 E254.32485
G1 X147.734 Y123.047 E257.71440
G1 X147.698 Y123.133 E257.71855
G1 X145.633 Y125.198 E257.84869
G1 X145.547 Y125.234 E257.85284
G1 X24.453 Y125.234 E263.24691
G1 X24.367 Y125.198 E263.25106
G1 X22.302 Y123.133 E263.38120
G1 X22.266 Y123.047 E263.38534
G1 X22.266 Y46.953 E266.77490
G1 X22.302 Y46.867 E266.77904
G1 X24.340 Y44.830 E266.90742
G1 F3840
G1 X24.453 Y44.766 E266.82998
G1 F3840
G1 X33.923 Y44.766 E261.20743
G1 E260.90742 F2400.00000
G92 E0
G1 X22.700 Y89.794 F4800.000
G1 E6.00000 F2400.00000
G1 F1800
G1 X22.700 Y47.083 E7.78789
G1 X24.583 Y45.200 E7.89935
G1 X145.417 Y45.200 E12.95752
G1 X147.300 Y47.083 E13.06898
G1 X147.300 Y122.917 E16.24343
G1 X145.417 Y124.800 E16.35489
G1 X24.583 Y124.800 E21.41305
G1 X22.700 Y122.917 E21.52452
G1 X22.700 Y89.854 E22.90856
G1 X23.043 Y89.588 F4800.000
G1 X23.036 Y89.794 F4800.000
G1 F1800
G1 X23.036 Y47.222 E24.69063
G1 X24.722 Y45.536 E24.79046
G1 X145.278 Y45.536 E29.83698
G1 X146.964 Y47.222 E29.93680
G1 X146.964 Y122.778 E33.09961
G1 X145.278 Y124.464 E33.19944
G1 X24.722 Y124.464 E38.24596
G1 X23.036 Y122.778 E38.34578
G1 X23.036 Y89.854 E39.72401
G1 X23.371 Y89.794 F4800.000
G1 F1800
G1 X23.371 Y47.361 E41.50026
G1 X24.861 Y45.871 E41.58845
G1 X145.139 Y45.871 E46.62333
G1 X146.629 Y47.361 E46.71152
G1 X146.629 Y122.639 E49.86269
G1 X145.139 Y124.129 E49.95088
G1 X24.861 Y124.129 E54.98576
G1 X23.371 Y122.639 E55.07395
G1 X23.371 Y89.854 E56.44635
G1 F3840
G1 X23.371 Y80.254 E50.74635
G1 E50.44635 F2400.00000
G92 E0
G1 X140.350 Y119.533 F4800.000
G1 E6.00000 F2400.00000
G1 F1800
G1 X140.460 Y119.176 E6.01563
G1 X140.628 Y118.843 E6.03126
G1 X140.851 Y118.543 E6.04688
G1 X141.121 Y118.285 E6.06250
G1 X141.430 Y118.077 E6.07812
G1 X141.763 Y117.926 E6.09344
G1 X142.124 Y117.832 E6.10905
G1 X142.496 Y117.799 E6.12468
G1 X142.876 Y117.832 E6.14062
G1 X143.237 Y117.926 E6.15625
G1 X143.577 Y118.081 E6.17187
G1 X143.885 Y118.290 E6.18750
G1 X144.154 Y118.549 E6.20311
G1 X144.372 Y118.843 E6.21843
G1 X144.540 Y119.176 E6.23404
G1 X144.650 Y119.533 E6.24968
G1 X144.699 Y119.910 E6.26561
G1 X144.682 Y120.283 E6.28124
G1 X144.603 Y120.648 E6.29686
G1 X144.467 Y120.987 E6.31217
G1 X144.272 Y121.305 E6.32779
G1 X144.025 Y121.586 E6.34341
G1 X143.735 Y121.821 E6.35904
G1 X143.403 Y122.007 E6.37498
G1 X143.051 Y122.131 E6.39061
G1 X142.683 Y122.193 E6.40623
G1 X142.309 Y122.192 E6.42186
G1 X141.942 Y122.129 E6.43747
G1 X141.597 Y122.007 E6.45280
G1 X141.265 Y121.821 E6.46872
G1 X140.975 Y121.586 E6.48435
G1 X140.728 Y121.305 E6.49998
G1 X140.533 Y120.987 E6.51560
G1 X140.397 Y120.648 E6.53091
G1 X140.318 Y120.283 E6.54653
G1 X140.301 Y119.910 E6.56216
G1 X140.342 Y119.592 E6.57558
G1 X140.350 Y119.533 F4800.000
G1 X140.029 Y119.434 F4800.000
G1 F1800
G1 X140.147 Y119.050 E6.59241
G1 X140.342 Y118.666 E6.61042
G1 X140.598 Y118.320 E6.62844
G1 X140.909 Y118.023 E6.64645
G1 X141.266 Y117.783 E6.66445
G1 X141.651 Y117.609 E6.68213
G1 X142.067 Y117.500 E6.70013
G1 X142.496 Y117.463 E6.71816
G1 X142.933 Y117.500 E6.73651
G1 X143.350 Y117.609 E6.75455
G1 X143.741 Y117.787 E6.77256
G1 X144.098 Y118.029 E6.79058
G1 X144.407 Y118.327 E6.80858
G1 X144.659 Y118.666 E6.82626
G1 X144.853 Y119.050 E6.84425
G1 X144.980 Y119.461 E6.86229
G1 X145.035 Y119.896 E6.88064
G1 X145.016 Y120.327 E6.89867
G1 X144.925 Y120.747 E6.91667
G1 X144.767 Y121.139 E6.93435
G1 X144.543 Y121.505 E6.95235
G1 X144.259 Y121.829 E6.97036
G1 X143.924 Y122.100 E6.98840
G1 X143.542 Y122.314 E7.00675
G1 X143.135 Y122.457 E7.02478
G1 X142.711 Y122.529 E7.04280
G1 X142.280 Y122.528 E7.06081
G1 X141.857 Y122.454 E7.07881
G1 X141.458 Y122.314 E7.09651
G1 X141.076 Y122.100 E7.11484
G1 X140.741 Y121.829 E7.13288
G1 X140.457 Y121.505 E7.15089
G1 X140.233 Y121.139 E7.16889
G1 X140.075 Y120.747 E7.18657
G1 X139.984 Y120.327 E7.20456
G1 X139.965 Y119.896 E7.22260
G1 X140.016 Y119.492 E7.23965
G1 X139.708 Y119.335 F4800.000
G1 F1800
G1 X139.835 Y118.924 E7.25767
G1 X140.055 Y118.489 E7.27808
G1 X140.346 Y118.097 E7.29848
G1 X140.698 Y117.761 E7.31889
G1 X141.102 Y117.489 E7.33927
G1 X141.538 Y117.291 E7.35931
G1 X142.009 Y117.168 E7.37969
G1 X142.496 Y117.126 E7.40013
G1 X142.990 Y117.168 E7.42089
G1 X143.462 Y117.292 E7.44133
G1 X143.906 Y117.493 E7.46174
G1 X144.310 Y117.767 E7.48215
G1 X144.660 Y118.104 E7.50252
G1 X144.945 Y118.489 E7.52257
G1 X145.165 Y118.924 E7.54294
G1 X145.309 Y119.390 E7.56338
G1 X145.372 Y119.882 E7.58415
G1 X145.350 Y120.370 E7.60459
G1 X145.247 Y120.846 E7.62496
G1 X145.068 Y121.290 E7.64501
G1 X144.814 Y121.705 E7.66539
G1 X144.492 Y122.072 E7.68579
G1 X144.113 Y122.379 E7.70623
G1 X143.680 Y122.621 E7.72700
G1 X143.219 Y122.783 E7.74744
G1 X142.739 Y122.864 E7.76785
G1 X142.251 Y122.863 E7.78826
G1 X141.772 Y122.780 E7.80863
G1 X141.319 Y122.621 E7.82871
G1 X140.887 Y122.379 E7.84944
G1 X140.508 Y122.072 E7.86988
G1 X140.186 Y121.705 E7.89029
G1 X139.932 Y121.290 E7.91067
G1 X139.753 Y120.846 E7.93071
G1 X139.650 Y120.370 E7.95109
G1 X139.628 Y119.882 E7.97153
G1 X139.691 Y119.392 E7.99220
G1 F3840
G1 X139.835 Y118.924 E7.70096
G1 F3840
G1 X140.055 Y118.489 E7.41151
G1 F3840
G1 X140.346 Y118.097 E7.12205
G1 F3840
G1 X140.698 Y117.761 E6.83259
G1 F3840
G1 X141.102 Y117.489 E6.54359
G1 F3840
G1 X141.538 Y117.291 E6.25924
G1 F3840
G1 X142.009 Y117.168 E5.97024
G1 F3840
G1 X142.496 Y117.126 E5.68033
G1 F3840
G1 X142.990 Y117.168 E5.38578
G1 F3840
G1 X143.462 Y117.292 E5.09586
G1 F3840
G1 X143.906 Y117.493 E4.80641
G1 F3840
G1 X144.310 Y117.767 E4.51695
G1 F3840
G1 X144.660 Y118.104 E4.22794
G1 F3840
G1 X144.945 Y118.489 E3.94359
G1 F3840
G1 X145.165 Y118.924 E3.65460
G1 F3840
G1 X145.309 Y119.390 E3.36469
G1 F3840
G1 X145.372 Y119.882 E3.07011
G1 F3840
G1 X145.350 Y120.370 E2.78021
G1 F3840
G1 X145.247 Y120.846 E2.49121
G1 F3840
G1 X145.122 Y121.157 E2.29220
G1 E1.99220 F2400.00000
G92 E0
G1 X142.317 Y52.193 F4800.000
G1 E6.00000 F2400.00000
G1 F1800
G1 X141.949 Y52.131 E6.01562
G1 X141.597 Y52.007 E6.03125
G1 X141.265 Y51.821 E6.04718
G1 X140.975 Y51.586 E6.06281
G1 X140.728 Y51.305 E6.07844
G1 X140.533 Y50.987 E6.09405
G1 X140.397 Y50.648 E6.10937
G1 X140.318 Y50.283 E6.12499
G1 X140.301 Y49.910 E6.14062
G1 X140.350 Y49.533 E6.15655
G1 X140.460 Y49.176 E6.17218
G1 X140.628 Y48.843 E6.18781
G1 X140.851 Y48.543 E6.20343
G1 X141.121 Y48.285 E6.21905
G1 X141.430 Y48.077 E6.23468
G1 X141.770 Y47.924 E6.25030
G1 X142.124 Y47.832 E6.26561
G1 X142.496 Y47.799 E6.28123
G1 X142.876 Y47.832 E6.29717
G1 X143.237 Y47.926 E6.31280
G1 X143.577 Y48.081 E6.32842
G1 X143.885 Y48.290 E6.34405
G1 X144.154 Y48.549 E6.35966
G1 X144.372 Y48.843 E6.37498
G1 X144.540 Y49.176 E6.39059
G1 X144.650 Y49.533 E6.40623
G1 X144.699 Y49.910 E6.42216
G1 X144.682 Y50.283 E6.43779
G1 X144.603 Y50.648 E6.45341
G1 X144.467 Y50.987 E6.46872
G1 X144.272 Y51.305 E6.48434
G1 X144.025 Y51.586 E6.49996
G1 X143.735 Y51.821 E6.51559
