; generated by Slic3r 1.3.0 on 2021-05-05 at 19:04:24

; external perimeters extrusion width = 0.44mm (6.76mm^3/s)
; perimeters extrusion width = 0.48mm (7.54mm^3/s)
; infill extrusion width = 0.48mm (6.28mm^3/s)
; solid infill extrusion width = 0.48mm (3.77mm^3/s)
; top infill extrusion width = 0.40mm (7.05mm^3/s)
; support material extrusion width = 0.44mm (7.89mm^3/s)

M107
M190 S100 ; set bed temperature and wait for it to be reached
M104 S240 ; set temperature
G28 ; home all axes
G1 Z5 F5000 ; lift nozzle

; Filament gcode

M109 S240 ; set temperature and wait for it to be reached
G21 ; set units to millimeters
G90 ; use absolute coordinates
M82 ; use absolute distances for extrusion
G92 E0
G1 E-6.00000 F2400.00000
G92 E0
G1 Z0.300 F6000.000
G1 X68.822 Y69.544 F6000.000
G1 E6.00000 F2400.00000
G1 F1800
G1 X71.000 Y68.829 E6.09596
G1 X99.000 Y68.829 E7.26805
G1 X100.656 Y69.223 E7.33930
G1 X101.956 Y70.322 E7.41055
G1 X102.671 Y72.500 E7.50651
G1 X102.671 Y97.500 E8.55302
G1 X102.277 Y99.156 E8.62427
G1 X101.178 Y100.456 E8.69551
G1 X99.000 Y101.171 E8.79148
G1 X71.000 Y101.171 E9.96356
G1 X69.344 Y100.777 E10.03481
G1 X68.044 Y99.678 E10.10606
G1 X67.329 Y97.500 E10.20202
G1 X67.329 Y72.500 E11.24853
G1 X67.723 Y70.844 E11.31978
G1 X68.783 Y69.590 E11.38852
G1 X69.147 Y69.726 F6000.000
G1 F1800
G1 X71.000 Y69.164 E11.46956
G1 X99.000 Y69.164 E12.64165
G1 X100.573 Y69.558 E12.70951
G1 X101.774 Y70.647 E12.77738
G1 X102.336 Y72.500 E12.85842
G1 X102.336 Y97.500 E13.90493
G1 X101.942 Y99.073 E13.97280
G1 X100.853 Y100.274 E14.04066
G1 X99.000 Y100.836 E14.12170
G1 X71.000 Y100.836 E15.29379
G1 X69.427 Y100.442 E15.36166
G1 X68.226 Y99.353 E15.42953
G1 X67.664 Y97.500 E15.51057
G1 X67.664 Y72.500 E16.55707
G1 X68.058 Y70.927 E16.62494
G1 X69.107 Y69.771 E16.69030
G1 F4800
G1 X71.000 Y69.164 E15.74614
G1 F4800
G1 X81.012 Y69.164 E10.99030
G1 E10.69030 F2400.00000
G92 E0
G1 X98.129 Y96.629 F6000.000
G1 E6.00000 F2400.00000
G1 F1800
G1 X95.361 Y96.629 E6.11586
G1 X93.871 Y95.139 E6.20405
G1 X93.871 Y91.481 E6.35717
G1 X93.840 Y90.747 E6.38795
G1 X93.739 Y89.971 E6.42069
G1 X93.578 Y89.234 E6.45225
G1 X93.351 Y88.505 E6.48420
G1 X93.067 Y87.807 E6.51577
G1 X92.892 Y87.447 E6.53253
G1 X92.524 Y86.800 E6.56370
G1 X92.304 Y86.465 E6.58045
G1 X91.867 Y85.884 E6.61089
G1 X91.348 Y85.302 E6.64355
G1 X91.061 Y85.021 E6.66036
G1 X90.489 Y84.530 E6.69191
G1 X89.900 Y84.105 E6.72233
G1 X89.539 Y83.877 E6.74019
G1 X88.882 Y83.523 E6.77142
G1 X88.527 Y83.360 E6.78779
G1 X88.165 Y83.212 E6.80417
G1 X87.458 Y82.976 E6.83534
G1 X87.071 Y82.874 E6.85210
G1 X86.332 Y82.729 E6.88364
G1 X85.618 Y82.651 E6.91369
G1 X85.184 Y82.630 E6.93190
G1 X84.474 Y82.645 E6.96163
G1 X83.660 Y82.730 E6.99588
G1 X82.955 Y82.868 E7.02594
G1 X82.188 Y83.085 E7.05934
G1 X81.516 Y83.342 E7.08944
G1 X80.779 Y83.697 E7.12369
G1 X80.161 Y84.064 E7.15376
G1 X79.513 Y84.529 E7.18715
G1 X78.967 Y84.997 E7.21726
G1 X78.655 Y85.300 E7.23547
G1 X78.174 Y85.835 E7.26558
G1 X77.914 Y86.162 E7.28304
G1 X77.685 Y86.480 E7.29947
G1 X77.290 Y87.111 E7.33064
G1 X77.100 Y87.463 E7.34739
G1 X76.800 Y88.116 E7.37745
G1 X76.528 Y88.866 E7.41085
G1 X76.344 Y89.561 E7.44095
G1 X76.201 Y90.367 E7.47522
G1 X76.136 Y91.118 E7.50675
G1 X76.129 Y95.139 E7.67507
G1 X74.639 Y96.629 E7.76329
G1 X71.871 Y96.629 E7.87916
G1 X71.871 Y73.371 E8.85273
G1 X98.129 Y73.371 E9.95187
G1 X98.129 Y96.569 E10.92293
G1 X98.464 Y96.964 F6000.000
G1 F1800
G1 X95.222 Y96.964 E11.05866
G1 X93.536 Y95.278 E11.15849
G1 X93.536 Y91.488 E11.31712
G1 X93.505 Y90.772 E11.34714
G1 X93.409 Y90.032 E11.37837
G1 X93.253 Y89.320 E11.40888
G1 X93.035 Y88.619 E11.43962
G1 X92.760 Y87.944 E11.47013
G1 X92.595 Y87.603 E11.48598
G1 X92.238 Y86.975 E11.51625
G1 X92.030 Y86.658 E11.53210
G1 X91.608 Y86.097 E11.56149
G1 X91.105 Y85.534 E11.59309
G1 X90.834 Y85.269 E11.60897
G1 X90.281 Y84.794 E11.63947
G1 X89.712 Y84.383 E11.66886
G1 X89.369 Y84.167 E11.68580
G1 X88.732 Y83.823 E11.71610
G1 X88.393 Y83.668 E11.73172
G1 X88.048 Y83.527 E11.74733
G1 X87.362 Y83.298 E11.77760
G1 X86.996 Y83.201 E11.79346
G1 X86.281 Y83.061 E11.82395
G1 X85.592 Y82.985 E11.85297
G1 X85.179 Y82.966 E11.87027
G1 X84.491 Y82.980 E11.89909
G1 X83.714 Y83.062 E11.93180
G1 X83.033 Y83.194 E11.96083
G1 X82.293 Y83.404 E11.99301
G1 X81.645 Y83.652 E12.02206
G1 X80.941 Y83.991 E12.05477
G1 X80.345 Y84.346 E12.08380
G1 X79.720 Y84.793 E12.11599
G1 X79.193 Y85.245 E12.14504
G1 X78.896 Y85.533 E12.16234
G1 X78.430 Y86.051 E12.19153
G1 X78.182 Y86.364 E12.20824
G1 X77.964 Y86.667 E12.22389
G1 X77.580 Y87.280 E12.25415
G1 X77.400 Y87.613 E12.27000
G1 X77.110 Y88.243 E12.29903
G1 X76.849 Y88.966 E12.33121
G1 X76.671 Y89.637 E12.36027
G1 X76.534 Y90.407 E12.39299
G1 X76.472 Y91.132 E12.42347
G1 X76.465 Y95.278 E12.59700
G1 X74.778 Y96.964 E12.69685
G1 X71.536 Y96.964 E12.83258
G1 X71.536 Y73.036 E13.83425
G1 X98.464 Y73.036 E14.96150
G1 X98.464 Y96.904 E15.96065
G1 X98.800 Y97.300 F6000.000
G1 F1800
G1 X95.083 Y97.300 E16.11625
G1 X93.200 Y95.417 E16.22771
G1 X93.200 Y91.496 E16.39187
G1 X93.170 Y90.797 E16.42113
G1 X93.079 Y90.093 E16.45085
G1 X92.928 Y89.406 E16.48029
G1 X92.719 Y88.732 E16.50983
G1 X92.453 Y88.081 E16.53927
G1 X92.297 Y87.760 E16.55423
G1 X91.951 Y87.150 E16.58358
G1 X91.755 Y86.851 E16.59853
G1 X91.348 Y86.310 E16.62688
G1 X90.862 Y85.766 E16.65741
G1 X90.607 Y85.516 E16.67237
G1 X90.073 Y85.058 E16.70182
G1 X89.524 Y84.661 E16.73017
G1 X89.200 Y84.457 E16.74620
G1 X88.583 Y84.124 E16.77557
G1 X87.931 Y83.842 E16.80529
G1 X87.266 Y83.619 E16.83464
G1 X86.921 Y83.528 E16.84959
G1 X86.231 Y83.393 E16.87903
G1 X85.566 Y83.320 E16.90702
G1 X85.175 Y83.302 E16.92341
G1 X84.508 Y83.315 E16.95133
G1 X84.120 Y83.347 E16.96763
G1 X83.768 Y83.393 E16.98251
G1 X83.111 Y83.521 E17.01050
G1 X82.399 Y83.723 E17.04147
G1 X81.774 Y83.962 E17.06947
G1 X81.104 Y84.285 E17.10064
G1 X80.529 Y84.627 E17.12864
G1 X79.927 Y85.057 E17.15961
G1 X79.419 Y85.493 E17.18761
G1 X79.138 Y85.766 E17.20400
G1 X78.687 Y86.268 E17.23228
G1 X78.243 Y86.855 E17.26309
G1 X77.870 Y87.449 E17.29245
G1 X77.701 Y87.763 E17.30740
G1 X77.421 Y88.371 E17.33539
G1 X77.169 Y89.066 E17.36636
G1 X76.998 Y89.713 E17.39436
G1 X76.921 Y90.095 E17.41067
G1 X76.868 Y90.446 E17.42555
G1 X76.807 Y91.147 E17.45499
G1 X76.800 Y95.417 E17.63373
G1 X74.917 Y97.300 E17.74520
G1 X71.200 Y97.300 E17.90080
G1 X71.200 Y72.700 E18.93056
G1 X98.800 Y72.700 E20.08591
G1 X98.800 Y97.240 E21.11316
G1 X98.412 Y97.204 F6000.000
G1 X97.639 Y96.447 F6000.000
G1 F1800
G1 X97.947 Y96.139 E21.13152
G1 X97.947 Y95.662 E21.15159
G1 X97.162 Y96.447 E21.19832
G1 X96.685 Y96.447 E21.21838
G1 X97.947 Y95.185 E21.29349
G1 X97.947 Y94.708 E21.31355
G1 X96.208 Y96.447 E21.41703
G1 X95.731 Y96.447 E21.43710
G1 X97.947 Y94.231 E21.56895
G1 X97.947 Y93.754 E21.58901
G1 X95.300 Y96.402 E21.74651
G1 X95.061 Y96.163 E21.76070
G1 X97.947 Y93.277 E21.93239
G1 X97.947 Y92.800 E21.95245
G1 X94.823 Y95.925 E22.13833
G1 X94.584 Y95.686 E22.15251
G1 X97.947 Y92.323 E22.35257
G1 X97.947 Y91.846 E22.37264
G1 X94.346 Y95.448 E22.58689
G1 X94.107 Y95.209 E22.60107
G1 X97.947 Y91.369 E22.82951
G1 X97.947 Y90.892 E22.84957
G1 X94.053 Y94.787 E23.08127
G1 X94.053 Y94.310 E23.10133
G1 X97.947 Y90.415 E23.33303
G1 X97.947 Y89.938 E23.35309
G1 X94.053 Y93.833 E23.58479
G1 X94.053 Y93.356 E23.60485
G1 X97.947 Y89.461 E23.83655
G1 X97.947 Y88.984 E23.85661
G1 X94.053 Y92.879 E24.08831
G1 X94.053 Y92.402 E24.10837
G1 X97.947 Y88.508 E24.34007
G1 X97.947 Y88.031 E24.36013
G1 X94.053 Y91.925 E24.59183
G1 X94.045 Y91.456 E24.61158
G1 X97.947 Y87.554 E24.84372
G1 X97.947 Y87.077 E24.86378
G1 X94.025 Y90.999 E25.09709
G1 X93.980 Y90.567 E25.11536
G1 X97.947 Y86.600 E25.35135
G1 X97.947 Y86.123 E25.37141
G1 X93.926 Y90.145 E25.61067
G1 X93.846 Y89.748 E25.62770
G1 X97.947 Y85.646 E25.87171
G1 X97.947 Y85.169 E25.89177
G1 X93.760 Y89.356 E26.14087
G1 X93.651 Y88.989 E26.15700
G1 X97.947 Y84.692 E26.41261
G1 X97.947 Y84.215 E26.43267
G1 X93.538 Y88.625 E26.69500
G1 X93.405 Y88.281 E26.71051
G1 X97.947 Y83.738 E26.98074
G1 X97.947 Y83.261 E27.00080
G1 X93.267 Y87.942 E27.27925
G1 X93.117 Y87.615 E27.29439
G1 X97.947 Y82.784 E27.58174
G1 X97.947 Y82.307 E27.60181
G1 X92.953 Y87.301 E27.89891
G1 X92.780 Y86.997 E27.91362
G1 X97.947 Y81.830 E28.22100
G1 X97.947 Y81.353 E28.24107
G1 X92.603 Y86.698 E28.55899
G1 X92.413 Y86.411 E28.57347
G1 X97.947 Y80.876 E28.90269
G1 X97.947 Y80.399 E28.92276
G1 X92.208 Y86.138 E29.26416
G1 X92.004 Y85.866 E29.27849
G1 X97.947 Y79.922 E29.63207
G1 X97.947 Y79.445 E29.65213
G1 X91.782 Y85.611 E30.01892
G1 X91.557 Y85.359 E30.03313
G1 X97.947 Y78.968 E30.41330
G1 X97.947 Y78.491 E30.43337
G1 X91.324 Y85.115 E30.82737
G1 X91.080 Y84.882 E30.84156
G1 X97.947 Y78.015 E31.25010
G1 X97.947 Y77.538 E31.27016
G1 X90.823 Y84.662 E31.69396
G1 X90.567 Y84.441 E31.70818
G1 X97.947 Y77.061 E32.14724
G1 X97.947 Y76.584 E32.16730
G1 X90.292 Y84.239 E32.62272
G1 X90.015 Y84.039 E32.63709
G1 X97.947 Y76.107 E33.10899
G1 X97.947 Y75.630 E33.12906
G1 X89.727 Y83.850 E33.61809
G1 X89.427 Y83.673 E33.63274
G1 X97.947 Y75.153 E34.13959
G1 X97.947 Y74.676 E34.15966
G1 X89.117 Y83.506 E34.68494
G1 X88.804 Y83.343 E34.69982
G1 X97.947 Y74.199 E35.24376
G1 X97.947 Y73.722 E35.26382
G1 X88.476 Y83.194 E35.82728
G1 X88.137 Y83.055 E35.84267
G1 X97.640 Y73.553 E36.40798
G1 X97.163 Y73.553 E36.42804
G1 X87.780 Y82.935 E36.98620
G1 X87.423 Y82.816 E37.00206
G1 X96.686 Y73.553 E37.55311
G1 X96.209 Y73.553 E37.57317
G1 X87.047 Y82.715 E38.11823
G1 X86.651 Y82.634 E38.13522
G1 X95.732 Y73.553 E38.67543
G1 X95.255 Y73.553 E38.69549
G1 X86.252 Y82.555 E39.23106
G1 X85.824 Y82.507 E39.24918
G1 X94.778 Y73.553 E39.78184
G1 X94.301 Y73.553 E39.80191
G1 X85.388 Y82.465 E40.33211
G1 X84.926 Y82.451 E40.35157
G1 X93.824 Y73.553 E40.88092
G1 X93.347 Y73.553 E40.90098
G1 X84.439 Y82.461 E41.43092
G1 X83.919 Y82.504 E41.45285
G1 X92.870 Y73.553 E41.98533
G1 X92.393 Y73.553 E42.00539
G1 X83.379 Y82.567 E42.54166
G1 X82.786 Y82.683 E42.56705
G1 X91.916 Y73.553 E43.11018
G1 X91.439 Y73.553 E43.13025
G1 X82.128 Y82.864 E43.68416
G1 X81.927 Y82.921 E43.69294
G1 X81.388 Y83.127 E43.71721
G1 X90.962 Y73.553 E44.28676
G1 X90.486 Y73.553 E44.30682
G1 X80.499 Y83.539 E44.90091
G1 X79.823 Y83.937 E44.93390
G1 X79.093 Y84.468 E44.97187
G1 X90.009 Y73.553 E45.62122
G1 X89.532 Y73.553 E45.64129
G1 X72.053 Y91.032 E46.68109
G1 X72.053 Y90.555 E46.70115
G1 X89.055 Y73.553 E47.71257
G1 X88.578 Y73.553 E47.73264
G1 X72.053 Y90.078 E48.71569
G1 X72.053 Y89.601 E48.73575
G1 X88.101 Y73.553 E49.69043
G1 X87.624 Y73.553 E49.71049
G1 X72.053 Y89.124 E50.63680
G1 X72.053 Y88.647 E50.65686
G1 X87.147 Y73.553 E51.55480
G1 X86.670 Y73.553 E51.57486
G1 X72.053 Y88.170 E52.44442
G1 X72.053 Y87.693 E52.46448
G1 X86.193 Y73.553 E53.30567
G1 X85.716 Y73.553 E53.32573
G1 X72.053 Y87.216 E54.13854
G1 X72.053 Y86.739 E54.15861
G1 X85.239 Y73.553 E54.94305
G1 X84.762 Y73.553 E54.96311
G1 X72.053 Y86.262 E55.71918
G1 X72.053 Y85.785 E55.73924
G1 X84.285 Y73.553 E56.46693
G1 X83.808 Y73.553 E56.48700
G1 X72.053 Y85.308 E57.18632
G1 X72.053 Y84.831 E57.20638
G1 X83.331 Y73.553 E57.87733
G1 X82.854 Y73.553 E57.89739
G1 X72.053 Y84.354 E58.53997
G1 X72.053 Y83.877 E58.56003
G1 X82.377 Y73.553 E59.17423
G1 X81.900 Y73.553 E59.19429
G1 X72.053 Y83.400 E59.78012
G1 X72.053 Y82.923 E59.80018
G1 X81.423 Y73.553 E60.35764
G1 X80.946 Y73.553 E60.37770
G1 X72.053 Y82.446 E60.90678
G1 X72.053 Y81.970 E60.92685
G1 X80.470 Y73.553 E61.42756
G1 X79.993 Y73.553 E61.44762
G1 X72.053 Y81.493 E61.91996
G1 X72.053 Y81.016 E61.94002
G1 X79.516 Y73.553 E62.38398
G1 X79.039 Y73.553 E62.40404
G1 X72.053 Y80.539 E62.81963
G1 X72.053 Y80.062 E62.83970
G1 X78.562 Y73.553 E63.22691
G1 X78.085 Y73.553 E63.24698
G1 X72.053 Y79.585 E63.60582
G1 X72.053 Y79.108 E63.62588
G1 X77.608 Y73.553 E63.95635
G1 X77.131 Y73.553 E63.97642
G1 X72.053 Y78.631 E64.27851
G1 X72.053 Y78.154 E64.29858
G1 X76.654 Y73.553 E64.57230
G1 X76.177 Y73.553 E64.59236
G1 X72.053 Y77.677 E64.83771
G1 X72.053 Y77.200 E64.85778
G1 X75.700 Y73.553 E65.07475
G1 X75.223 Y73.553 E65.09482
G1 X72.053 Y76.723 E65.28342
G1 X72.053 Y76.246 E65.30348
G1 X74.746 Y73.553 E65.46372
G1 X74.269 Y73.553 E65.48378
G1 X72.053 Y75.769 E65.61564
G1 X72.053 Y75.292 E65.63570
G1 X73.792 Y73.553 E65.73918
G1 X73.315 Y73.553 E65.75925
G1 X72.053 Y74.815 E65.83436
G1 X72.053 Y74.338 E65.85442
G1 X72.838 Y73.553 E65.90116
G1 X72.361 Y73.553 E65.92122
G1 X72.053 Y73.861 E65.93958
G1 F4800
G1 X72.361 Y73.553 E65.73233
G1 F4800
G1 X72.838 Y73.553 E65.50578
G1 F4800
G1 X72.053 Y74.338 E64.97800
G1 F4800
G1 X72.053 Y74.815 E64.75144
G1 F4800
G1 X73.315 Y73.553 E63.90326
G1 F4800
G1 X73.792 Y73.553 E63.67671
G1 F4800
G1 X72.053 Y75.292 E62.50814
G1 F4800
G1 X72.053 Y75.769 E62.28159
G1 F4800
G1 X74.269 Y73.553 E60.79262
G1 F4800
G1 X74.746 Y73.553 E60.56607
G1 F4800
G1 X74.260 Y74.039 E60.23958
G1 E59.93958 F2400.00000
G92 E0
G1 X72.053 Y91.032 F6000.000
G1 E6.00000 F2400.00000
G1 F1800
G1 X72.053 Y91.509 E6.02006
G1 X77.972 Y85.590 E6.37217
G1 X77.561 Y86.139 E6.40102
G1 X77.041 Y86.997 E6.44321
G1 X72.053 Y91.986 E6.73998
G1 X72.053 Y92.462 E6.76005
G1 X76.621 Y87.894 E7.03184
G1 X76.355 Y88.637 E7.06507
G1 X72.053 Y92.939 E7.32100
G1 X72.053 Y93.416 E7.34107
G1 X76.182 Y89.286 E7.58675
G1 X76.075 Y89.871 E7.61175
G1 X72.053 Y93.893 E7.85103
G1 X72.053 Y94.370 E7.87109
G1 X76.000 Y90.423 E8.10594
G1 X75.955 Y90.945 E8.12797
G1 X72.053 Y94.847 E8.36014
G1 X72.053 Y95.324 E8.38020
G1 X75.954 Y91.423 E8.61230
G1 X75.953 Y91.900 E8.63239
G1 X72.053 Y95.801 E8.86444
G1 X72.053 Y96.278 E8.88450
G1 X75.952 Y92.378 E9.11650
G1 X75.952 Y92.856 E9.13660
G1 X72.360 Y96.447 E9.35024
G1 X72.837 Y96.447 E9.37031
G1 X75.951 Y93.334 E9.55553
G1 X75.950 Y93.812 E9.57563
G1 X73.314 Y96.447 E9.73244
G1 X73.791 Y96.447 E9.75250
G1 X75.949 Y94.289 E9.88088
G1 X75.948 Y94.767 E9.90098
G1 X74.268 Y96.447 E10.00094
G1 F4800
G1 X75.948 Y94.767 E8.87216
G1 F4800
G1 X75.949 Y94.289 E8.64522
G1 F4800
G1 X73.791 Y96.447 E7.19549
G1 F4800
G1 X73.314 Y96.447 E6.96894
G1 F4800
G1 X75.950 Y93.812 E5.19828
G1 F4800
G1 X75.951 Y93.334 E4.97134
G1 F4800
G1 X74.953 Y94.332 E4.30094
G1 E4.00094 F2400.00000
G92 E0
G1 Z0.300 F6000.000
G1 Z0.600 F6000.000
G1 X74.586 Y96.500 F6000.000
G1 X73.828 Y94.672 F6000.000
G1 X74.014 Y94.224 F6000.000
G1 X74.108 Y89.342 F6000.000
G1 X74.460 Y87.022 F6000.000
G1 X75.390 Y83.702 F6000.000
G1 X76.327 Y81.404 F6000.000
G1 X77.551 Y79.051 F6000.000
G1 X81.764 Y78.203 F6000.000
G1 X84.817 Y78.006 F6000.000
G1 X88.190 Y78.197 F6000.000
G1 X92.469 Y79.031 F6000.000
G1 X94.144 Y82.484 F6000.000
G1 X95.172 Y85.476 F6000.000
G1 X95.619 Y87.421 F6000.000
G1 X95.937 Y89.861 F6000.000
G1 X95.992 Y94.238 F6000.000
G1 X96.172 Y94.672 F6000.000
G1 X97.964 Y96.464 F6000.000
G1 E6.00000 F2400.00000
G1 F3600
G1 X95.429 Y96.464 E6.13242
G1 X94.036 Y95.071 E6.23535
G1 X94.036 Y91.478 E6.42307
G1 X94.004 Y90.734 E6.46195
G1 X93.901 Y89.943 E6.50363
G1 X93.763 Y89.299 E6.53805
G1 X93.508 Y88.454 E6.58417
G1 X93.214 Y87.731 E6.62495
G1 X92.903 Y87.121 E6.66073
G1 X92.655 Y86.698 E6.68633
G1 X92.225 Y86.072 E6.72600
G1 X91.971 Y85.749 E6.74748
G1 X91.466 Y85.187 E6.78694
G1 X91.172 Y84.900 E6.80842
G1 X90.599 Y84.407 E6.84788
G1 X90.271 Y84.160 E6.86936
G1 X89.632 Y83.740 E6.90930
G1 X89.054 Y83.426 E6.94368
G1 X88.587 Y83.206 E6.97066
G1 X87.877 Y82.934 E7.01038
G1 X87.486 Y82.812 E7.03176
G1 X86.858 Y82.658 E7.06556
G1 X86.352 Y82.565 E7.09243
