; generated by Slic3r 1.3.0 on 2021-04-24 at 14:35:52

; external perimeters extrusion width = 0.44mm (6.76mm^3/s)
; perimeters extrusion width = 0.48mm (7.54mm^3/s)
; infill extrusion width = 0.48mm (6.28mm^3/s)
; solid infill extrusion width = 0.48mm (3.77mm^3/s)
; top infill extrusion width = 0.40mm (7.05mm^3/s)
; support material extrusion width = 0.44mm (7.89mm^3/s)

M107
M190 S100 ; set bed temperature and wait for it to be reached
M104 S240 ; set temperature
G28 ; home all axes
G1 Z5 F5000 ; lift nozzle

; Filament gcode

M109 S240 ; set temperature and wait for it to be reached
G21 ; set units to millimeters
G90 ; use absolute coordinates
M82 ; use absolute distances for extrusion
G92 E0
G1 E-6.00000 F2400.00000
G92 E0
G1 Z0.300 F4800.000
G1 X61.780 Y68.131 F4800.000
G1 E6.00000 F2400.00000
G1 F1800
G1 X62.158 Y67.800 E6.02101
G1 X62.788 Y67.339 E6.05371
G1 X63.453 Y66.948 E6.08598
G1 X64.163 Y66.623 E6.11866
G1 X64.902 Y66.372 E6.15134
G1 X65.663 Y66.197 E6.18403
G1 X66.437 Y66.100 E6.21669
G1 X66.967 Y66.079 E6.23889
G1 X103.279 Y66.086 E7.75893
G1 X104.030 Y66.150 E7.79045
G1 X104.770 Y66.288 E7.82198
G1 X105.099 Y66.372 E7.83618
G1 X105.829 Y66.620 E7.86849
G1 X106.363 Y66.857 E7.89291
G1 X106.861 Y67.123 E7.91657
G1 X107.218 Y67.343 E7.93412
G1 X107.848 Y67.805 E7.96683
G1 X108.426 Y68.328 E7.99945
G1 X108.944 Y68.901 E8.03178
G1 X109.407 Y69.531 E8.06453
G1 X109.627 Y69.889 E8.08209
G1 X109.973 Y70.557 E8.11361
G1 X110.190 Y71.080 E8.13727
G1 X110.381 Y71.661 E8.16287
G1 X110.553 Y72.412 E8.19516
G1 X110.650 Y73.188 E8.22790
G1 X110.671 Y73.750 E8.25142
G1 X110.671 Y79.796 E8.50449
G1 X110.650 Y80.313 E8.52617
G1 X110.555 Y81.075 E8.55830
G1 X110.378 Y81.848 E8.59153
G1 X110.141 Y82.550 E8.62253
G1 X103.291 Y100.293 E9.41868
G1 X102.170 Y102.093 E9.50745
G1 X100.467 Y103.357 E9.59622
G1 X98.000 Y103.921 E9.70216
G1 X72.000 Y103.921 E10.79053
G1 X69.917 Y103.525 E10.87930
G1 X68.125 Y102.391 E10.96807
G1 X66.709 Y100.293 E11.07401
G1 X59.859 Y82.550 E11.87016
G1 X59.622 Y81.849 E11.90114
G1 X59.447 Y81.087 E11.93386
G1 X59.350 Y80.313 E11.96651
G1 X59.329 Y79.750 E11.99010
G1 X59.329 Y73.717 E12.24264
G1 X59.350 Y73.187 E12.26484
G1 X59.447 Y72.413 E12.29750
G1 X59.583 Y71.797 E12.32389
G1 X59.747 Y71.257 E12.34754
G1 X59.873 Y70.913 E12.36286
G1 X60.198 Y70.203 E12.39555
G1 X60.589 Y69.538 E12.42783
G1 X60.896 Y69.107 E12.45001
G1 X61.254 Y68.670 E12.47366
G1 X61.737 Y68.172 E12.50268
G1 X62.006 Y68.379 F4800.000
G1 F1800
G1 X62.370 Y68.061 E12.52293
G1 X62.972 Y67.619 E12.55419
G1 X63.607 Y67.247 E12.58501
G1 X64.285 Y66.936 E12.61625
G1 X64.992 Y66.695 E12.64748
G1 X65.719 Y66.528 E12.67872
G1 X66.459 Y66.435 E12.70993
G1 X66.969 Y66.414 E12.73130
G1 X103.263 Y66.421 E14.25058
G1 X103.541 Y66.435 E14.26225
G1 X104.281 Y66.528 E14.29347
G1 X105.009 Y66.695 E14.32472
G1 X105.707 Y66.933 E14.35559
G1 X106.219 Y67.160 E14.37905
G1 X106.689 Y67.411 E14.40133
G1 X107.035 Y67.624 E14.41833
G1 X107.637 Y68.066 E14.44959
G1 X108.189 Y68.565 E14.48077
G1 X108.684 Y69.113 E14.51165
G1 X109.126 Y69.715 E14.54295
G1 X109.339 Y70.061 E14.55996
G1 X109.670 Y70.701 E14.59010
G1 X109.874 Y71.193 E14.61238
G1 X110.057 Y71.750 E14.63695
G1 X110.222 Y72.468 E14.66780
G1 X110.315 Y73.210 E14.69908
G1 X110.336 Y73.750 E14.72171
G1 X110.335 Y79.793 E14.97467
G1 X110.315 Y80.292 E14.99555
G1 X110.222 Y81.031 E15.02675
G1 X110.055 Y81.759 E15.05801
G1 X109.828 Y82.429 E15.08764
G1 X102.977 Y100.172 E15.88379
G1 X101.881 Y101.912 E15.96987
G1 X100.208 Y103.107 E16.05595
G1 X98.000 Y103.586 E16.15052
G1 X72.000 Y103.586 E17.23889
G1 X69.982 Y103.189 E17.32497
G1 X68.264 Y102.059 E17.41105
G1 X67.023 Y100.172 E17.50562
G1 X60.172 Y82.429 E18.30177
G1 X59.945 Y81.759 E18.33139
G1 X59.778 Y81.031 E18.36265
G1 X59.685 Y80.291 E18.39386
G1 X59.664 Y79.750 E18.41654
G1 X59.664 Y73.719 E18.66901
G1 X59.685 Y73.209 E18.69038
G1 X59.778 Y72.469 E18.72159
G1 X59.909 Y71.879 E18.74689
G1 X60.063 Y71.370 E18.76916
G1 X60.185 Y71.036 E18.78406
G1 X60.496 Y70.357 E18.81530
G1 X60.870 Y69.722 E18.84614
G1 X61.166 Y69.306 E18.86749
G1 X61.503 Y68.895 E18.88977
G1 X61.962 Y68.421 E18.91740
G1 F3840
G1 X62.145 Y68.253 E18.77007
G1 F3840
G1 X62.363 Y68.066 E18.59950
G1 F3840
G1 X62.370 Y68.061 E18.59444
G1 F3840
G1 X62.556 Y67.916 E18.45405
G1 F3840
G1 X62.708 Y67.803 E18.34233
G1 F3840
G1 X62.965 Y67.624 E18.15609
G1 F3840
G1 X62.972 Y67.619 E18.15103
G1 F3840
G1 X63.150 Y67.508 E18.02627
G1 F3840
G1 X63.311 Y67.411 E17.91455
G1 F3840
G1 X63.607 Y67.247 E17.71374
G1 F3840
G1 X63.615 Y67.243 E17.70869
G1 F3840
G1 X63.781 Y67.160 E17.59849
G1 F3840
G1 X63.951 Y67.080 E17.48677
G1 F3840
G1 X64.285 Y66.936 E17.27055
G1 F3840
G1 X64.293 Y66.932 E17.26549
G1 F3840
G1 X64.443 Y66.876 E17.17076
G1 F3840
G1 X64.620 Y66.813 E17.05905
G1 F3840
G1 X64.992 Y66.695 E16.82744
G1 F3840
G1 X65.000 Y66.693 E16.82238
G1 F3840
G1 X65.129 Y66.659 E16.74303
G1 F3840
G1 X65.312 Y66.613 E16.63132
G1 F3840
G1 X65.719 Y66.528 E16.38418
G1 F3840
G1 X65.727 Y66.526 E16.37912
G1 F3840
G1 X65.834 Y66.510 E16.31530
G1 F3840
G1 X66.020 Y66.482 E16.20359
G1 F3840
G1 X66.459 Y66.435 E15.94138
G1 F3840
G1 X66.467 Y66.435 E15.93632
G1 F3840
G1 X66.549 Y66.430 E15.88757
G1 F3840
G1 X66.737 Y66.421 E15.77586
G1 F3840
G1 X66.969 Y66.414 E15.63819
G1 F3840
G1 X66.970 Y66.414 E15.63756
G1 F3840
G1 X67.000 Y66.414 E15.61974
G1 F3840
G1 X71.046 Y66.414 E13.21740
G1 E12.91740 F2400.00000
G92 E0
G1 X70.837 Y86.022 F4800.000
G1 E6.00000 F2400.00000
G1 F1800
G1 X70.728 Y85.913 E6.00692
G1 X66.980 Y85.913 E6.17386
G1 X66.448 Y85.889 E6.19758
G1 X65.834 Y85.802 E6.22520
G1 X65.392 Y85.698 E6.24544
G1 X65.086 Y85.608 E6.25964
G1 X64.516 Y85.390 E6.28683
G1 X63.970 Y85.116 E6.31402
G1 X63.454 Y84.790 E6.34121
G1 X62.973 Y84.414 E6.36840
G1 X62.683 Y84.148 E6.38595
G1 X62.336 Y83.777 E6.40858
G1 X61.960 Y83.296 E6.43577
G1 X61.634 Y82.780 E6.46295
G1 X61.360 Y82.234 E6.49014
G1 X61.142 Y81.664 E6.51733
G1 X60.981 Y81.075 E6.54452
G1 X60.929 Y80.803 E6.55687
G1 X60.861 Y80.302 E6.57940
G1 X60.838 Y79.821 E6.60086
G1 X60.840 Y73.590 E6.87841
G1 X60.861 Y73.198 E6.89588
G1 X60.923 Y72.735 E6.91671
G1 X61.066 Y72.089 E6.94618
G1 X61.304 Y71.397 E6.97875
G1 X61.569 Y70.837 E7.00639
G1 X61.889 Y70.306 E7.03400
G1 X62.334 Y69.725 E7.06662
G1 X62.603 Y69.432 E7.08433
G1 X62.974 Y69.085 E7.10696
G1 X63.456 Y68.709 E7.13414
G1 X64.086 Y68.319 E7.16718
G1 X64.750 Y68.013 E7.19974
G1 X65.232 Y67.846 E7.22245
G1 X65.834 Y67.698 E7.25009
G1 X66.448 Y67.611 E7.27771
G1 X66.930 Y67.588 E7.29920
G1 X103.006 Y67.587 E8.90618
G1 X103.552 Y67.611 E8.93052
G1 X104.325 Y67.731 E8.96536
G1 X104.769 Y67.846 E8.98579
G1 X105.353 Y68.054 E9.01341
G1 X106.029 Y68.383 E9.04691
G1 X106.444 Y68.639 E9.06862
G1 X106.782 Y68.885 E9.08724
G1 X107.026 Y69.085 E9.10128
G1 X107.396 Y69.431 E9.12387
G1 X107.865 Y69.968 E9.15562
G1 X108.111 Y70.306 E9.17425
G1 X108.367 Y70.722 E9.19599
G1 X108.514 Y71.000 E9.21002
G1 X108.737 Y71.500 E9.23441
G1 X108.904 Y71.982 E9.25712
G1 X109.052 Y72.584 E9.28474
G1 X109.120 Y73.027 E9.30471
G1 X109.160 Y73.587 E9.32971
G1 X109.163 Y79.758 E9.60460
G1 X109.148 Y80.156 E9.62234
G1 X109.120 Y80.474 E9.63654
G1 X109.052 Y80.916 E9.65648
G1 X108.858 Y81.664 E9.69091
G1 X108.696 Y82.104 E9.71180
G1 X108.515 Y82.498 E9.73110
G1 X108.366 Y82.780 E9.74530
G1 X108.110 Y83.195 E9.76705
G1 X107.737 Y83.692 E9.79469
G1 X107.398 Y84.067 E9.81723
G1 X106.942 Y84.487 E9.84486
G1 X106.546 Y84.790 E9.86707
G1 X106.030 Y85.116 E9.89424
G1 X105.748 Y85.265 E9.90844
G1 X105.353 Y85.446 E9.92779
G1 X104.769 Y85.654 E9.95541
G1 X104.166 Y85.802 E9.98306
G1 X103.552 Y85.889 E10.01070
G1 X103.020 Y85.913 E10.03441
G1 X99.272 Y85.913 E10.20135
G1 X99.163 Y86.022 E10.20827
G1 X99.163 Y89.478 E10.36218
G1 X99.272 Y89.587 E10.36910
G1 X99.724 Y89.587 E10.38923
G1 X102.163 Y92.026 E10.54284
G1 X102.163 Y99.974 E10.89690
G1 X99.724 Y102.413 E11.05050
G1 X70.276 Y102.413 E12.36228
G1 X67.837 Y99.974 E12.51589
G1 X67.837 Y92.026 E12.86995
G1 X70.276 Y89.587 E13.02355
G1 X70.728 Y89.587 E13.04368
G1 X70.837 Y89.478 E13.05060
G1 X70.837 Y86.082 E13.20183
G1 X71.195 Y85.665 F4800.000
G1 F1800
G1 X71.085 Y85.555 E13.20875
G1 X66.982 Y85.555 E13.39153
G1 X66.478 Y85.533 E13.41397
G1 X65.755 Y85.420 E13.44659
G1 X65.333 Y85.312 E13.46599
G1 X64.782 Y85.116 E13.49202
G1 X64.254 Y84.866 E13.51804
G1 X63.755 Y84.564 E13.54405
G1 X63.287 Y84.213 E13.57008
G1 X62.858 Y83.817 E13.59610
G1 X62.470 Y83.381 E13.62211
G1 X62.128 Y82.907 E13.64813
G1 X61.836 Y82.402 E13.67413
G1 X61.576 Y81.816 E13.70267
G1 X61.439 Y81.417 E13.72146
G1 X61.299 Y80.850 E13.74750
G1 X61.217 Y80.272 E13.77350
G1 X61.195 Y79.815 E13.79388
G1 X61.195 Y73.686 E14.06688
G1 X61.234 Y73.072 E14.09429
G1 X61.329 Y72.505 E14.11989
G1 X61.480 Y71.951 E14.14548
G1 X61.634 Y71.533 E14.16531
G1 X61.808 Y71.155 E14.18384
G1 X62.129 Y70.591 E14.21277
G1 X62.535 Y70.039 E14.24330
G1 X62.999 Y69.545 E14.27348
G1 X63.288 Y69.286 E14.29078
G1 X63.664 Y68.999 E14.31183
G1 X64.255 Y68.634 E14.34279
G1 X64.878 Y68.347 E14.37333
G1 X65.333 Y68.188 E14.39481
G1 X65.901 Y68.049 E14.42083
G1 X66.479 Y67.967 E14.44684
G1 X66.936 Y67.945 E14.46724
G1 X103.005 Y67.945 E16.07393
G1 X103.521 Y67.967 E16.09694
G1 X104.245 Y68.079 E16.12954
G1 X104.667 Y68.188 E16.14897
G1 X105.217 Y68.384 E16.17497
G1 X105.850 Y68.693 E16.20635
G1 X106.244 Y68.935 E16.22695
G1 X106.566 Y69.170 E16.24469
G1 X107.141 Y69.681 E16.27895
G1 X107.580 Y70.184 E16.30872
G1 X107.815 Y70.506 E16.32647
G1 X108.058 Y70.900 E16.34710
G1 X108.403 Y71.628 E16.38299
G1 X108.562 Y72.084 E16.40447
G1 X108.701 Y72.650 E16.43047
G1 X108.766 Y73.072 E16.44948
G1 X108.803 Y73.601 E16.47309
G1 X108.805 Y79.757 E16.74733
G1 X108.791 Y80.137 E16.76425
G1 X108.701 Y80.850 E16.79625
G1 X108.519 Y81.550 E16.82848
G1 X108.366 Y81.968 E16.84832
G1 X108.193 Y82.342 E16.86667
G1 X107.814 Y82.995 E16.90032
G1 X107.463 Y83.463 E16.92634
G1 X107.142 Y83.818 E16.94765
G1 X106.713 Y84.213 E16.97366
G1 X106.337 Y84.500 E16.99472
G1 X105.851 Y84.807 E17.02031
G1 X105.593 Y84.943 E17.03335
G1 X105.217 Y85.116 E17.05174
G1 X104.667 Y85.311 E17.07774
G1 X104.100 Y85.451 E17.10377
G1 X103.416 Y85.539 E17.13449
G1 X103.018 Y85.555 E17.15221
G1 X98.915 Y85.555 E17.33499
G1 X98.805 Y85.665 E17.34191
G1 X98.805 Y89.835 E17.52764
G1 X98.915 Y89.945 E17.53455
G1 X99.576 Y89.945 E17.56400
G1 X101.805 Y92.174 E17.70443
G1 X101.805 Y99.826 E18.04531
G1 X99.576 Y102.055 E18.18574
G1 X70.424 Y102.055 E19.48433
G1 X68.195 Y99.826 E19.62476
G1 X68.195 Y92.174 E19.96564
G1 X70.424 Y89.945 E20.10607
G1 X71.085 Y89.945 E20.13551
G1 X71.195 Y89.835 E20.14243
G1 X71.195 Y85.725 E20.32549
G1 X71.552 Y85.308 F4800.000
G1 F1800
G1 X71.442 Y85.198 E20.33241
G1 X66.983 Y85.198 E20.53101
G1 X66.509 Y85.177 E20.55218
G1 X65.835 Y85.072 E20.58256
G1 X65.435 Y84.969 E20.60097
G1 X65.057 Y84.839 E20.61877
G1 X64.509 Y84.595 E20.64545
G1 X64.036 Y84.321 E20.66984
G1 X63.591 Y84.000 E20.69424
G1 X63.182 Y83.637 E20.71865
G1 X62.811 Y83.234 E20.74304
G1 X62.482 Y82.796 E20.76744
G1 X62.199 Y82.327 E20.79183
G1 X61.965 Y81.832 E20.81623
G1 X61.781 Y81.316 E20.84063
G1 X61.678 Y80.915 E20.85905
G1 X61.588 Y80.383 E20.88307
G1 X61.554 Y79.883 E20.90540
G1 X61.552 Y73.692 E21.18119
G1 X61.588 Y73.117 E21.20685
G1 X61.678 Y72.585 E21.23087
G1 X61.819 Y72.065 E21.25489
G1 X61.964 Y71.669 E21.27367
G1 X62.129 Y71.311 E21.29125
G1 X62.430 Y70.784 E21.31829
G1 X62.810 Y70.268 E21.34682
G1 X63.242 Y69.806 E21.37498
G1 X63.517 Y69.560 E21.39145
G1 X63.873 Y69.289 E21.41134
G1 X64.424 Y68.949 E21.44022
G1 X64.919 Y68.714 E21.46461
G1 X65.435 Y68.531 E21.48901
G1 X65.967 Y68.400 E21.51341
G1 X66.509 Y68.323 E21.53779
G1 X66.942 Y68.302 E21.55710
G1 X103.005 Y68.302 E23.16351
G1 X103.491 Y68.323 E23.18518
G1 X104.165 Y68.428 E23.21555
G1 X104.565 Y68.531 E23.23398
G1 X105.081 Y68.714 E23.25836
G1 X105.671 Y69.002 E23.28761
G1 X106.044 Y69.231 E23.30711
G1 X106.350 Y69.454 E23.32397
G1 X106.553 Y69.620 E23.33566
G1 X106.944 Y69.992 E23.35967
G1 X107.190 Y70.267 E23.37613
G1 X107.461 Y70.623 E23.39604
G1 X107.802 Y71.175 E23.42498
G1 X108.088 Y71.804 E23.45574
G1 X108.219 Y72.185 E23.47370
G1 X108.350 Y72.717 E23.49808
G1 X108.412 Y73.117 E23.51613
G1 X108.446 Y73.615 E23.53835
G1 X108.448 Y79.757 E23.81194
G1 X108.434 Y80.118 E23.82805
G1 X108.350 Y80.783 E23.85792
G1 X108.181 Y81.436 E23.88795
G1 X108.035 Y81.832 E23.90675
G1 X107.845 Y82.240 E23.92680
G1 X107.460 Y82.879 E23.96002
G1 X107.189 Y83.234 E23.97992
G1 X106.818 Y83.637 E24.00431
G1 X106.484 Y83.939 E24.02439
G1 X106.129 Y84.210 E24.04429
G1 X105.673 Y84.497 E24.06831
G1 X105.437 Y84.622 E24.08017
G1 X104.991 Y84.821 E24.10192
G1 X104.472 Y84.995 E24.12630
G1 X104.034 Y85.100 E24.14639
G1 X103.368 Y85.184 E24.17627
G1 X103.006 Y85.198 E24.19243
G1 X98.558 Y85.198 E24.39055
G1 X98.448 Y85.308 E24.39746
G1 X98.448 Y90.192 E24.61501
G1 X98.558 Y90.302 E24.62193
G1 X99.428 Y90.302 E24.66069
G1 X101.448 Y92.322 E24.78794
G1 X101.448 Y99.678 E25.11564
G1 X99.428 Y101.698 E25.24289
G1 X70.572 Y101.698 E26.52831
G1 X68.552 Y99.678 E26.65556
G1 X68.552 Y92.322 E26.98326
G1 X70.572 Y90.302 E27.11051
G1 X71.442 Y90.302 E27.14927
G1 X71.552 Y90.192 E27.15619
G1 X71.552 Y85.368 E27.37106
G1 X71.909 Y84.951 F4800.000
G1 F1800
G1 X71.799 Y84.841 E27.37798
G1 X66.651 Y84.828 E27.60731
G1 X66.033 Y84.749 E27.63506
G1 X65.428 Y84.592 E27.66288
G1 X64.957 Y84.413 E27.68533
G1 X64.506 Y84.188 E27.70777
G1 X64.080 Y83.920 E27.73022
G1 X63.682 Y83.611 E27.75267
G1 X63.431 Y83.381 E27.76781
G1 X63.139 Y83.068 E27.78688
G1 X62.830 Y82.670 E27.80932
G1 X62.562 Y82.244 E27.83177
G1 X62.337 Y81.793 E27.85421
G1 X62.158 Y81.322 E27.87666
G1 X62.026 Y80.835 E27.89911
G1 X61.943 Y80.338 E27.92156
G1 X61.911 Y79.870 E27.94248
G1 X61.909 Y73.698 E28.21740
G1 X61.929 Y73.290 E28.23562
G1 X62.001 Y72.783 E28.25838
G1 X62.123 Y72.287 E28.28115
G1 X62.336 Y71.708 E28.30863
G1 X62.513 Y71.343 E28.32671
G1 X62.699 Y71.028 E28.34300
G1 X63.030 Y70.562 E28.36847
G1 X63.430 Y70.120 E28.39500
G1 X63.866 Y69.739 E28.42081
G1 X64.156 Y69.527 E28.43679
G1 X64.507 Y69.311 E28.45518
G1 X64.958 Y69.086 E28.47762
G1 X65.429 Y68.907 E28.50006
G1 X65.915 Y68.776 E28.52250
G1 X66.412 Y68.693 E28.54494
G1 X66.948 Y68.659 E28.56885
G1 X103.004 Y68.659 E30.17498
G1 X103.460 Y68.679 E30.19531
G1 X104.085 Y68.776 E30.22345
G1 X104.463 Y68.873 E30.24087
G1 X104.945 Y69.045 E30.26364
G1 X105.493 Y69.311 E30.29077
G1 X105.844 Y69.527 E30.30915
G1 X106.134 Y69.739 E30.32513
G1 X106.682 Y70.235 E30.35806
G1 X106.916 Y70.496 E30.37369
G1 X107.171 Y70.831 E30.39244
G1 X107.487 Y71.344 E30.41929
G1 X107.753 Y71.927 E30.44781
G1 X107.877 Y72.287 E30.46478
G1 X107.999 Y72.783 E30.48754
G1 X108.057 Y73.162 E30.50463
G1 X108.089 Y73.629 E30.52545
G1 X108.091 Y79.756 E30.79839
G1 X108.071 Y80.211 E30.81868
G1 X107.974 Y80.835 E30.84682
G1 X107.877 Y81.214 E30.86423
G1 X107.705 Y81.696 E30.88703
G1 X107.438 Y82.244 E30.91416
G1 X107.222 Y82.596 E30.93257
G1 X107.013 Y82.882 E30.94838
G1 X106.514 Y83.433 E30.98149
G1 X106.186 Y83.721 E31.00089
G1 X105.772 Y84.020 E31.02369
G1 X105.408 Y84.236 E31.04251
G1 X104.946 Y84.455 E31.06531
G1 X104.464 Y84.627 E31.08808
G1 X104.085 Y84.724 E31.10550
G1 X103.588 Y84.807 E31.12795
G1 X103.054 Y84.841 E31.15177
G1 X98.201 Y84.841 E31.36797
G1 X98.091 Y84.951 E31.37489
G1 X98.091 Y90.549 E31.62425
G1 X98.201 Y90.659 E31.63117
G1 X99.280 Y90.659 E31.67926
G1 X101.091 Y92.470 E31.79333
