; generated by Slic3r 1.3.0 on 2021-04-10 at 12:34:52

; external perimeters extrusion width = 0.44mm (6.76mm^3/s)
; perimeters extrusion width = 0.48mm (7.54mm^3/s)
; infill extrusion width = 0.48mm (6.28mm^3/s)
; solid infill extrusion width = 0.48mm (3.77mm^3/s)
; top infill extrusion width = 0.40mm (7.05mm^3/s)
; support material extrusion width = 0.44mm (7.89mm^3/s)

M107
M190 S100 ; set bed temperature and wait for it to be reached
M104 S240 ; set temperature
G28 ; home all axes
G1 Z5 F5000 ; lift nozzle

; Filament gcode

M109 S240 ; set temperature and wait for it to be reached
G21 ; set units to millimeters
G90 ; use absolute coordinates
M82 ; use absolute distances for extrusion
G92 E0
G1 E-6.00000 F2400.00000
G92 E0
G1 Z0.300 F6000.000
G1 X33.318 Y60.825 F6000.000
G1 E6.00000 F2400.00000
G1 F1800
G1 X36.665 Y59.688 E6.14798
G1 X40.000 Y59.329 E6.28838
G1 X130.000 Y59.329 E10.05581
G1 X133.513 Y59.727 E10.20379
G1 X136.846 Y60.903 E10.35177
G1 X139.832 Y62.797 E10.49975
G1 X142.317 Y65.311 E10.64773
G1 X144.175 Y68.318 E10.79571
G1 X145.312 Y71.665 E10.94369
G1 X145.671 Y75.000 E11.08409
G1 X145.671 Y95.000 E11.92130
G1 X145.273 Y98.513 E12.06928
G1 X144.097 Y101.846 E12.21726
G1 X142.203 Y104.832 E12.36524
G1 X139.689 Y107.317 E12.51322
G1 X136.682 Y109.175 E12.66120
G1 X133.335 Y110.312 E12.80918
G1 X130.000 Y110.671 E12.94958
G1 X40.000 Y110.671 E16.71701
G1 X36.487 Y110.273 E16.86499
G1 X33.154 Y109.097 E17.01297
G1 X30.168 Y107.203 E17.16095
G1 X27.683 Y104.689 E17.30893
G1 X25.825 Y101.682 E17.45691
G1 X24.688 Y98.335 E17.60489
G1 X24.329 Y95.000 E17.74529
G1 X24.329 Y75.000 E18.58250
G1 X24.727 Y71.487 E18.73048
G1 X25.903 Y68.154 E18.87846
G1 X27.797 Y65.168 E19.02644
G1 X30.311 Y62.683 E19.17442
G1 X33.267 Y60.856 E19.31989
G1 X33.632 Y61.049 F6000.000
G1 F1800
G1 X36.958 Y59.969 E19.46628
G1 X40.000 Y59.664 E19.59423
G1 X130.000 Y59.664 E23.36166
G1 X133.474 Y60.063 E23.50804
G1 X136.768 Y61.238 E23.65442
G1 X139.709 Y63.129 E23.80081
G1 X142.146 Y65.637 E23.94719
G1 X143.951 Y68.632 E24.09357
G1 X145.031 Y71.958 E24.23995
G1 X145.336 Y75.000 E24.36791
G1 X145.336 Y95.000 E25.20512
G1 X144.937 Y98.474 E25.35150
G1 X143.762 Y101.768 E25.49788
G1 X141.871 Y104.709 E25.64427
G1 X139.363 Y107.146 E25.79065
G1 X136.368 Y108.951 E25.93703
G1 X133.042 Y110.031 E26.08341
G1 X130.000 Y110.336 E26.21137
G1 X40.000 Y110.336 E29.97880
G1 X36.526 Y109.937 E30.12518
G1 X33.232 Y108.762 E30.27156
G1 X30.291 Y106.871 E30.41794
G1 X27.854 Y104.363 E30.56433
G1 X26.049 Y101.368 E30.71071
G1 X24.969 Y98.042 E30.85709
G1 X24.664 Y95.000 E30.98505
G1 X24.664 Y75.000 E31.82226
G1 X25.063 Y71.526 E31.96864
G1 X26.238 Y68.232 E32.11502
G1 X28.129 Y65.291 E32.26140
G1 X30.637 Y62.854 E32.40778
G1 X33.581 Y61.080 E32.55166
G1 X34.823 Y62.501 F6000.000
G1 F1800
G1 X135.177 Y62.501 E36.81874
G1 X142.499 Y69.823 E37.25901
G1 X142.499 Y100.177 E38.54969
G1 X135.177 Y107.499 E38.98996
G1 X34.823 Y107.499 E43.25705
G1 X27.501 Y100.177 E43.69732
G1 X27.501 Y69.823 E44.98800
G1 X34.780 Y62.543 E45.42572
G1 X34.964 Y62.842 F6000.000
G1 F1800
G1 X135.036 Y62.842 E49.68080
G1 X142.158 Y69.964 E50.10906
G1 X142.158 Y100.036 E51.38773
G1 X135.036 Y107.158 E51.81600
G1 X34.964 Y107.158 E56.07107
G1 X27.842 Y100.036 E56.49934
G1 X27.842 Y69.964 E57.77801
G1 X34.922 Y62.884 E58.20372
G1 X35.105 Y63.183 F6000.000
G1 F1800
G1 X134.895 Y63.183 E62.44679
G1 X141.817 Y70.105 E62.86305
G1 X141.817 Y99.895 E64.12971
G1 X134.895 Y106.817 E64.54596
G1 X35.105 Y106.817 E68.78903
G1 X28.183 Y99.895 E69.20529
G1 X28.183 Y70.105 E70.47195
G1 X35.063 Y63.225 E70.88566
G1 X35.246 Y63.524 F6000.000
G1 F1800
G1 X134.754 Y63.524 E75.11671
G1 X141.476 Y70.246 E75.52096
G1 X141.476 Y99.754 E76.77561
G1 X134.754 Y106.476 E77.17986
G1 X35.246 Y106.476 E81.41092
G1 X28.524 Y99.754 E81.81517
G1 X28.524 Y70.246 E83.06982
G1 X35.204 Y63.566 E83.47152
G1 X35.388 Y63.865 F6000.000
G1 F1800
G1 X134.612 Y63.865 E87.69057
G1 X141.135 Y70.388 E88.08281
G1 X141.135 Y99.612 E89.32545
G1 X134.612 Y106.135 E89.71769
G1 X35.388 Y106.135 E93.93674
G1 X28.865 Y99.612 E94.32898
G1 X28.865 Y70.388 E95.57163
G1 X35.345 Y63.907 E95.96132
G1 X35.529 Y64.206 F6000.000
G1 F1800
G1 X134.471 Y64.206 E100.16836
G1 X140.794 Y70.529 E100.54859
G1 X140.794 Y99.471 E101.77922
G1 X134.471 Y105.794 E102.15946
G1 X35.529 Y105.794 E106.36650
G1 X29.206 Y99.471 E106.74673
G1 X29.206 Y70.529 E107.97736
G1 X35.486 Y64.248 E108.35505
G1 X35.670 Y64.546 F6000.000
G1 F1800
G1 X134.330 Y64.546 E112.55008
G1 X140.454 Y70.670 E112.91830
G1 X140.454 Y99.330 E114.13693
G1 X134.330 Y105.454 E114.50515
G1 X35.670 Y105.454 E118.70018
G1 X29.546 Y99.330 E119.06841
G1 X29.546 Y70.670 E120.28704
G1 X35.628 Y64.589 E120.65271
G1 X35.811 Y64.887 F6000.000
G1 F1800
G1 X134.189 Y64.887 E124.83573
G1 X140.113 Y70.811 E125.19195
G1 X140.113 Y99.189 E126.39857
G1 X134.189 Y105.113 E126.75478
G1 X35.811 Y105.113 E130.93780
G1 X29.887 Y99.189 E131.29402
G1 X29.887 Y70.811 E132.50064
G1 X35.769 Y64.930 E132.85430
G1 X35.952 Y65.228 F6000.000
G1 F1800
G1 X134.048 Y65.228 E137.02532
G1 X139.772 Y70.952 E137.36953
G1 X139.772 Y99.048 E138.56414
G1 X134.048 Y104.772 E138.90834
G1 X35.952 Y104.772 E143.07936
G1 X30.228 Y99.048 E143.42356
G1 X30.228 Y70.952 E144.61817
G1 X35.910 Y65.271 E144.95983
G1 X36.094 Y65.569 F6000.000
G1 F1800
G1 X133.906 Y65.569 E149.11884
G1 X139.431 Y71.094 E149.45104
G1 X139.431 Y98.906 E150.63364
G1 X133.906 Y104.431 E150.96584
G1 X36.094 Y104.431 E155.12484
G1 X30.569 Y98.906 E155.45704
G1 X30.569 Y71.094 E156.63964
G1 X36.051 Y65.612 E156.96929
G1 X36.235 Y65.910 F6000.000
G1 F1800
G1 X133.765 Y65.910 E161.11629
G1 X139.090 Y71.235 E161.43648
G1 X139.090 Y98.765 E162.60707
G1 X133.765 Y104.090 E162.92726
G1 X36.235 Y104.090 E167.07426
G1 X30.910 Y98.765 E167.39445
G1 X30.910 Y71.235 E168.56504
G1 X36.192 Y65.952 E168.88268
G1 X36.376 Y66.251 F6000.000
G1 F1800
G1 X133.624 Y66.251 E173.01767
G1 X138.749 Y71.376 E173.32585
G1 X138.749 Y98.624 E174.48444
G1 X133.624 Y103.749 E174.79262
G1 X36.376 Y103.749 E178.92761
G1 X31.251 Y98.624 E179.23579
G1 X31.251 Y71.376 E180.39438
G1 X36.334 Y66.293 E180.70001
G1 X36.517 Y66.592 F6000.000
G1 F1800
G1 X133.483 Y66.592 E184.82299
G1 X138.408 Y71.517 E185.11916
G1 X138.408 Y98.483 E186.26574
G1 X133.483 Y103.408 E186.56191
G1 X36.517 Y103.408 E190.68489
G1 X31.592 Y98.483 E190.98107
G1 X31.592 Y71.517 E192.12764
G1 X36.475 Y66.634 E192.42126
G1 X36.658 Y66.933 F6000.000
G1 F1800
G1 X133.342 Y66.933 E196.53224
G1 X138.067 Y71.658 E196.81640
G1 X138.067 Y98.342 E197.95097
G1 X133.342 Y103.067 E198.23513
G1 X36.658 Y103.067 E202.34611
G1 X31.933 Y98.342 E202.63027
G1 X31.933 Y71.658 E203.76484
G1 X36.616 Y66.975 E204.04645
G1 X36.800 Y67.274 F6000.000
G1 F1800
G1 X133.200 Y67.274 E208.14542
G1 X137.726 Y71.800 E208.41757
G1 X137.726 Y98.200 E209.54013
G1 X133.200 Y102.726 E209.81229
G1 X36.800 Y102.726 E213.91125
G1 X32.274 Y98.200 E214.18341
G1 X32.274 Y71.800 E215.30597
G1 X36.757 Y67.316 E215.57558
G1 X36.941 Y67.615 F6000.000
G1 F1800
G1 X133.059 Y67.615 E219.66253
G1 X137.385 Y71.941 E219.92268
G1 X137.385 Y98.059 E221.03323
G1 X133.059 Y102.385 E221.29338
G1 X36.941 Y102.385 E225.38033
G1 X32.615 Y98.059 E225.64048
G1 X32.615 Y71.941 E226.75103
G1 X36.898 Y67.657 E227.00863
G1 X37.082 Y67.956 F6000.000
G1 F1800
G1 X132.918 Y67.956 E231.08358
G1 X137.044 Y72.082 E231.33172
G1 X137.044 Y97.918 E232.43026
G1 X132.918 Y102.044 E232.67840
G1 X37.082 Y102.044 E236.75335
G1 X32.956 Y97.918 E237.00149
G1 X32.956 Y72.082 E238.10003
G1 X37.040 Y67.998 E238.34562
G1 X37.223 Y68.296 F6000.000
G1 F1800
G1 X132.777 Y68.296 E242.40855
G1 X136.704 Y72.223 E242.64469
G1 X136.704 Y97.777 E243.73122
G1 X132.777 Y101.704 E243.96735
G1 X37.223 Y101.704 E248.03029
G1 X33.296 Y97.777 E248.26642
G1 X33.296 Y72.223 E249.35296
G1 X37.181 Y68.339 E249.58654
G1 X37.364 Y68.637 F6000.000
G1 F1800
G1 X132.636 Y68.637 E253.63747
G1 X136.363 Y72.364 E253.86159
G1 X136.363 Y97.636 E254.93611
G1 X132.636 Y101.363 E255.16024
G1 X37.364 Y101.363 E259.21117
G1 X33.637 Y97.636 E259.43529
G1 X33.637 Y72.364 E260.50982
G1 X37.322 Y68.680 E260.73139
G1 X37.506 Y68.978 F6000.000
G1 F1800
G1 X132.494 Y68.978 E264.77031
G1 X136.022 Y72.506 E264.98242
G1 X136.022 Y97.494 E266.04494
G1 X132.494 Y101.022 E266.25706
G1 X37.506 Y101.022 E270.29598
G1 X33.978 Y97.494 E270.50809
G1 X33.978 Y72.506 E271.57061
G1 X37.463 Y69.021 E271.78017
G1 X37.647 Y69.319 F6000.000
G1 F1800
G1 X132.353 Y69.319 E275.80708
G1 X135.681 Y72.647 E276.00719
G1 X135.681 Y97.353 E277.05770
G1 X132.353 Y100.681 E277.25781
G1 X37.647 Y100.681 E281.28472
G1 X34.319 Y97.353 E281.48483
G1 X34.319 Y72.647 E282.53533
G1 X37.604 Y69.362 E282.73289
G1 X37.788 Y69.660 F6000.000
G1 F1800
G1 X132.212 Y69.660 E286.74779
G1 X135.340 Y72.788 E286.93589
G1 X135.340 Y97.212 E287.97439
G1 X132.212 Y100.340 E288.16249
G1 X37.788 Y100.340 E292.17739
G1 X34.660 Y97.212 E292.36549
G1 X34.660 Y72.788 E293.40399
G1 X37.746 Y69.702 E293.58954
G1 X37.929 Y70.001 F6000.000
G1 F1800
G1 X132.071 Y70.001 E297.59243
G1 X134.999 Y72.929 E297.76852
G1 X134.999 Y97.071 E298.79502
G1 X132.071 Y99.999 E298.97110
G1 X37.929 Y99.999 E302.97400
G1 X35.001 Y97.071 E303.15009
G1 X35.001 Y72.929 E304.17658
G1 X37.887 Y70.043 E304.35012
G1 X38.071 Y70.342 F6000.000
G1 F1800
G1 X131.929 Y70.342 E308.34101
G1 X134.658 Y73.071 E308.50509
G1 X134.658 Y96.929 E309.51957
G1 X131.929 Y99.658 E309.68365
G1 X38.071 Y99.658 E313.67454
G1 X35.342 Y96.929 E313.83862
G1 X35.342 Y73.071 E314.85310
G1 X38.028 Y70.384 E315.01463
G1 X38.212 Y70.683 F6000.000
G1 F1800
G1 X131.788 Y70.683 E318.99351
G1 X134.317 Y73.212 E319.14559
G1 X134.317 Y96.788 E320.14806
G1 X131.788 Y99.317 E320.30013
G1 X38.212 Y99.317 E324.27901
G1 X35.683 Y96.788 E324.43108
G1 X35.683 Y73.212 E325.43356
G1 X38.169 Y70.725 E325.58308
G1 X38.353 Y71.024 F6000.000
G1 F1800
G1 X131.647 Y71.024 E329.54995
G1 X133.976 Y73.353 E329.69002
G1 X133.976 Y96.647 E330.68048
G1 X131.647 Y98.976 E330.82055
G1 X38.353 Y98.976 E334.78742
G1 X36.024 Y96.647 E334.92748
G1 X36.024 Y73.353 E335.91795
G1 X38.311 Y71.066 E336.05546
G1 X38.494 Y71.365 F6000.000
G1 F1800
G1 X131.506 Y71.365 E340.01032
G1 X133.635 Y73.494 E340.13838
G1 X133.635 Y96.506 E341.11684
G1 X131.506 Y98.635 E341.24489
G1 X38.494 Y98.635 E345.19975
G1 X36.365 Y96.506 E345.32781
G1 X36.365 Y73.494 E346.30627
G1 X38.452 Y71.407 E346.43177
G1 X38.635 Y71.706 F6000.000
G1 F1800
G1 X131.365 Y71.706 E350.37462
G1 X133.294 Y73.635 E350.49067
G1 X133.294 Y96.365 E351.45712
G1 X131.365 Y98.294 E351.57317
G1 X38.635 Y98.294 E355.51602
G1 X36.706 Y96.365 E355.63207
G1 X36.706 Y73.635 E356.59852
G1 X38.593 Y71.748 E356.71202
G1 X38.777 Y72.046 F6000.000
G1 F1800
G1 X131.223 Y72.046 E360.64286
G1 X132.954 Y73.777 E360.74690
G1 X132.954 Y96.223 E361.70134
G1 X131.223 Y97.954 E361.80538
G1 X38.777 Y97.954 E365.73622
G1 X37.046 Y96.223 E365.84026
G1 X37.046 Y73.777 E366.79470
G1 X38.734 Y72.089 E366.89619
G1 X38.918 Y72.387 F6000.000
G1 F1800
G1 X131.082 Y72.387 E370.81503
G1 X132.613 Y73.918 E370.90706
G1 X132.613 Y96.082 E371.84949
G1 X131.082 Y97.613 E371.94152
G1 X38.918 Y97.613 E375.86036
G1 X37.387 Y96.082 E375.95239
G1 X37.387 Y73.918 E376.89482
G1 X38.875 Y72.430 E376.98430
G1 X39.059 Y72.728 F6000.000
G1 F1800
G1 X130.941 Y72.728 E380.89113
G1 X132.272 Y74.059 E380.97115
G1 X132.272 Y95.941 E381.90158
G1 X130.941 Y97.272 E381.98160
G1 X39.059 Y97.272 E385.88843
G1 X37.728 Y95.941 E385.96845
G1 X37.728 Y74.059 E386.89887
G1 X39.017 Y72.771 E386.97634
G1 X39.200 Y73.069 F6000.000
G1 F1800
G1 X130.800 Y73.069 E390.87116
G1 X131.931 Y74.200 E390.93918
G1 X131.931 Y95.800 E391.85759
G1 X130.800 Y96.931 E391.92561
G1 X39.200 Y96.931 E395.82042
G1 X38.069 Y95.800 E395.88844
G1 X38.069 Y74.200 E396.80685
G1 X39.158 Y73.112 E396.87232
G1 X39.341 Y73.410 F6000.000
G1 F1800
G1 X130.659 Y73.410 E400.75513
G1 X131.590 Y74.341 E400.81113
G1 X131.590 Y95.659 E401.71754
G1 X130.659 Y96.590 E401.77355
G1 X39.341 Y96.590 E405.65636
G1 X38.410 Y95.659 E405.71236
G1 X38.410 Y74.341 E406.61877
G1 X39.299 Y73.452 E406.67222
G1 X39.483 Y73.751 F6000.000
G1 F1800
G1 X130.517 Y73.751 E410.54303
G1 X131.249 Y74.483 E410.58702
G1 X131.249 Y95.517 E411.48142
G1 X130.517 Y96.249 E411.52542
G1 X39.483 Y96.249 E415.39622
G1 X38.751 Y95.517 E415.44022
G1 X38.751 Y74.483 E416.33462
G1 X39.440 Y73.793 E416.37606
G1 X39.624 Y74.092 F6000.000
G1 F1800
G1 X130.376 Y74.092 E420.23486
G1 X130.908 Y74.624 E420.26684
G1 X130.908 Y95.376 E421.14923
G1 X130.376 Y95.908 E421.18122
G1 X39.624 Y95.908 E425.04002
G1 X39.092 Y95.376 E425.07201
G1 X39.092 Y74.624 E425.95440
G1 X39.581 Y74.134 E425.98383
G1 X39.765 Y74.433 F6000.000
G1 F1800
G1 X130.235 Y74.433 E429.83062
G1 X130.567 Y74.765 E429.85060
G1 X130.567 Y95.235 E430.72098
G1 X130.235 Y95.567 E430.74096
G1 X39.765 Y95.567 E434.58775
G1 X39.433 Y95.235 E434.60773
G1 X39.433 Y74.765 E435.47811
G1 X39.723 Y74.475 E435.49554
G1 X39.906 Y74.774 F6000.000
G1 F1800
G1 X130.094 Y74.774 E439.33031
G1 X130.226 Y74.906 E439.33829
G1 X130.226 Y95.094 E440.19666
G1 X130.094 Y95.226 E440.20463
G1 X39.906 Y95.226 E444.03941
G1 X39.774 Y95.094 E444.04738
G1 X39.774 Y74.906 E444.90575
G1 X39.864 Y74.816 E444.91117
G1 F4800
G1 X51.864 Y74.810 E439.21117
G1 E438.91117 F2400.00000
G92 E0
G1 X40.200 Y94.800 F6000.000
G1 E6.00000 F2400.00000
G1 F1800
G1 X40.200 Y75.200 E6.82046
G1 X129.800 Y75.200 E10.57115
G1 X129.800 Y94.800 E11.39161
G1 X40.260 Y94.800 E15.13978
G1 X40.375 Y94.440 F6000.000
G1 X40.536 Y94.464 F6000.000
G1 F1800
G1 X40.536 Y75.536 E15.93214
G1 X129.464 Y75.536 E19.65473
G1 X129.464 Y94.464 E20.44709
G1 X40.596 Y94.464 E24.16717
G1 X40.871 Y94.129 F6000.000
G1 F1800
G1 X40.871 Y75.871 E24.93143
G1 X129.129 Y75.871 E28.62592
G1 X129.129 Y94.129 E29.39018
G1 X40.931 Y94.129 E33.08216
G1 F4800
G1 X40.892 Y82.129 E27.38216
G1 E27.08216 F2400.00000
G92 E0
G1 X48.094 Y86.906 F6000.000
G1 E6.00000 F2400.00000
G1 F1800
G1 X47.979 Y86.791 E6.00683
G1 X47.778 Y86.534 E6.02048
G1 X47.609 Y86.255 E6.03413
G1 X47.475 Y85.958 E6.04778
G1 X47.378 Y85.646 E6.06143
G1 X47.319 Y85.325 E6.07508
G1 X47.300 Y85.000 E6.08873
G1 X47.319 Y84.675 E6.10238
G1 X47.378 Y84.354 E6.11603
G1 X47.475 Y84.042 E6.12968
G1 X47.609 Y83.745 E6.14333
G1 X47.774 Y83.472 E6.15667
G1 X47.979 Y83.210 E6.17061
G1 X48.209 Y82.979 E6.18428
G1 X48.460 Y82.782 E6.19762
G1 X48.745 Y82.609 E6.21156
G1 X49.042 Y82.475 E6.22522
G1 X49.354 Y82.378 E6.23887
G1 X49.675 Y82.319 E6.25252
G1 X49.993 Y82.300 E6.26587
G1 X50.325 Y82.319 E6.27981
G1 X50.646 Y82.378 E6.29347
G1 X50.958 Y82.475 E6.30712
G1 X51.255 Y82.609 E6.32077
G1 X51.528 Y82.774 E6.33411
G1 X51.790 Y82.979 E6.34806
G1 X52.021 Y83.209 E6.36172
G1 X52.222 Y83.466 E6.37537
G1 X52.391 Y83.745 E6.38902
G1 X52.525 Y84.042 E6.40267
G1 X52.622 Y84.354 E6.41632
G1 X52.681 Y84.675 E6.42997
G1 X52.700 Y85.000 E6.44362
G1 X52.681 Y85.325 E6.45727
G1 X52.622 Y85.646 E6.47092
G1 X52.525 Y85.958 E6.48457
G1 X52.391 Y86.255 E6.49822
G1 X52.222 Y86.534 E6.51187
G1 X52.021 Y86.791 E6.52552
G1 X51.791 Y87.021 E6.53917
G1 X51.534 Y87.222 E6.55282
G1 X51.255 Y87.391 E6.56647
G1 X50.958 Y87.525 E6.58012
G1 X50.646 Y87.622 E6.59377
G1 X50.325 Y87.681 E6.60742
G1 X50.000 Y87.700 E6.62107
G1 X49.675 Y87.681 E6.63472
G1 X49.354 Y87.622 E6.64837
G1 X49.042 Y87.525 E6.66202
G1 X48.745 Y87.391 E6.67567
G1 X48.466 Y87.222 E6.68932
G1 X48.136 Y86.948 E6.70726
G1 X47.938 Y86.952 F6000.000
G1 X47.857 Y87.143 F6000.000
