; generated by Slic3r 1.3.0 on 2021-04-23 at 20:11:29

; external perimeters extrusion width = 0.44mm (6.76mm^3/s)
; perimeters extrusion width = 0.48mm (7.54mm^3/s)
; infill extrusion width = 0.48mm (6.28mm^3/s)
; solid infill extrusion width = 0.48mm (3.77mm^3/s)
; top infill extrusion width = 0.40mm (7.05mm^3/s)
; support material extrusion width = 0.44mm (7.89mm^3/s)

M107
M190 S100 ; set bed temperature and wait for it to be reached
M104 S240 ; set temperature
G28 ; home all axes
G1 Z5 F5000 ; lift nozzle

; Filament gcode

M109 S240 ; set temperature and wait for it to be reached
G21 ; set units to millimeters
G90 ; use absolute coordinates
M82 ; use absolute distances for extrusion
G92 E0
G1 E-6.00000 F2400.00000
G92 E0
G1 Z0.300 F4800.000
G1 X55.859 Y67.625 F4800.000
G1 E6.00000 F2400.00000
G1 F1800
G1 X57.572 Y66.375 E6.08877
G1 X60.000 Y65.829 E6.19294
G1 X110.000 Y65.829 E8.28595
G1 X112.083 Y66.225 E8.37472
G1 X113.875 Y67.359 E8.46349
G1 X115.125 Y69.072 E8.55226
G1 X115.671 Y71.500 E8.65643
G1 X115.671 Y98.500 E9.78666
G1 X115.275 Y100.583 E9.87543
G1 X114.141 Y102.375 E9.96420
G1 X112.428 Y103.625 E10.05297
G1 X110.000 Y104.171 E10.15713
G1 X60.000 Y104.171 E12.25015
G1 X57.917 Y103.775 E12.33892
G1 X56.125 Y102.641 E12.42769
G1 X54.875 Y100.928 E12.51646
G1 X54.329 Y98.500 E12.62062
G1 X54.329 Y71.500 E13.75085
G1 X54.725 Y69.417 E13.83962
G1 X55.827 Y67.676 E13.92588
G1 X56.191 Y67.764 F4800.000
G1 F1800
G1 X57.886 Y66.601 E14.01196
G1 X60.000 Y66.164 E14.10231
G1 X110.000 Y66.164 E16.19532
G1 X112.018 Y66.561 E16.28140
G1 X113.736 Y67.691 E16.36748
G1 X114.899 Y69.386 E16.45356
G1 X115.336 Y71.500 E16.54391
G1 X115.336 Y98.500 E17.67414
G1 X114.939 Y100.518 E17.76022
G1 X113.809 Y102.236 E17.84629
G1 X112.114 Y103.399 E17.93237
G1 X110.000 Y103.836 E18.02272
G1 X60.000 Y103.836 E20.11574
G1 X57.982 Y103.439 E20.20182
G1 X56.264 Y102.309 E20.28790
G1 X55.101 Y100.614 E20.37397
G1 X54.664 Y98.500 E20.46432
G1 X54.664 Y71.500 E21.59455
G1 X55.061 Y69.482 E21.68063
G1 X56.158 Y67.814 E21.76420
G1 F3840
G1 X57.886 Y66.601 E20.51020
G1 F3840
G1 X60.000 Y66.164 E19.22868
G1 F3840
G1 X65.330 Y66.164 E16.06420
G1 E15.76420 F2400.00000
G92 E0
G1 X79.663 Y77.772 F4800.000
G1 E6.00000 F2400.00000
G1 F1800
G1 X79.663 Y95.836 E6.80462
G1 X79.555 Y96.498 E6.83451
G1 X78.024 Y101.091 E7.05018
G1 X75.844 Y102.663 E7.16990
G1 X58.276 Y102.663 E7.95246
G1 X55.837 Y100.224 E8.10607
G1 X55.837 Y69.776 E9.46239
G1 X58.276 Y67.337 E9.61600
G1 X111.724 Y67.337 E11.99685
G1 X114.163 Y69.776 E12.15045
G1 X114.163 Y100.224 E13.50677
G1 X111.724 Y102.663 E13.66038
G1 X94.156 Y102.663 E14.44294
G1 X91.976 Y101.091 E14.56266
G1 X90.445 Y96.498 E14.77833
G1 X90.337 Y95.836 E14.80822
G1 X90.337 Y77.772 E15.61284
G1 X90.228 Y77.663 E15.61976
G1 X79.772 Y77.663 E16.08549
G1 X79.705 Y77.730 E16.08973
G1 X79.305 Y77.415 F4800.000
G1 F1800
G1 X79.305 Y95.807 E16.90898
G1 X79.207 Y96.412 E16.93631
G1 X77.722 Y100.869 E17.14556
G1 X75.728 Y102.305 E17.25500
G1 X58.424 Y102.305 E18.02584
G1 X56.195 Y100.076 E18.16627
G1 X56.195 Y69.924 E19.50941
G1 X58.424 Y67.695 E19.64984
G1 X111.576 Y67.695 E22.01751
G1 X113.805 Y69.924 E22.15794
G1 X113.805 Y100.076 E23.50108
G1 X111.576 Y102.305 E23.64150
G1 X94.272 Y102.305 E24.41234
G1 X92.278 Y100.869 E24.52179
G1 X90.793 Y96.412 E24.73104
G1 X90.695 Y95.807 E24.75837
G1 X90.695 Y77.415 E25.57761
G1 X90.585 Y77.305 E25.58453
G1 X79.415 Y77.305 E26.08207
G1 X79.348 Y77.373 E26.08632
G1 X78.948 Y77.058 F4800.000
G1 F1800
G1 X78.948 Y95.778 E26.92019
G1 X78.859 Y96.327 E26.94496
G1 X77.419 Y100.647 E27.14779
G1 X75.613 Y101.948 E27.24696
G1 X58.572 Y101.948 E28.00607
G1 X56.552 Y99.928 E28.13332
G1 X56.552 Y70.072 E29.46328
G1 X58.572 Y68.052 E29.59053
G1 X111.428 Y68.052 E31.94502
G1 X113.448 Y70.072 E32.07227
G1 X113.448 Y99.928 E33.40223
G1 X111.428 Y101.948 E33.52948
G1 X94.387 Y101.948 E34.28860
G1 X92.581 Y100.647 E34.38777
G1 X91.141 Y96.327 E34.59060
G1 X91.052 Y95.778 E34.61537
G1 X91.052 Y77.058 E35.44924
G1 X90.942 Y76.948 E35.45616
G1 X79.058 Y76.948 E35.98552
G1 X78.991 Y77.016 E35.98976
G1 X78.591 Y76.701 F4800.000
G1 F1800
G1 X78.591 Y95.749 E36.83826
G1 X78.511 Y96.241 E36.86046
G1 X77.117 Y100.424 E37.05687
G1 X75.498 Y101.591 E37.14578
G1 X58.720 Y101.591 E37.89316
G1 X56.909 Y99.780 E38.00723
G1 X56.909 Y70.220 E39.32401
G1 X58.720 Y68.409 E39.43808
G1 X111.280 Y68.409 E41.77940
G1 X113.091 Y70.220 E41.89347
G1 X113.091 Y99.780 E43.21025
G1 X111.280 Y101.591 E43.32432
G1 X94.502 Y101.591 E44.07170
G1 X92.883 Y100.424 E44.16061
G1 X91.489 Y96.241 E44.35702
G1 X91.409 Y95.749 E44.37922
G1 X91.409 Y76.701 E45.22772
G1 X91.299 Y76.591 E45.23464
G1 X78.701 Y76.591 E45.79581
G1 X78.634 Y76.659 E45.80006
G1 X78.234 Y76.344 F4800.000
G1 F1800
G1 X78.234 Y95.720 E46.66318
G1 X78.163 Y96.155 E46.68282
G1 X76.815 Y100.202 E46.87282
G1 X75.383 Y101.234 E46.95145
G1 X58.868 Y101.234 E47.68711
G1 X57.266 Y99.632 E47.78800
G1 X57.266 Y70.368 E49.09160
G1 X58.868 Y68.766 E49.19249
G1 X111.132 Y68.766 E51.52062
G1 X112.734 Y70.368 E51.62151
G1 X112.734 Y99.632 E52.92512
G1 X111.132 Y101.234 E53.02601
G1 X94.617 Y101.234 E53.76167
G1 X93.185 Y100.202 E53.84030
G1 X91.837 Y96.155 E54.03030
G1 X91.766 Y95.720 E54.04993
G1 X91.766 Y76.344 E54.91305
G1 X91.656 Y76.234 E54.91997
G1 X78.344 Y76.234 E55.51297
G1 X78.276 Y76.301 E55.51721
G1 X77.877 Y75.987 F4800.000
G1 F1800
G1 X77.877 Y95.692 E56.39497
G1 X77.815 Y96.070 E56.41204
G1 X76.512 Y99.980 E56.59561
G1 X75.267 Y100.877 E56.66397
G1 X59.015 Y100.877 E57.38791
G1 X57.623 Y99.485 E57.47562
G1 X57.623 Y70.515 E58.76604
G1 X59.015 Y69.123 E58.85375
G1 X110.985 Y69.123 E61.16871
G1 X112.377 Y70.515 E61.25642
G1 X112.377 Y99.485 E62.54684
G1 X110.985 Y100.877 E62.63455
G1 X94.733 Y100.877 E63.35849
G1 X93.488 Y99.980 E63.42685
G1 X92.185 Y96.070 E63.61043
G1 X92.123 Y95.692 E63.62750
G1 X92.123 Y75.987 E64.50525
G1 X92.013 Y75.877 E64.51217
G1 X77.987 Y75.877 E65.13698
G1 X77.919 Y75.944 E65.14122
G1 X77.520 Y75.630 F4800.000
G1 F1800
G1 X77.520 Y95.663 E66.03360
G1 X77.468 Y95.984 E66.04811
G1 X76.210 Y99.757 E66.22527
G1 X75.152 Y100.520 E66.28335
G1 X59.163 Y100.520 E66.99556
G1 X57.980 Y99.337 E67.07010
G1 X57.980 Y70.663 E68.34734
G1 X59.163 Y69.480 E68.42187
G1 X110.837 Y69.480 E70.72365
G1 X112.020 Y70.663 E70.79818
G1 X112.020 Y99.337 E72.07542
G1 X110.837 Y100.520 E72.14995
G1 X94.848 Y100.520 E72.86216
G1 X93.790 Y99.757 E72.92025
G1 X92.532 Y95.984 E73.09741
G1 X92.480 Y95.663 E73.11192
G1 X92.480 Y75.630 E74.00429
G1 X92.370 Y75.520 E74.01121
G1 X77.630 Y75.520 E74.66784
G1 X77.562 Y75.587 E74.67209
G1 X77.163 Y75.272 F4800.000
G1 F1800
G1 X77.163 Y95.634 E75.57909
G1 X77.120 Y95.899 E75.59103
G1 X75.908 Y99.535 E75.76177
G1 X75.037 Y100.163 E75.80959
G1 X59.311 Y100.163 E76.51008
G1 X58.337 Y99.189 E76.57143
G1 X58.337 Y70.811 E77.83549
G1 X59.311 Y69.837 E77.89685
G1 X110.689 Y69.837 E80.18544
G1 X111.663 Y70.811 E80.24679
G1 X111.663 Y99.189 E81.51086
G1 X110.689 Y100.163 E81.57221
G1 X94.963 Y100.163 E82.27269
G1 X94.092 Y99.535 E82.32051
G1 X92.880 Y95.899 E82.49125
G1 X92.837 Y95.634 E82.50319
G1 X92.837 Y75.272 E83.41020
G1 X92.728 Y75.163 E83.41712
G1 X77.272 Y75.163 E84.10556
G1 X77.205 Y75.230 E84.10981
G1 X76.805 Y74.915 F4800.000
G1 F1800
G1 X76.805 Y95.605 E85.03144
G1 X76.772 Y95.813 E85.04081
G1 X75.605 Y99.313 E85.20514
G1 X74.921 Y99.805 E85.24268
G1 X59.459 Y99.805 E85.93144
G1 X58.695 Y99.041 E85.97962
G1 X58.695 Y70.959 E87.23050
G1 X59.459 Y70.195 E87.27867
G1 X110.541 Y70.195 E89.55409
G1 X111.305 Y70.959 E89.60226
G1 X111.305 Y99.041 E90.85315
G1 X110.541 Y99.805 E90.90132
G1 X95.079 Y99.805 E91.59008
G1 X94.395 Y99.313 E91.62763
G1 X93.228 Y95.813 E91.79195
G1 X93.195 Y95.605 E91.80132
G1 X93.195 Y74.915 E92.72295
G1 X93.085 Y74.805 E92.72987
G1 X76.915 Y74.805 E93.45014
G1 X76.848 Y74.873 E93.45438
G1 X76.558 Y74.448 F4800.000
G1 F1800
G1 X76.448 Y74.558 E93.46130
G1 X76.448 Y95.576 E94.39756
G1 X76.424 Y95.727 E94.40437
G1 X75.303 Y99.090 E94.56228
G1 X74.806 Y99.448 E94.58955
G1 X59.607 Y99.448 E95.26658
G1 X59.052 Y98.893 E95.30158
G1 X59.052 Y71.107 E96.53928
G1 X59.607 Y70.552 E96.57428
G1 X110.393 Y70.552 E98.83651
G1 X110.948 Y71.107 E98.87151
G1 X110.948 Y98.893 E100.10921
G1 X110.393 Y99.448 E100.14421
G1 X95.194 Y99.448 E100.82124
G1 X94.697 Y99.090 E100.84852
G1 X93.576 Y95.727 E101.00642
G1 X93.552 Y95.576 E101.01323
G1 X93.552 Y74.558 E101.94949
G1 X93.442 Y74.448 E101.95641
G1 X76.618 Y74.448 E102.70582
G1 X76.201 Y74.091 F4800.000
G1 F1800
G1 X76.091 Y74.201 E102.71274
G1 X76.091 Y95.548 E103.66362
G1 X76.076 Y95.642 E103.66786
G1 X75.000 Y98.868 E103.81935
G1 X74.691 Y99.091 E103.83635
G1 X59.755 Y99.091 E104.50166
G1 X59.409 Y98.745 E104.52348
G1 X59.409 Y71.255 E105.74800
G1 X59.755 Y70.909 E105.76982
G1 X110.245 Y70.909 E108.01887
G1 X110.591 Y71.255 E108.04069
G1 X110.591 Y98.745 E109.26522
G1 X110.245 Y99.091 E109.28703
G1 X95.309 Y99.091 E109.95234
G1 X95.000 Y98.868 E109.96934
G1 X93.924 Y95.642 E110.12083
G1 X93.909 Y95.548 E110.12507
G1 X93.909 Y74.201 E111.07596
G1 X93.799 Y74.091 E111.08288
G1 X76.261 Y74.091 E111.86410
G1 X75.844 Y73.734 F4800.000
G1 F1800
G1 X75.734 Y73.844 E111.87102
G1 X75.734 Y95.519 E112.83653
G1 X74.698 Y98.646 E112.98326
G1 X74.576 Y98.734 E112.98999
G1 X59.903 Y98.734 E113.64357
G1 X59.766 Y98.597 E113.65221
G1 X59.766 Y71.403 E114.86356
G1 X59.903 Y71.266 E114.87219
G1 X110.097 Y71.266 E117.10807
G1 X110.234 Y71.403 E117.11671
G1 X110.234 Y98.597 E118.32805
G1 X110.097 Y98.734 E118.33669
G1 X95.424 Y98.734 E118.99027
G1 X95.302 Y98.646 E118.99700
G1 X94.266 Y95.519 E119.14373
G1 X94.266 Y73.844 E120.10924
G1 X94.156 Y73.734 E120.11616
G1 X75.904 Y73.734 E120.92920
G1 F3840
G1 X75.734 Y73.844 E120.80911
G1 F3840
G1 X75.734 Y83.242 E115.22920
G1 E114.92920 F2400.00000
G92 E0
G1 X104.225 Y71.766 F4800.000
G1 E6.00000 F2400.00000
G1 F1800
G1 X104.619 Y71.752 E6.02237
G1 X105.277 Y71.765 E6.05968
G1 F3840
G1 X104.619 Y71.752 E5.66903
G1 F3840
G1 X104.225 Y71.766 E5.43479
G1 E0.05968 F2400.00000
G92 E0
G1 X108.065 Y72.500 F4800.000
G1 X108.119 Y97.485 F4800.000
G1 X105.300 Y98.224 F4800.000
G1 E6.00000 F2400.00000
G1 F1800
G1 X104.891 Y98.249 E6.02327
G1 X104.202 Y98.225 E6.06241
G1 F3840
G1 X104.891 Y98.249 E5.65285
G1 F3840
G1 X105.300 Y98.224 E5.40944
G1 E0.06241 F2400.00000
G92 E0
G1 X101.435 Y97.500 F4800.000
G1 X61.981 Y97.500 F4800.000
G1 X64.689 Y98.224 F4800.000
G1 E6.00000 F2400.00000
G1 F1800
G1 X65.119 Y98.248 E6.02442
G1 X65.770 Y98.235 E6.06132
G1 F3840
G1 X65.119 Y98.248 E5.67474
G1 F3840
G1 X64.689 Y98.224 E5.41890
G1 E0.06132 F2400.00000
G92 E0
G1 X68.508 Y97.364 F4800.000
G1 X68.656 Y97.486 F4800.000
G1 X70.444 Y96.454 F4800.000
G1 X72.052 Y95.104 F4800.000
G1 X72.119 Y94.423 F4800.000
G1 X71.824 Y91.655 F4800.000
G1 X71.543 Y90.529 F4800.000
G1 X70.137 Y87.135 F4800.000
G1 X68.839 Y84.999 F4800.000
G1 X69.932 Y83.236 F4800.000
G1 X71.356 Y80.070 F4800.000
G1 X71.998 Y77.344 F4800.000
G1 X72.100 Y74.900 F4800.000
G1 X70.409 Y73.521 F4800.000
G1 X68.561 Y72.500 F4800.000
G1 X65.793 Y71.775 F4800.000
G1 E6.00000 F2400.00000
G1 F1800
G1 X65.109 Y71.751 E6.03875
G1 X64.700 Y71.776 E6.06195
G1 F3840
G1 X65.109 Y71.751 E5.81853
G1 F3840
G1 X65.793 Y71.775 E5.41206
G1 E0.06195 F2400.00000
G92 E0
G1 X94.700 Y73.300 F4800.000
G1 E6.00000 F2400.00000
G1 F1800
G1 X75.300 Y73.300 E6.81209
G1 X75.300 Y95.468 E7.74003
G1 X74.356 Y98.300 E7.86501
G1 X65.978 Y98.300 E8.21572
G1 X65.959 Y98.119 E8.22333
G1 X66.293 Y98.050 E8.23761
G1 X66.833 Y97.845 E8.26176
G1 X67.104 Y97.703 E8.27457
G1 X67.590 Y97.367 E8.29933
G1 X68.020 Y96.954 E8.32426
G1 X68.378 Y96.478 E8.34919
G1 X68.653 Y95.954 E8.37395
G1 X68.761 Y95.668 E8.38678
G1 X68.904 Y95.079 E8.41213
G1 X68.950 Y94.504 E8.43629
G1 X68.938 Y94.198 E8.44910
G1 X68.843 Y93.614 E8.47386
G1 X68.656 Y93.053 E8.49862
G1 X68.525 Y92.777 E8.51143
G1 X68.208 Y92.277 E8.53619
G1 X67.816 Y91.834 E8.56095
G1 X67.587 Y91.631 E8.57377
G1 X67.087 Y91.288 E8.59912
G1 X66.566 Y91.042 E8.62328
G1 X66.276 Y90.945 E8.63609
G1 X65.697 Y90.827 E8.66081
G1 X65.146 Y90.799 E8.68391
G1 X64.800 Y90.827 E8.69845
G1 X64.207 Y90.950 E8.72380
G1 X63.667 Y91.155 E8.74796
G1 X63.396 Y91.297 E8.76077
G1 X62.909 Y91.634 E8.78554
G1 X62.471 Y92.057 E8.81106
G1 X62.125 Y92.519 E8.83522
G1 X61.972 Y92.784 E8.84803
G1 X61.740 Y93.328 E8.87280
G1 X61.596 Y93.921 E8.89832
G1 X61.550 Y94.496 E8.92248
G1 X61.562 Y94.802 E8.93530
G1 X61.661 Y95.400 E8.96065
G1 X61.844 Y95.947 E8.98481
G1 X61.975 Y96.223 E8.99762
G1 X62.289 Y96.720 E9.02221
G1 X62.483 Y96.957 E9.03502
G1 X62.910 Y97.367 E9.05979
G1 X63.413 Y97.712 E9.08531
G1 X63.934 Y97.958 E9.10947
G1 X64.500 Y98.123 E9.13413
G1 X64.478 Y98.300 E9.14160
G1 X60.200 Y98.300 E9.32069
G1 X60.200 Y71.700 E10.43417
G1 X64.487 Y71.700 E10.61363
G1 X64.512 Y71.873 E10.62094
G1 X63.942 Y72.039 E10.64579
G1 X63.660 Y72.159 E10.65861
G1 X63.136 Y72.463 E10.68396
G1 X62.690 Y72.829 E10.70812
G1 X62.478 Y73.049 E10.72093
G1 X62.125 Y73.519 E10.74552
G1 X61.972 Y73.784 E10.75833
G1 X61.740 Y74.328 E10.78311
G1 X61.596 Y74.921 E10.80863
G1 X61.550 Y75.496 E10.83279
G1 X61.562 Y75.802 E10.84559
G1 X61.657 Y76.386 E10.87035
G1 X61.846 Y76.951 E10.89530
G1 X62.130 Y77.490 E10.92082
G1 X62.478 Y77.951 E10.94498
G1 X62.690 Y78.171 E10.95778
G1 X63.145 Y78.543 E10.98239
G1 X63.416 Y78.713 E10.99579
G1 X63.934 Y78.958 E11.01978
G1 X64.224 Y79.055 E11.03259
G1 X64.804 Y79.174 E11.05735
G1 X65.399 Y79.198 E11.08229
G1 X66.004 Y79.122 E11.10781
G1 X66.558 Y78.961 E11.13197
G1 X66.840 Y78.841 E11.14478
G1 X67.349 Y78.547 E11.16939
G1 X67.604 Y78.354 E11.18279
G1 X68.020 Y77.954 E11.20694
G1 X68.378 Y77.478 E11.23187
G1 X68.653 Y76.954 E11.25663
G1 X68.761 Y76.668 E11.26944
G1 X68.903 Y76.093 E11.29422
G1 X68.950 Y75.486 E11.31974
G1 X68.903 Y74.910 E11.34390
G1 X68.842 Y74.611 E11.35670
G1 X68.656 Y74.053 E11.38129
G1 X68.525 Y73.777 E11.39411
G1 X68.208 Y73.277 E11.41887
G1 X67.813 Y72.831 E11.44381
G1 X67.340 Y72.447 E11.46933
G1 X66.840 Y72.159 E11.49349
G1 X66.558 Y72.039 E11.50631
G1 X65.981 Y71.873 E11.53142
G1 X66.006 Y71.700 E11.53875
G1 X104.017 Y71.700 E13.12992
G1 X104.036 Y71.881 E13.13755
G1 X103.720 Y71.945 E13.15101
G1 X103.163 Y72.157 E13.17595
G1 X102.636 Y72.463 E13.20147
G1 X102.190 Y72.829 E13.22563
G1 X101.978 Y73.049 E13.23844
G1 X101.625 Y73.519 E13.26303
G1 X101.472 Y73.784 E13.27584
G1 X101.241 Y74.324 E13.30043
G1 X101.156 Y74.618 E13.31324
G1 X101.061 Y75.202 E13.33800
G1 X101.061 Y75.798 E13.36293
G1 X101.156 Y76.382 E13.38771
G1 X101.247 Y76.689 E13.40112
G1 X101.473 Y77.220 E13.42527
G1 X101.792 Y77.723 E13.45021
G1 X102.197 Y78.179 E13.47573
G1 X102.645 Y78.543 E13.49989
G1 X102.903 Y78.707 E13.51270
G1 X103.438 Y78.960 E13.53746
G1 X104.006 Y79.125 E13.56222
G1 X104.308 Y79.174 E13.57503
G1 X104.895 Y79.197 E13.59962
G1 X105.200 Y79.173 E13.61243
G1 X105.780 Y79.055 E13.63719
G1 X106.337 Y78.843 E13.66213
G1 X106.864 Y78.537 E13.68766
G1 X107.310 Y78.171 E13.71181
G1 X107.522 Y77.951 E13.72462
G1 X107.875 Y77.481 E13.74921
G1 X108.028 Y77.216 E13.76202
G1 X108.259 Y76.676 E13.78662
G1 X108.344 Y76.382 E13.79943
G1 X108.439 Y75.798 E13.82419
G1 X108.439 Y75.202 E13.84913
G1 X108.339 Y74.600 E13.87465
G1 X108.156 Y74.053 E13.89881
G1 X108.025 Y73.777 E13.91162
G1 X107.708 Y73.277 E13.93639
G1 X107.303 Y72.821 E13.96191
G1 X106.855 Y72.457 E13.98607
G1 X106.597 Y72.293 E13.99888
G1 X106.066 Y72.041 E14.02348
