; generated by Slic3r 1.3.0 on 2021-04-17 at 10:45:50

; external perimeters extrusion width = 0.44mm (6.76mm^3/s)
; perimeters extrusion width = 0.48mm (7.54mm^3/s)
; infill extrusion width = 0.48mm (6.28mm^3/s)
; solid infill extrusion width = 0.48mm (3.77mm^3/s)
; top infill extrusion width = 0.40mm (7.05mm^3/s)
; support material extrusion width = 0.44mm (7.89mm^3/s)

M107
M190 S100 ; set bed temperature and wait for it to be reached
M104 S240 ; set temperature
G28 ; home all axes
G1 Z5 F5000 ; lift nozzle

; Filament gcode

M109 S240 ; set temperature and wait for it to be reached
G21 ; set units to millimeters
G90 ; use absolute coordinates
M82 ; use absolute distances for extrusion
G92 E0
G1 E-6.00000 F2400.00000
G92 E0
G1 Z0.300 F6000.000
G1 X44.311 Y51.683 F6000.000
G1 E6.00000 F2400.00000
G1 F1800
G1 X47.318 Y49.825 E6.14798
G1 X50.665 Y48.688 E6.29596
G1 X54.000 Y48.329 E6.43636
G1 X116.000 Y48.329 E9.03170
G1 X119.513 Y48.727 E9.17968
G1 X122.846 Y49.903 E9.32766
G1 X125.832 Y51.797 E9.47564
G1 X128.317 Y54.311 E9.62362
G1 X130.175 Y57.318 E9.77160
G1 X131.312 Y60.665 E9.91958
G1 X131.671 Y64.000 E10.05998
G1 X131.671 Y106.000 E11.81812
G1 X131.273 Y109.513 E11.96610
G1 X130.097 Y112.846 E12.11408
G1 X128.203 Y115.832 E12.26206
G1 X125.689 Y118.317 E12.41004
G1 X122.682 Y120.175 E12.55802
G1 X119.335 Y121.312 E12.70600
G1 X116.000 Y121.671 E12.84640
G1 X74.000 Y121.671 E14.60453
G1 X70.487 Y121.273 E14.75252
G1 X67.154 Y120.097 E14.90050
G1 X62.919 Y117.081 E15.11812
G1 X42.919 Y97.081 E16.30210
G1 X40.717 Y94.316 E16.45009
G1 X39.191 Y91.127 E16.59807
G1 X38.329 Y86.000 E16.81569
G1 X38.329 Y64.000 E17.73661
G1 X38.727 Y60.487 E17.88459
G1 X39.903 Y57.154 E18.03257
G1 X41.797 Y54.168 E18.18056
G1 X44.268 Y51.725 E18.32602
G1 X44.637 Y51.854 F6000.000
G1 F1800
G1 X47.632 Y50.049 E18.47241
G1 X50.958 Y48.969 E18.61879
G1 X54.000 Y48.664 E18.74675
G1 X116.000 Y48.664 E21.34209
G1 X119.474 Y49.063 E21.48847
G1 X122.768 Y50.238 E21.63485
G1 X125.709 Y52.129 E21.78123
G1 X128.146 Y54.637 E21.92762
G1 X129.951 Y57.632 E22.07400
G1 X131.031 Y60.958 E22.22038
G1 X131.336 Y64.000 E22.34834
G1 X131.336 Y106.000 E24.10647
G1 X130.937 Y109.474 E24.25285
G1 X129.762 Y112.768 E24.39924
G1 X127.871 Y115.709 E24.54562
G1 X125.363 Y118.146 E24.69200
G1 X122.368 Y119.951 E24.83838
G1 X119.042 Y121.031 E24.98476
G1 X116.000 Y121.336 E25.11272
G1 X74.000 Y121.336 E26.87085
G1 X70.526 Y120.937 E27.01724
G1 X67.232 Y119.762 E27.16362
G1 X63.156 Y116.844 E27.37346
G1 X43.156 Y96.844 E28.55745
G1 X40.981 Y94.105 E28.70383
G1 X39.484 Y90.945 E28.85021
G1 X38.664 Y86.000 E29.06005
G1 X38.664 Y64.000 E29.98098
G1 X39.063 Y60.526 E30.12736
G1 X40.238 Y57.232 E30.27375
G1 X42.129 Y54.291 E30.42013
G1 X44.594 Y51.896 E30.56400
G1 F4800
G1 X47.632 Y50.049 E28.87519
G1 F4800
G1 X50.958 Y48.969 E27.21415
G1 F4800
G1 X54.000 Y48.664 E25.76218
G1 F4800
G1 X55.891 Y48.664 E24.86400
G1 E24.56400 F2400.00000
G92 E0
G1 X61.501 Y98.604 F6000.000
G1 E6.00000 F2400.00000
G1 F1800
G1 X61.396 Y98.499 E6.00630
G1 X48.823 Y98.499 E6.54093
G1 X41.501 Y91.177 E6.98120
G1 X41.501 Y58.823 E8.35692
G1 X48.823 Y51.501 E8.79719
G1 X121.177 Y51.501 E11.87371
G1 X128.499 Y58.823 E12.31399
G1 X128.499 Y111.177 E14.54011
G1 X121.177 Y118.499 E14.98038
G1 X68.823 Y118.499 E17.20650
G1 X61.501 Y111.177 E17.64678
G1 X61.501 Y98.664 E18.17885
G1 X61.842 Y98.263 F6000.000
G1 F1800
G1 X61.737 Y98.158 E18.18515
G1 X48.964 Y98.158 E18.72826
G1 X41.842 Y91.036 E19.15653
G1 X41.842 Y58.964 E20.52024
G1 X48.964 Y51.842 E20.94851
G1 X121.036 Y51.842 E24.01302
G1 X128.158 Y58.964 E24.44129
G1 X128.158 Y111.036 E26.65540
G1 X121.036 Y118.158 E27.08366
G1 X68.964 Y118.158 E29.29777
G1 X61.842 Y111.036 E29.72604
G1 X61.842 Y98.323 E30.26660
G1 X62.183 Y97.922 F6000.000
G1 F1800
G1 X62.078 Y97.817 E30.27291
G1 X49.105 Y97.817 E30.82451
G1 X42.183 Y90.895 E31.24077
G1 X42.183 Y59.105 E32.59247
G1 X49.105 Y52.183 E33.00873
G1 X120.895 Y52.183 E36.06123
G1 X127.817 Y59.105 E36.47749
G1 X127.817 Y110.895 E38.67959
G1 X120.895 Y117.817 E39.09585
G1 X69.105 Y117.817 E41.29795
G1 X62.183 Y110.895 E41.71421
G1 X62.183 Y97.982 E42.26326
G1 X62.419 Y97.476 F6000.000
G1 F1800
G1 X49.246 Y97.476 E42.82336
G1 X42.524 Y90.754 E43.22761
G1 X42.524 Y59.246 E44.56730
G1 X49.246 Y52.524 E44.97155
G1 X120.754 Y52.524 E48.01204
G1 X127.476 Y59.246 E48.41629
G1 X127.476 Y110.754 E50.60639
G1 X120.754 Y117.476 E51.01064
G1 X69.246 Y117.476 E53.20073
G1 X62.524 Y110.754 E53.60498
G1 X62.524 Y97.581 E54.16507
G1 X62.461 Y97.519 E54.16883
G1 X62.865 Y97.240 F6000.000
G1 F1800
G1 X62.760 Y97.135 E54.17513
G1 X49.388 Y97.135 E54.74372
G1 X42.865 Y90.612 E55.13596
G1 X42.865 Y59.388 E56.46364
G1 X49.388 Y52.865 E56.85589
G1 X120.612 Y52.865 E59.88437
G1 X127.135 Y59.388 E60.27661
G1 X127.135 Y110.612 E62.45470
G1 X120.612 Y117.135 E62.84694
G1 X69.388 Y117.135 E65.02502
G1 X62.865 Y110.612 E65.41727
G1 X62.865 Y97.300 E65.98330
G1 X63.101 Y96.794 F6000.000
G1 F1800
G1 X49.529 Y96.794 E66.56038
G1 X43.206 Y90.471 E66.94061
G1 X43.206 Y59.529 E68.25629
G1 X49.529 Y53.206 E68.63652
G1 X120.471 Y53.206 E71.65300
G1 X126.794 Y59.529 E72.03323
G1 X126.794 Y110.471 E74.19931
G1 X120.471 Y116.794 E74.57954
G1 X69.529 Y116.794 E76.74562
G1 X63.206 Y110.471 E77.12585
G1 X63.206 Y96.899 E77.70293
G1 X63.143 Y96.837 E77.70668
G1 X63.546 Y96.558 F6000.000
G1 F1800
G1 X63.442 Y96.454 E77.71299
G1 X49.670 Y96.454 E78.29855
G1 X43.546 Y90.330 E78.66678
G1 X43.546 Y59.670 E79.97045
G1 X49.670 Y53.546 E80.33867
G1 X120.330 Y53.546 E83.34314
G1 X126.454 Y59.670 E83.71136
G1 X126.454 Y110.330 E85.86543
G1 X120.330 Y116.454 E86.23366
G1 X69.670 Y116.454 E88.38772
G1 X63.546 Y110.330 E88.75595
G1 X63.546 Y96.618 E89.33897
G1 X63.782 Y96.113 F6000.000
G1 F1800
G1 X49.811 Y96.113 E89.93303
G1 X43.887 Y90.189 E90.28924
G1 X43.887 Y59.811 E91.58090
G1 X49.811 Y53.887 E91.93712
G1 X120.189 Y53.887 E94.92958
G1 X126.113 Y59.811 E95.28580
G1 X126.113 Y110.189 E97.42785
G1 X120.189 Y116.113 E97.78407
G1 X69.811 Y116.113 E99.92613
G1 X63.887 Y110.189 E100.28235
G1 X63.887 Y96.218 E100.87641
G1 X63.825 Y96.155 E100.88016
G1 X64.228 Y95.877 F6000.000
G1 F1800
G1 X64.123 Y95.772 E100.88646
G1 X49.952 Y95.772 E101.48902
G1 X44.228 Y90.048 E101.83322
G1 X44.228 Y59.952 E103.11287
G1 X49.952 Y54.228 E103.45708
G1 X120.048 Y54.228 E106.43753
G1 X125.772 Y59.952 E106.78174
G1 X125.772 Y110.048 E108.91179
G1 X120.048 Y115.772 E109.25600
G1 X69.952 Y115.772 E111.38605
G1 X64.228 Y110.048 E111.73026
G1 X64.228 Y95.937 E112.33026
G1 X64.569 Y95.536 F6000.000
G1 F1800
G1 X64.464 Y95.431 E112.33656
G1 X50.094 Y95.431 E112.94761
G1 X44.569 Y89.906 E113.27981
G1 X44.569 Y60.094 E114.54745
G1 X50.094 Y54.569 E114.87965
G1 X119.906 Y54.569 E117.84809
G1 X125.431 Y60.094 E118.18029
G1 X125.431 Y109.906 E120.29833
G1 X119.906 Y115.431 E120.63053
G1 X70.094 Y115.431 E122.74857
G1 X64.569 Y109.906 E123.08077
G1 X64.569 Y95.596 E123.68927
G1 X64.910 Y95.195 F6000.000
G1 F1800
G1 X64.805 Y95.090 E123.69557
G1 X50.235 Y95.090 E124.31510
G1 X44.910 Y89.765 E124.63529
G1 X44.910 Y60.235 E125.89093
G1 X50.235 Y54.910 E126.21112
G1 X119.765 Y54.910 E129.16755
G1 X125.090 Y60.235 E129.48774
G1 X125.090 Y109.765 E131.59378
G1 X119.765 Y115.090 E131.91397
G1 X70.235 Y115.090 E134.02000
G1 X64.910 Y109.765 E134.34020
G1 X64.910 Y95.255 E134.95718
G1 X65.251 Y94.854 F6000.000
G1 F1800
G1 X65.146 Y94.749 E134.96348
G1 X50.376 Y94.749 E135.59151
G1 X45.251 Y89.624 E135.89969
G1 X45.251 Y60.376 E137.14331
G1 X50.376 Y55.251 E137.45150
G1 X119.624 Y55.251 E140.39592
G1 X124.749 Y60.376 E140.70411
G1 X124.749 Y109.624 E142.79813
G1 X119.624 Y114.749 E143.10631
G1 X70.376 Y114.749 E145.20034
G1 X65.251 Y109.624 E145.50852
G1 X65.251 Y94.914 E146.13400
G1 X65.592 Y94.513 F6000.000
G1 F1800
G1 X65.487 Y94.408 E146.14030
G1 X50.517 Y94.408 E146.77682
G1 X45.592 Y89.483 E147.07299
G1 X45.592 Y60.517 E148.30461
G1 X50.517 Y55.592 E148.60078
G1 X119.483 Y55.592 E151.53320
G1 X124.408 Y60.517 E151.82937
G1 X124.408 Y109.483 E153.91139
G1 X119.483 Y114.408 E154.20757
G1 X70.517 Y114.408 E156.28958
G1 X65.592 Y109.483 E156.58576
G1 X65.592 Y94.573 E157.21972
G1 X65.933 Y94.172 F6000.000
G1 F1800
G1 X65.828 Y94.067 E157.22603
G1 X50.658 Y94.067 E157.87103
G1 X45.933 Y89.342 E158.15520
G1 X45.933 Y60.658 E159.37481
G1 X50.658 Y55.933 E159.65897
G1 X119.342 Y55.933 E162.57938
G1 X124.067 Y60.658 E162.86355
G1 X124.067 Y109.342 E164.93356
G1 X119.342 Y114.067 E165.21772
G1 X70.658 Y114.067 E167.28773
G1 X65.933 Y109.342 E167.57190
G1 X65.933 Y94.232 E168.21435
G1 X66.274 Y93.831 F6000.000
G1 F1800
G1 X66.169 Y93.726 E168.22066
G1 X50.800 Y93.726 E168.87416
G1 X46.274 Y89.200 E169.14631
G1 X46.274 Y60.800 E170.35391
G1 X50.800 Y56.274 E170.62607
G1 X119.200 Y56.274 E173.53447
G1 X123.726 Y60.800 E173.80663
G1 X123.726 Y109.200 E175.86463
G1 X119.200 Y113.726 E176.13679
G1 X70.800 Y113.726 E178.19479
G1 X66.274 Y109.200 E178.46694
G1 X66.274 Y93.891 E179.11789
G1 X66.615 Y93.490 F6000.000
G1 F1800
G1 X66.510 Y93.385 E179.12420
G1 X50.941 Y93.385 E179.78619
G1 X46.615 Y89.059 E180.04634
G1 X46.615 Y60.941 E181.24193
G1 X50.941 Y56.615 E181.50208
G1 X119.059 Y56.615 E184.39847
G1 X123.385 Y60.941 E184.65862
G1 X123.385 Y109.059 E186.70461
G1 X119.059 Y113.385 E186.96476
G1 X70.941 Y113.385 E189.01075
G1 X66.615 Y109.059 E189.27090
G1 X66.615 Y93.550 E189.93034
G1 X66.956 Y93.149 F6000.000
G1 F1800
G1 X66.851 Y93.044 E189.93664
G1 X51.082 Y93.044 E190.60712
G1 X46.956 Y88.918 E190.85526
G1 X46.956 Y61.082 E192.03885
G1 X51.082 Y56.956 E192.28699
G1 X118.918 Y56.956 E195.17137
G1 X123.044 Y61.082 E195.41951
G1 X123.044 Y108.918 E197.45349
G1 X118.918 Y113.044 E197.70164
G1 X71.082 Y113.044 E199.73562
G1 X66.956 Y108.918 E199.98376
G1 X66.956 Y93.209 E200.65169
G1 X67.296 Y92.808 F6000.000
G1 F1800
G1 X67.192 Y92.704 E200.65799
G1 X51.223 Y92.704 E201.33697
G1 X47.296 Y88.777 E201.57310
G1 X47.296 Y61.223 E202.74467
G1 X51.223 Y57.296 E202.98080
G1 X118.777 Y57.296 E205.85318
G1 X122.704 Y61.223 E206.08931
G1 X122.704 Y108.777 E208.11129
G1 X118.777 Y112.704 E208.34742
G1 X71.223 Y112.704 E210.36939
G1 X67.296 Y108.777 E210.60553
G1 X67.296 Y92.868 E211.28195
G1 X67.532 Y92.363 F6000.000
G1 F1800
G1 X51.364 Y92.363 E211.96941
G1 X47.637 Y88.636 E212.19353
G1 X47.637 Y61.364 E213.35310
G1 X51.364 Y57.637 E213.57722
G1 X118.636 Y57.637 E216.43759
G1 X122.363 Y61.364 E216.66171
G1 X122.363 Y108.636 E218.67168
G1 X118.636 Y112.363 E218.89580
G1 X71.364 Y112.363 E220.90577
G1 X67.637 Y108.636 E221.12989
G1 X67.637 Y92.468 E221.81736
G1 X67.575 Y92.405 E221.82111
G1 X67.978 Y92.127 F6000.000
G1 F1800
G1 X67.873 Y92.022 E221.82742
G1 X51.506 Y92.022 E222.52337
G1 X47.978 Y88.494 E222.73549
G1 X47.978 Y61.506 E223.88304
G1 X51.506 Y57.978 E224.09516
G1 X118.494 Y57.978 E226.94352
G1 X122.022 Y61.506 E227.15563
G1 X122.022 Y108.494 E229.15359
G1 X118.494 Y112.022 E229.36571
G1 X71.506 Y112.022 E231.36366
G1 X67.978 Y108.494 E231.57578
G1 X67.978 Y92.187 E232.26918
G1 X68.214 Y91.681 F6000.000
G1 F1800
G1 X51.647 Y91.681 E232.97363
G1 X48.319 Y88.353 E233.17374
G1 X48.319 Y61.647 E234.30928
G1 X51.647 Y58.319 E234.50939
G1 X118.353 Y58.319 E237.34574
G1 X121.681 Y61.647 E237.54585
G1 X121.681 Y108.353 E239.53180
G1 X118.353 Y111.681 E239.73190
G1 X71.647 Y111.681 E241.71785
G1 X68.319 Y108.353 E241.91796
G1 X68.319 Y91.786 E242.62241
G1 X68.257 Y91.723 E242.62616
G1 X68.660 Y91.445 F6000.000
G1 F1800
G1 X68.555 Y91.340 E242.63247
G1 X51.788 Y91.340 E243.34540
G1 X48.660 Y88.212 E243.53350
G1 X48.660 Y61.788 E244.65704
G1 X51.788 Y58.660 E244.84514
G1 X118.212 Y58.660 E247.66948
G1 X121.340 Y61.788 E247.85758
G1 X121.340 Y108.212 E249.83152
G1 X118.212 Y111.340 E250.01962
G1 X71.788 Y111.340 E251.99356
G1 X68.660 Y108.212 E252.18166
G1 X68.660 Y91.505 E252.89205
G1 X68.896 Y90.999 F6000.000
G1 F1800
G1 X51.929 Y90.999 E253.61347
G1 X49.001 Y88.071 E253.78956
G1 X49.001 Y61.929 E254.90110
G1 X51.929 Y59.001 E255.07719
G1 X118.071 Y59.001 E257.88952
G1 X120.999 Y61.929 E258.06561
G1 X120.999 Y108.071 E260.02754
G1 X118.071 Y110.999 E260.20363
G1 X71.929 Y110.999 E262.16556
G1 X69.001 Y108.071 E262.34165
G1 X69.001 Y91.104 E263.06308
G1 X68.939 Y91.041 E263.06684
G1 X69.342 Y90.763 F6000.000
G1 F1800
G1 X69.237 Y90.658 E263.07314
G1 X52.071 Y90.658 E263.80306
G1 X49.342 Y87.929 E263.96714
G1 X49.342 Y62.071 E265.06666
G1 X52.071 Y59.342 E265.23075
G1 X117.929 Y59.342 E268.03107
G1 X120.658 Y62.071 E268.19515
G1 X120.658 Y107.929 E270.14508
G1 X117.929 Y110.658 E270.30916
G1 X72.071 Y110.658 E272.25908
G1 X69.342 Y107.929 E272.42316
G1 X69.342 Y90.823 E273.15053
G1 X69.683 Y90.422 F6000.000
G1 F1800
G1 X69.578 Y90.317 E273.15684
G1 X52.212 Y90.317 E273.89525
G1 X49.683 Y87.788 E274.04732
G1 X49.683 Y62.212 E275.13484
G1 X52.212 Y59.683 E275.28691
G1 X117.788 Y59.683 E278.07523
G1 X120.317 Y62.212 E278.22730
G1 X120.317 Y107.788 E280.16521
G1 X117.788 Y110.317 E280.31729
G1 X72.212 Y110.317 E282.25520
G1 X69.683 Y107.788 E282.40728
G1 X69.683 Y90.482 E283.14314
G1 X70.024 Y90.081 F6000.000
G1 F1800
G1 X69.919 Y89.976 E283.14944
G1 X52.353 Y89.976 E283.89634
G1 X50.024 Y87.647 E284.03641
G1 X50.024 Y62.353 E285.11191
G1 X52.353 Y60.024 E285.25198
G1 X117.647 Y60.024 E288.02829
G1 X119.976 Y62.353 E288.16835
G1 X119.976 Y107.647 E290.09426
G1 X117.647 Y109.976 E290.23432
G1 X72.353 Y109.976 E292.16023
G1 X70.024 Y107.647 E292.30030
G1 X70.024 Y90.141 E293.04465
G1 X70.365 Y89.740 F6000.000
G1 F1800
G1 X70.260 Y89.635 E293.05095
G1 X52.494 Y89.635 E293.80635
G1 X50.365 Y87.506 E293.93440
G1 X50.365 Y62.494 E294.99790
G1 X52.494 Y60.365 E295.12596
G1 X117.506 Y60.365 E297.89026
G1 X119.635 Y62.494 E298.01831
G1 X119.635 Y107.506 E299.93221
G1 X117.506 Y109.635 E300.06027
G1 X72.494 Y109.635 E301.97417
G1 X70.365 Y107.506 E302.10222
G1 X70.365 Y89.800 E302.85506
G1 X70.706 Y89.399 F6000.000
G1 F1800
G1 X70.601 Y89.294 E302.86137
G1 X52.635 Y89.294 E303.62525
G1 X50.706 Y87.365 E303.74130
G1 X50.706 Y62.635 E304.79279
G1 X52.635 Y60.706 E304.90884
G1 X117.365 Y60.706 E307.66113
G1 X119.294 Y62.635 E307.77718
G1 X119.294 Y107.365 E309.67907
G1 X117.365 Y109.294 E309.79512
G1 X72.635 Y109.294 E311.69701
G1 X70.706 Y107.365 E311.81305
G1 X70.706 Y89.459 E312.57439
G1 X71.046 Y89.058 F6000.000
G1 F1800
G1 X70.942 Y88.954 E312.58069
G1 X52.777 Y88.954 E313.35307
G1 X51.046 Y87.223 E313.45711
G1 X51.046 Y62.777 E314.49659
G1 X52.777 Y61.046 E314.60063
G1 X117.223 Y61.046 E317.34091
G1 X118.954 Y62.777 E317.44495
G1 X118.954 Y107.223 E319.33483
G1 X117.223 Y108.954 E319.43887
G1 X72.777 Y108.954 E321.32875
G1 X71.046 Y107.223 E321.43279
G1 X71.046 Y89.118 E322.20262
G1 X71.387 Y88.718 F6000.000
G1 F1800
G1 X71.282 Y88.613 E322.20892
G1 X52.918 Y88.613 E322.98979
G1 X51.387 Y87.082 E323.08182
G1 X51.387 Y62.918 E324.10929
G1 X52.918 Y61.387 E324.20132
G1 X117.082 Y61.387 E326.92960
G1 X118.613 Y62.918 E327.02163
G1 X118.613 Y107.082 E328.89950
G1 X117.082 Y108.613 E328.99153
G1 X72.918 Y108.613 E330.86941
G1 X71.387 Y107.082 E330.96144
G1 X71.387 Y88.778 E331.73975
G1 X71.728 Y88.377 F6000.000
G1 F1800
G1 X71.623 Y88.272 E331.74606
G1 X53.059 Y88.272 E332.53542
G1 X51.728 Y86.941 E332.61544
G1 X51.728 Y63.059 E333.63090
G1 X53.059 Y61.728 E333.71093
G1 X116.941 Y61.728 E336.42719
G1 X118.272 Y63.059 E336.50721
G1 X118.272 Y106.941 E338.37308
G1 X116.941 Y108.272 E338.45310
G1 X73.059 Y108.272 E340.31897
G1 X71.728 Y106.941 E340.39899
G1 X71.728 Y88.437 E341.18580
