; generated by Slic3r 1.3.0 on 2021-04-11 at 13:48:15

; external perimeters extrusion width = 0.44mm (6.76mm^3/s)
; perimeters extrusion width = 0.48mm (7.54mm^3/s)
; infill extrusion width = 0.48mm (6.28mm^3/s)
; solid infill extrusion width = 0.48mm (3.77mm^3/s)
; top infill extrusion width = 0.40mm (7.05mm^3/s)
; support material extrusion width = 0.44mm (7.89mm^3/s)

M107
M190 S100 ; set bed temperature and wait for it to be reached
M104 S240 ; set temperature
G28 ; home all axes
G1 Z5 F5000 ; lift nozzle

; Filament gcode

M109 S240 ; set temperature and wait for it to be reached
G21 ; set units to millimeters
G90 ; use absolute coordinates
M82 ; use absolute distances for extrusion
G92 E0
G1 E-6.00000 F2400.00000
G92 E0
G1 Z0.300 F6000.000
G1 X72.173 Y70.247 F6000.000
G1 E6.00000 F2400.00000
G1 F1800
G1 X73.080 Y69.368 E6.05286
G1 X73.647 Y68.868 E6.08453
G1 X74.282 Y68.350 E6.11882
G1 X75.295 Y67.601 E6.17158
G1 X75.978 Y67.147 E6.20588
G1 X77.060 Y66.501 E6.25864
G1 X77.784 Y66.117 E6.29294
G1 X78.924 Y65.581 E6.34569
G1 X79.683 Y65.269 E6.38000
G1 X80.870 Y64.847 E6.43274
G1 X81.655 Y64.612 E6.46707
G1 X82.878 Y64.308 E6.51982
G1 X83.682 Y64.151 E6.55413
G1 X84.929 Y63.968 E6.60687
G1 X85.745 Y63.891 E6.64119
G1 X87.003 Y63.832 E6.69390
G1 X87.824 Y63.835 E6.72825
G1 X89.082 Y63.899 E6.78097
G1 X89.898 Y63.983 E6.81531
G1 X91.143 Y64.170 E6.86804
G1 X91.947 Y64.333 E6.90237
G1 X93.168 Y64.642 E6.95508
G1 X93.952 Y64.883 E6.98943
G1 X95.137 Y65.310 E7.04215
G1 X95.894 Y65.627 E7.07649
G1 X97.030 Y66.168 E7.12920
G1 X97.753 Y66.558 E7.16355
G1 X98.831 Y67.208 E7.21626
G1 X99.921 Y67.960 E7.27171
G1 X100.552 Y68.444 E7.30496
G1 X101.532 Y69.275 E7.35877
G1 X102.102 Y69.808 E7.39145
G1 X102.357 Y70.075 E7.40690
G1 X102.698 Y70.491 E7.42941
G1 X102.998 Y70.938 E7.45193
G1 X103.254 Y71.411 E7.47445
G1 X103.464 Y71.905 E7.49694
G1 X103.626 Y72.419 E7.51950
G1 X103.739 Y72.945 E7.54202
G1 X103.801 Y73.480 E7.56453
G1 X103.814 Y73.910 E7.58255
G1 X103.814 Y96.091 E8.51106
G1 X103.785 Y96.696 E8.53641
G1 X103.710 Y97.209 E8.55813
G1 X103.537 Y97.881 E8.58715
G1 X103.354 Y98.366 E8.60887
G1 X103.128 Y98.833 E8.63059
G1 X102.860 Y99.278 E8.65232
G1 X102.553 Y99.696 E8.67404
G1 X102.095 Y100.199 E8.70251
G1 X101.532 Y100.725 E8.73477
G1 X100.552 Y101.556 E8.78858
G1 X99.921 Y102.040 E8.82183
G1 X98.831 Y102.792 E8.87728
G1 X97.753 Y103.442 E8.92999
G1 X97.031 Y103.832 E8.96433
G1 X95.894 Y104.373 E9.01705
G1 X95.137 Y104.690 E9.05139
G1 X93.952 Y105.117 E9.10411
G1 X93.168 Y105.358 E9.13845
G1 X91.947 Y105.667 E9.19117
G1 X91.143 Y105.830 E9.22551
G1 X89.898 Y106.017 E9.27823
G1 X89.081 Y106.101 E9.31257
G1 X88.327 Y106.149 E9.34419
G1 X87.130 Y106.169 E9.39431
G1 X86.310 Y106.145 E9.42865
G1 X85.557 Y106.094 E9.46028
G1 X84.350 Y105.956 E9.51111
G1 X83.496 Y105.816 E9.54734
G1 X82.326 Y105.564 E9.59746
G1 X81.533 Y105.354 E9.63177
G1 X80.315 Y104.965 E9.68530
G1 X79.506 Y104.661 E9.72146
G1 X78.408 Y104.186 E9.77158
G1 X77.672 Y103.826 E9.80587
G1 X76.569 Y103.216 E9.85864
G1 X75.872 Y102.785 E9.89294
G1 X74.834 Y102.069 E9.94570
G1 X74.183 Y101.573 E9.98000
G1 X73.220 Y100.759 E10.03276
G1 X72.575 Y100.156 E10.06970
G1 X71.742 Y99.296 E10.11982
G1 X71.201 Y98.682 E10.15411
G1 X70.415 Y97.695 E10.20688
G1 X69.936 Y97.031 E10.24117
G1 X69.252 Y95.972 E10.29394
G1 X68.840 Y95.264 E10.32822
G1 X68.263 Y94.144 E10.38101
G1 X67.923 Y93.399 E10.41528
G1 X67.458 Y92.226 E10.46807
G1 X67.193 Y91.452 E10.50233
G1 X66.845 Y90.240 E10.55513
G1 X66.657 Y89.443 E10.58939
G1 X66.430 Y88.202 E10.64219
G1 X66.321 Y87.391 E10.67644
G1 X66.217 Y86.134 E10.72925
G1 X66.188 Y85.317 E10.76349
G1 X66.207 Y84.055 E10.81631
G1 X66.254 Y83.299 E10.84802
G1 X66.336 Y82.485 E10.88228
G1 X66.523 Y81.237 E10.93508
G1 X66.684 Y80.435 E10.96934
G1 X66.992 Y79.212 E11.02213
G1 X67.232 Y78.429 E11.05640
G1 X67.658 Y77.242 E11.10919
G1 X67.974 Y76.487 E11.14346
G1 X68.514 Y75.347 E11.19625
G1 X68.902 Y74.626 E11.23052
G1 X69.552 Y73.546 E11.28331
G1 X70.009 Y72.866 E11.31758
G1 X70.761 Y71.854 E11.37036
G1 X71.283 Y71.223 E11.40464
G1 X72.131 Y70.290 E11.45743
G1 X72.412 Y70.483 F6000.000
G1 F1800
G1 X73.309 Y69.613 E11.50974
G1 X73.866 Y69.122 E11.54081
G1 X74.486 Y68.616 E11.57433
G1 X75.488 Y67.875 E11.62648
G1 X76.155 Y67.433 E11.66001
G1 X77.225 Y66.794 E11.71215
G1 X77.933 Y66.418 E11.74569
G1 X79.059 Y65.888 E11.79783
G1 X79.801 Y65.584 E11.83137
G1 X80.974 Y65.166 E11.88349
G1 X81.742 Y64.936 E11.91705
G1 X82.950 Y64.636 E11.96918
G1 X83.737 Y64.482 E12.00273
G1 X84.969 Y64.302 E12.05485
G1 X85.767 Y64.226 E12.08842
G1 X87.010 Y64.167 E12.14051
G1 X87.813 Y64.170 E12.17410
G1 X89.055 Y64.234 E12.22619
G1 X89.854 Y64.315 E12.25978
G1 X91.084 Y64.500 E12.31187
G1 X91.871 Y64.660 E12.34546
G1 X93.077 Y64.965 E12.39753
G1 X93.844 Y65.201 E12.43114
G1 X95.014 Y65.623 E12.48321
G1 X95.755 Y65.933 E12.51682
G1 X96.878 Y66.467 E12.56888
G1 X97.585 Y66.848 E12.60250
G1 X98.650 Y67.490 E12.65456
G1 X99.725 Y68.233 E12.70928
G1 X100.340 Y68.704 E12.74168
G1 X101.311 Y69.527 E12.79496
G1 X101.868 Y70.048 E12.82689
G1 X102.111 Y70.303 E12.84163
G1 X102.431 Y70.694 E12.86278
G1 X102.712 Y71.114 E12.88394
G1 X102.953 Y71.559 E12.90511
G1 X103.150 Y72.023 E12.92624
G1 X103.302 Y72.506 E12.94744
G1 X103.408 Y73.001 E12.96860
G1 X103.466 Y73.503 E12.98976
G1 X103.479 Y96.091 E13.93530
G1 X103.452 Y96.657 E13.95904
G1 X103.381 Y97.140 E13.97948
G1 X103.216 Y97.782 E14.00721
G1 X103.044 Y98.239 E14.02765
G1 X102.831 Y98.678 E14.04809
G1 X102.578 Y99.096 E14.06852
G1 X102.288 Y99.489 E14.08896
G1 X101.861 Y99.958 E14.11553
G1 X101.311 Y100.473 E14.14708
G1 X100.340 Y101.296 E14.20035
G1 X99.725 Y101.767 E14.23276
G1 X98.650 Y102.510 E14.28747
G1 X97.585 Y103.152 E14.33953
G1 X96.878 Y103.533 E14.37315
G1 X95.755 Y104.067 E14.42521
G1 X95.014 Y104.377 E14.45882
G1 X93.844 Y104.799 E14.51090
G1 X93.077 Y105.035 E14.54450
G1 X91.871 Y105.340 E14.59658
G1 X91.084 Y105.500 E14.63017
G1 X89.854 Y105.685 E14.68226
G1 X89.055 Y105.766 E14.71585
G1 X88.316 Y105.813 E14.74684
G1 X87.130 Y105.834 E14.79650
G1 X86.328 Y105.810 E14.83009
G1 X85.589 Y105.760 E14.86109
G1 X84.395 Y105.623 E14.91139
G1 X83.561 Y105.487 E14.94677
G1 X82.402 Y105.237 E14.99643
G1 X81.627 Y105.032 E15.02998
G1 X80.441 Y104.653 E15.08211
G1 X79.635 Y104.351 E15.11813
G1 X78.546 Y103.880 E15.16779
G1 X77.827 Y103.528 E15.20132
G1 X76.737 Y102.925 E15.25347
G1 X76.055 Y102.504 E15.28700
G1 X75.029 Y101.797 E15.33915
G1 X74.393 Y101.311 E15.37267
G1 X73.441 Y100.506 E15.42484
G1 X72.813 Y99.919 E15.46086
G1 X71.987 Y99.067 E15.51052
G1 X71.458 Y98.466 E15.54402
G1 X70.682 Y97.491 E15.59620
G1 X70.214 Y96.842 E15.62970
G1 X69.537 Y95.795 E15.68188
G1 X69.135 Y95.103 E15.71537
G1 X68.564 Y93.995 E15.76756
G1 X68.232 Y93.267 E15.80104
G1 X67.772 Y92.108 E15.85324
G1 X67.513 Y91.352 E15.88672
G1 X67.169 Y90.153 E15.93892
G1 X66.986 Y89.375 E15.97239
G1 X66.761 Y88.148 E16.02461
G1 X66.655 Y87.356 E16.05806
G1 X66.552 Y86.112 E16.11029
G1 X66.524 Y85.314 E16.14373
G1 X66.543 Y84.066 E16.19597
G1 X66.589 Y83.324 E16.22711
G1 X66.669 Y82.528 E16.26056
G1 X66.854 Y81.295 E16.31278
G1 X67.011 Y80.511 E16.34624
G1 X67.316 Y79.302 E16.39845
G1 X67.550 Y78.537 E16.43192
G1 X67.971 Y77.363 E16.48412
G1 X68.279 Y76.625 E16.51760
G1 X68.814 Y75.499 E16.56980
G1 X69.193 Y74.794 E16.60328
G1 X69.835 Y73.726 E16.65547
G1 X70.281 Y73.062 E16.68896
G1 X71.026 Y72.061 E16.74115
G1 X71.535 Y71.444 E16.77465
G1 X72.370 Y70.526 E16.82660
G1 F4800
G1 X72.441 Y70.452 E16.77789
G1 F4800
G1 X72.456 Y70.438 E16.76802
G1 F4800
G1 X72.813 Y70.081 E16.52858
G1 F4800
G1 X72.837 Y70.058 E16.51254
G1 F4800
G1 X72.855 Y70.039 E16.50010
G1 F4800
G1 X72.895 Y70.001 E16.47404
G1 F4800
G1 X72.926 Y69.972 E16.45366
G1 F4800
G1 X72.941 Y69.958 E16.44390
G1 F4800
G1 X73.309 Y69.613 E16.20446
G1 F4800
G1 X73.334 Y69.590 E16.18829
G1 F4800
G1 X73.353 Y69.572 E16.17601
G1 F4800
G1 X73.394 Y69.536 E16.14996
G1 F4800
G1 X73.426 Y69.507 E16.12943
G1 F4800
G1 X73.441 Y69.494 E16.11979
G1 F4800
G1 X73.820 Y69.161 E15.88035
G1 F4800
G1 X73.846 Y69.139 E15.86402
G1 F4800
G1 X73.866 Y69.122 E15.85191
G1 F4800
G1 X73.908 Y69.087 E15.82587
G1 F4800
G1 X73.941 Y69.059 E15.80517
G1 F4800
G1 X73.956 Y69.046 E15.79567
G1 F4800
G1 X74.346 Y68.727 E15.55624
G1 F4800
G1 X74.373 Y68.705 E15.53980
G1 F4800
G1 X74.393 Y68.689 E15.52785
G1 F4800
G1 X74.436 Y68.655 E15.50179
G1 F4800
G1 X74.470 Y68.628 E15.48093
G1 F4800
G1 X74.486 Y68.616 E15.47156
G1 F4800
G1 X74.886 Y68.309 E15.23212
G1 F4800
G1 X74.914 Y68.288 E15.21557
G1 F4800
G1 X74.934 Y68.273 E15.20378
G1 F4800
G1 X74.978 Y68.241 E15.17769
G1 F4800
G1 X75.014 Y68.215 E15.15667
G1 F4800
G1 X75.029 Y68.203 E15.14744
G1 F4800
G1 X75.439 Y67.910 E14.90801
G1 F4800
G1 X75.468 Y67.890 E14.89130
G1 F4800
G1 X75.488 Y67.875 E14.87967
G1 F4800
G1 X75.533 Y67.844 E14.85361
G1 F4800
G1 X75.570 Y67.819 E14.83242
G1 F4800
G1 X75.586 Y67.809 E14.82333
G1 F4800
G1 X76.005 Y67.529 E14.58389
G1 F4800
G1 X76.035 Y67.509 E14.56715
G1 F4800
G1 X76.055 Y67.496 E14.55568
G1 F4800
G1 X76.101 Y67.466 E14.52951
G1 F4800
G1 X76.139 Y67.443 E14.50817
G1 F4800
G1 X76.155 Y67.433 E14.49922
G1 F4800
G1 X76.583 Y67.166 E14.25978
G1 F4800
G1 X76.614 Y67.148 E14.24280
G1 F4800
G1 X76.634 Y67.135 E14.23150
G1 F4800
G1 X76.681 Y67.107 E14.20545
G1 F4800
G1 X76.720 Y67.085 E14.18394
G1 F4800
G1 X76.737 Y67.075 E14.17510
G1 F4800
G1 X77.173 Y66.823 E13.93566
G1 F4800
G1 X77.204 Y66.805 E13.91858
G1 F4800
G1 X77.225 Y66.794 E13.90744
G1 F4800
G1 X77.273 Y66.767 E13.88139
G1 F4800
G1 X77.313 Y66.746 E13.85972
G1 F4800
G1 X77.329 Y66.737 E13.85099
G1 F4800
G1 X77.774 Y66.500 E13.61155
G1 F4800
G1 X77.806 Y66.483 E13.59429
G1 F4800
G1 X77.826 Y66.472 E13.58331
G1 F4800
G1 X77.875 Y66.447 E13.55734
G1 F4800
G1 X77.916 Y66.427 E13.53551
G1 F4800
G1 X77.933 Y66.418 E13.52686
G1 F4800
G1 X78.385 Y66.196 E13.28743
G1 F4800
G1 X78.417 Y66.180 E13.27012
G1 F4800
G1 X78.438 Y66.170 E13.25930
G1 F4800
G1 X78.488 Y66.147 E13.23322
G1 F4800
G1 X78.530 Y66.127 E13.21122
G1 F4800
G1 X78.546 Y66.120 E13.20276
G1 F4800
G1 X79.005 Y65.912 E12.96332
G1 F4800
G1 X79.039 Y65.897 E12.94586
G1 F4800
G1 X79.059 Y65.888 E12.93520
G1 F4800
G1 X79.110 Y65.866 E12.90910
G1 F4800
G1 X79.153 Y65.848 E12.88694
G1 F4800
G1 X79.169 Y65.841 E12.87864
G1 F4800
G1 X79.635 Y65.649 E12.63920
G1 F4800
G1 X79.669 Y65.635 E12.62161
G1 F4800
G1 X79.690 Y65.627 E12.61111
G1 F4800
G1 X79.741 Y65.606 E12.58504
G1 F4800
G1 X79.785 Y65.590 E12.56272
G1 F4800
G1 X79.801 Y65.584 E12.55453
G1 F4800
G1 X80.273 Y65.406 E12.31509
G1 F4800
G1 X80.308 Y65.393 E12.29735
G1 F4800
G1 X80.328 Y65.386 E12.28701
G1 F4800
G1 X80.380 Y65.368 E12.26099
G1 F4800
G1 X80.424 Y65.352 E12.23851
G1 F4800
G1 X80.441 Y65.347 E12.23041
G1 F4800
G1 X80.918 Y65.185 E11.99097
G1 F4800
G1 X80.953 Y65.173 E11.97318
G1 F4800
G1 X80.974 Y65.166 E11.96301
G1 F4800
G1 X81.026 Y65.150 E11.93686
G1 F4800
G1 X81.072 Y65.136 E11.91421
G1 F4800
G1 X81.088 Y65.131 E11.90630
G1 F4800
G1 X81.570 Y64.985 E11.66686
G1 F4800
G1 X81.607 Y64.974 E11.64880
G1 F4800
G1 X81.627 Y64.968 E11.63879
G1 F4800
G1 X81.680 Y64.953 E11.61282
G1 F4800
G1 X81.726 Y64.940 E11.59002
G1 F4800
G1 X81.742 Y64.936 E11.58218
G1 F4800
G1 X82.229 Y64.806 E11.34274
G1 F4800
G1 X82.266 Y64.796 E11.32463
G1 F4800
G1 X82.286 Y64.791 E11.31478
G1 F4800
G1 X82.339 Y64.778 E11.28873
G1 F4800
G1 X82.386 Y64.767 E11.26576
G1 F4800
G1 X82.402 Y64.763 E11.25806
G1 F4800
G1 X82.671 Y64.700 E11.12660
G1 E10.82660 F2400.00000
G92 E0
G1 X99.509 Y97.302 F6000.000
G1 E6.00000 F2400.00000
G1 F1800
G1 X98.975 Y97.818 E6.03106
G1 X98.111 Y98.551 E6.07849
G1 X97.201 Y99.226 E6.12592
G1 X96.247 Y99.841 E6.17342
G1 X95.759 Y100.122 E6.19701
G1 X94.810 Y100.611 E6.24170
G1 X94.235 Y100.874 E6.26816
G1 X93.180 Y101.290 E6.31565
G1 X92.116 Y101.633 E6.36245
G1 X91.017 Y101.908 E6.40985
G1 X89.903 Y102.111 E6.45726
G1 X88.828 Y102.237 E6.50257
G1 X88.197 Y102.279 E6.52903
G1 X87.081 Y102.298 E6.57576
G1 X85.998 Y102.246 E6.62115
G1 X85.388 Y102.188 E6.64681
G1 X84.313 Y102.030 E6.69230
G1 X83.711 Y101.911 E6.71798
G1 X83.141 Y101.778 E6.74247
G1 X82.069 Y101.472 E6.78914
G1 X81.515 Y101.284 E6.81362
G1 X80.481 Y100.875 E6.86019
G1 X79.497 Y100.411 E6.90574
G1 X78.958 Y100.124 E6.93129
G1 X78.448 Y99.830 E6.95592
G1 X77.514 Y99.227 E7.00246
G1 X77.037 Y98.884 E7.02706
G1 X76.168 Y98.194 E7.07350
G1 X75.358 Y97.462 E7.11919
G1 X74.928 Y97.034 E7.14461
G1 X74.524 Y96.602 E7.16936
G1 X73.808 Y95.757 E7.21572
G1 X73.156 Y94.880 E7.26149
G1 X72.819 Y94.378 E7.28676
G1 X72.255 Y93.439 E7.33263
G1 X71.969 Y92.906 E7.35793
G1 X71.707 Y92.373 E7.38281
G1 X71.268 Y91.358 E7.42909
G1 X71.059 Y90.802 E7.45396
G1 X70.722 Y89.750 E7.50020
G1 X70.569 Y89.175 E7.52510
G1 X70.336 Y88.096 E7.57131
G1 X70.240 Y87.508 E7.59625
G1 X70.115 Y86.414 E7.64235
G1 X70.060 Y85.316 E7.68838
G1 X70.059 Y84.718 E7.71340
G1 X70.113 Y83.618 E7.75953
G1 X70.170 Y83.024 E7.78450
G1 X70.331 Y81.933 E7.83068
G1 X70.447 Y81.347 E7.85567
G1 X70.585 Y80.761 E7.88085
G1 X70.887 Y79.707 E7.92678
G1 X71.258 Y78.667 E7.97297
G1 X71.485 Y78.117 E7.99788
G1 X71.735 Y77.568 E8.02315
G1 X72.237 Y76.593 E8.06905
G1 X72.540 Y76.071 E8.09429
G1 X73.134 Y75.151 E8.14015
G1 X73.487 Y74.661 E8.16544
G1 X74.168 Y73.804 E8.21126
G1 X74.568 Y73.350 E8.23659
G1 X75.329 Y72.566 E8.28231
G1 X76.150 Y71.821 E8.32872
G1 X76.606 Y71.447 E8.35341
G1 X77.089 Y71.077 E8.37889
G1 X77.987 Y70.457 E8.42458
G1 X78.505 Y70.137 E8.45004
G1 X79.457 Y69.609 E8.49562
G1 X80.462 Y69.134 E8.54216
G1 X81.003 Y68.909 E8.56667
G1 X82.052 Y68.534 E8.61331
G1 X82.612 Y68.363 E8.63783
G1 X83.205 Y68.206 E8.66348
G1 X84.266 Y67.978 E8.70894
G1 X85.369 Y67.815 E8.75561
G1 X85.950 Y67.757 E8.78004
G1 X86.564 Y67.719 E8.80578
G1 X87.631 Y67.702 E8.85046
G1 X88.263 Y67.724 E8.87693
G1 X89.343 Y67.814 E8.92232
G1 X89.953 Y67.897 E8.94808
G1 X91.019 Y68.092 E8.99342
G1 X91.619 Y68.234 E9.01923
G1 X92.657 Y68.532 E9.06447
G1 X93.712 Y68.910 E9.11135
G1 X94.245 Y69.131 E9.13551
G1 X95.259 Y69.610 E9.18249
G1 X95.816 Y69.910 E9.20896
G1 X96.740 Y70.466 E9.25408
G1 X97.662 Y71.104 E9.30101
G1 X98.549 Y71.808 E9.34844
G1 X99.385 Y72.565 E9.39563
G1 X99.610 Y72.827 E9.41011
G1 X99.776 Y73.112 E9.42389
G1 X99.888 Y73.427 E9.43787
G1 X99.920 Y73.579 E9.44439
G1 X99.942 Y73.906 E9.45809
G1 X99.905 Y74.233 E9.47188
G1 X99.809 Y74.548 E9.48567
G1 X99.657 Y74.843 E9.49956
G1 X99.226 Y75.423 E9.52982
G1 X98.610 Y76.335 E9.57590
G1 X98.051 Y77.296 E9.62242
G1 X97.567 Y78.278 E9.66827
G1 X97.140 Y79.315 E9.71519
G1 X96.791 Y80.359 E9.76127
G1 X96.512 Y81.430 E9.80762
G1 X96.305 Y82.523 E9.85417
G1 X96.175 Y83.621 E9.90045
G1 X96.137 Y84.177 E9.92376
G1 X96.118 Y85.272 E9.96961
G1 X96.175 Y86.388 E10.01639
G1 X96.305 Y87.475 E10.06224
G1 X96.400 Y88.029 E10.08576
G1 X96.644 Y89.113 E10.13227
G1 X96.955 Y90.163 E10.17811
G1 X97.141 Y90.688 E10.20143
G1 X97.566 Y91.720 E10.24814
G1 X98.051 Y92.702 E10.29399
G1 X98.322 Y93.189 E10.31731
G1 X98.912 Y94.128 E10.36375
G1 X99.654 Y95.153 E10.41673
G1 X99.808 Y95.448 E10.43065
G1 X99.904 Y95.759 E10.44428
G1 X99.942 Y96.095 E10.45844
G1 X99.920 Y96.420 E10.47207
G1 X99.887 Y96.577 E10.47878
G1 X99.837 Y96.739 E10.48585
G1 X99.700 Y97.034 E10.49948
G1 X99.544 Y97.254 E10.51076
G1 X99.509 Y97.302 F6000.000
G1 X99.253 Y97.083 F6000.000
G1 F1800
G1 X98.750 Y97.569 E10.54006
G1 X97.903 Y98.288 E10.58658
G1 X97.010 Y98.950 E10.63309
