; generated by Slic3r 1.3.0 on 2021-03-23 at 08:52:21

; external perimeters extrusion width = 0.44mm (5.63mm^3/s)
; perimeters extrusion width = 0.48mm (5.03mm^3/s)
; infill extrusion width = 0.48mm (5.03mm^3/s)
; solid infill extrusion width = 0.48mm (2.51mm^3/s)
; top infill extrusion width = 0.40mm (6.04mm^3/s)
; support material extrusion width = 0.44mm (6.76mm^3/s)

M107
M190 S60 ; set bed temperature and wait for it to be reached
M104 S240 ; set temperature
G28 ; home all axes
G1 Z5 F5000 ; lift nozzle

; Filament gcode

M109 S240 ; set temperature and wait for it to be reached
G21 ; set units to millimeters
G90 ; use absolute coordinates
M82 ; use absolute distances for extrusion
G92 E0
G1 E-4.00000 F2400.00000
G92 E0
G1 Z0.500 F4800.000
G1 X200.727 Y227.981 F4800.000
G1 Z0.300 F4800.000
G1 E4.00000 F2400.00000
G1 F1800
G1 X203.734 Y226.122 E4.14798
G1 X207.081 Y224.985 E4.29596
G1 X210.226 Y224.628 E4.42846
G1 X259.394 Y224.032 E6.48680
G1 X299.584 Y224.031 E8.16916
G1 X303.097 Y224.430 E8.31714
G1 X306.430 Y225.606 E8.46512
G1 X309.416 Y227.499 E8.61310
G1 X311.901 Y230.013 E8.76108
G1 X313.759 Y233.020 E8.90906
G1 X314.896 Y236.368 E9.05704
G1 X315.255 Y239.702 E9.19744
G1 X315.255 Y269.702 E10.45325
G1 X314.857 Y273.215 E10.60123
G1 X313.681 Y276.549 E10.74921
G1 X311.787 Y279.534 E10.89719
G1 X309.273 Y282.019 E11.04517
G1 X306.266 Y283.878 E11.19315
G1 X302.919 Y285.015 E11.34113
G1 X299.774 Y285.372 E11.47363
G1 X250.606 Y285.968 E13.53197
G1 X210.416 Y285.969 E15.21433
G1 X206.903 Y285.570 E15.36231
G1 X203.570 Y284.394 E15.51029
G1 X200.584 Y282.501 E15.65827
G1 X198.099 Y279.987 E15.80625
G1 X196.241 Y276.980 E15.95423
G1 X195.104 Y273.632 E16.10221
G1 X194.745 Y270.298 E16.24261
G1 X194.745 Y240.298 E17.49842
G1 X195.143 Y236.785 E17.64640
G1 X196.319 Y233.451 E17.79438
G1 X198.213 Y230.466 E17.94236
G1 X200.684 Y228.023 E18.08783
G1 X201.053 Y228.152 F4800.000
G1 F1800
G1 X204.048 Y226.347 E18.23422
G1 X207.374 Y225.267 E18.38060
G1 X210.230 Y224.963 E18.50082
G1 X259.398 Y224.368 E20.55916
G1 X299.584 Y224.367 E22.24134
G1 X303.058 Y224.765 E22.38773
G1 X306.352 Y225.941 E22.53411
G1 X309.293 Y227.832 E22.68049
G1 X311.730 Y230.340 E22.82687
G1 X313.535 Y233.335 E22.97326
G1 X314.615 Y236.661 E23.11964
G1 X314.920 Y239.702 E23.24760
G1 X314.920 Y269.702 E24.50341
G1 X314.521 Y273.176 E24.64979
G1 X313.346 Y276.470 E24.79617
G1 X311.455 Y279.411 E24.94255
G1 X308.947 Y281.848 E25.08893
G1 X305.952 Y283.653 E25.23532
G1 X302.626 Y284.733 E25.38170
G1 X299.770 Y285.037 E25.50192
G1 X250.602 Y285.632 E27.56026
G1 X210.416 Y285.633 E29.24245
G1 X206.942 Y285.235 E29.38883
G1 X203.648 Y284.059 E29.53521
G1 X200.707 Y282.168 E29.68159
G1 X198.270 Y279.660 E29.82798
G1 X196.465 Y276.665 E29.97436
G1 X195.385 Y273.339 E30.12074
G1 X195.080 Y270.298 E30.24870
G1 X195.080 Y240.298 E31.50451
G1 X195.479 Y236.824 E31.65089
G1 X196.654 Y233.530 E31.79727
G1 X198.545 Y230.589 E31.94365
G1 X201.010 Y228.194 E32.08752
G1 F3840
G1 X204.048 Y226.347 E29.97651
G1 F3840
G1 X206.754 Y225.468 E28.28752
G1 E28.08752 F2400.00000
G92 E0
G1 Z0.800 F4800.000
G1 X202.970 Y230.068 F4800.000
G1 Z0.300 F4800.000
G1 E4.00000 F2400.00000
G1 F1800
G1 X205.239 Y227.799 E4.13645
G1 X253.773 Y227.799 E6.20012
G1 X253.839 Y227.771 E6.20315
G1 X254.407 Y227.203 E6.23732
G1 X304.761 Y227.203 E8.37839
G1 X312.083 Y234.525 E8.81867
G1 X312.083 Y274.880 E10.53455
G1 X304.761 Y282.201 E10.97482
G1 X256.227 Y282.201 E13.03849
G1 X256.161 Y282.229 E13.04152
G1 X255.593 Y282.797 E13.07569
G1 X205.239 Y282.797 E15.21677
G1 X197.917 Y275.475 E15.65704
G1 X197.917 Y235.120 E17.37292
G1 X202.927 Y230.110 E17.67419
G1 X203.211 Y230.309 F4800.000
G1 F1800
G1 X205.380 Y228.140 E17.80464
G1 X253.914 Y228.140 E19.86831
G1 X253.980 Y228.112 E19.87134
G1 X254.548 Y227.544 E19.90551
G1 X304.620 Y227.544 E22.03458
G1 X311.742 Y234.666 E22.46284
G1 X311.742 Y274.738 E24.16671
G1 X304.620 Y281.860 E24.59498
G1 X256.086 Y281.860 E26.65865
G1 X256.020 Y281.888 E26.66168
G1 X255.452 Y282.456 E26.69584
G1 X205.380 Y282.456 E28.82491
G1 X198.258 Y275.334 E29.25318
G1 X198.258 Y235.262 E30.95705
G1 X203.168 Y230.351 E31.25232
G1 X203.452 Y230.550 F4800.000
G1 F1800
G1 X205.521 Y228.481 E31.37676
G1 X254.055 Y228.481 E33.44043
G1 X254.121 Y228.453 E33.44346
G1 X254.689 Y227.885 E33.47763
G1 X304.479 Y227.885 E35.59469
G1 X311.401 Y234.807 E36.01095
G1 X311.401 Y274.597 E37.70281
G1 X304.479 Y281.519 E38.11907
G1 X255.945 Y281.519 E40.18274
G1 X255.879 Y281.547 E40.18577
G1 X255.311 Y282.115 E40.21993
G1 X205.521 Y282.115 E42.33699
G1 X198.599 Y275.193 E42.75325
G1 X198.599 Y235.403 E44.44511
G1 X203.409 Y230.592 E44.73438
G1 X203.693 Y230.791 F4800.000
G1 F1800
G1 X205.662 Y228.821 E44.85282
G1 X254.196 Y228.821 E46.91649
G1 X254.262 Y228.794 E46.91952
G1 X254.830 Y228.226 E46.95368
G1 X304.338 Y228.226 E49.05874
G1 X311.060 Y234.949 E49.46299
G1 X311.060 Y274.456 E51.14284
G1 X304.338 Y281.179 E51.54709
G1 X255.804 Y281.179 E53.61076
G1 X255.738 Y281.206 E53.61379
G1 X255.170 Y281.774 E53.64795
G1 X205.662 Y281.774 E55.75301
G1 X198.940 Y275.051 E56.15726
G1 X198.940 Y235.544 E57.83711
G1 X203.650 Y230.833 E58.12037
G1 X203.934 Y231.032 F4800.000
G1 F1800
G1 X205.804 Y229.162 E58.23280
G1 X254.338 Y229.162 E60.29647
G1 X254.403 Y229.135 E60.29950
G1 X254.972 Y228.567 E60.33367
G1 X304.196 Y228.567 E62.42671
G1 X310.719 Y235.090 E62.81896
G1 X310.719 Y274.315 E64.48680
G1 X304.196 Y280.838 E64.87904
G1 X255.662 Y280.838 E66.94271
G1 X255.597 Y280.865 E66.94574
G1 X255.028 Y281.433 E66.97991
G1 X205.804 Y281.433 E69.07295
G1 X199.281 Y274.910 E69.46519
G1 X199.281 Y235.685 E71.13304
G1 X203.891 Y231.075 E71.41029
G1 X204.175 Y231.273 F4800.000
G1 F1800
G1 X205.945 Y229.503 E71.51672
G1 X254.479 Y229.503 E73.58039
G1 X254.545 Y229.476 E73.58342
G1 X255.113 Y228.908 E73.61759
G1 X304.055 Y228.908 E75.69862
G1 X310.379 Y235.231 E76.07886
G1 X310.379 Y274.174 E77.73469
G1 X304.055 Y280.497 E78.11493
G1 X255.521 Y280.497 E80.17860
G1 X255.455 Y280.524 E80.18163
G1 X254.887 Y281.092 E80.21579
G1 X205.945 Y281.092 E82.29683
G1 X199.621 Y274.769 E82.67706
G1 X199.621 Y235.826 E84.33290
G1 X204.132 Y231.316 E84.60415
G1 X204.416 Y231.514 F4800.000
G1 F1800
G1 X206.086 Y229.844 E84.70457
G1 X254.620 Y229.844 E86.76825
G1 X254.686 Y229.817 E86.77127
G1 X255.254 Y229.249 E86.80544
G1 X303.914 Y229.249 E88.87447
G1 X310.038 Y235.372 E89.24269
G1 X310.038 Y274.032 E90.88652
G1 X303.914 Y280.156 E91.25474
G1 X255.380 Y280.156 E93.31842
G1 X255.314 Y280.183 E93.32144
G1 X254.746 Y280.751 E93.35561
G1 X206.086 Y280.751 E95.42464
G1 X199.962 Y274.628 E95.79286
G1 X199.962 Y235.968 E97.43669
G1 X204.373 Y231.557 E97.70194
G1 X204.657 Y231.755 F4800.000
G1 F1800
G1 X206.227 Y230.185 E97.79636
G1 X254.605 Y230.185 E99.85338
G1 X254.628 Y230.208 E99.85478
G1 X254.776 Y230.208 E99.86109
G1 X255.395 Y229.590 E99.89830
G1 X303.773 Y229.590 E101.95532
G1 X309.697 Y235.513 E102.31153
G1 X309.697 Y273.891 E103.94335
G1 X303.773 Y279.815 E104.29957
G1 X255.395 Y279.815 E106.35659
G1 X255.372 Y279.792 E106.35799
G1 X255.224 Y279.792 E106.36430
G1 X254.605 Y280.410 E106.40151
G1 X206.227 Y280.410 E108.45852
G1 X200.303 Y274.487 E108.81474
G1 X200.303 Y236.109 E110.44656
G1 X204.615 Y231.798 E110.70580
G1 X204.898 Y231.996 F4800.000
G1 F1800
G1 X206.368 Y230.526 E110.79422
G1 X254.464 Y230.526 E112.83923
G1 X254.628 Y230.691 E112.84913
G1 X254.776 Y230.691 E112.85543
G1 X255.536 Y229.931 E112.90113
G1 X303.632 Y229.931 E114.94614
G1 X309.356 Y235.655 E115.29035
G1 X309.356 Y273.750 E116.91016
G1 X303.632 Y279.474 E117.25437
G1 X255.536 Y279.474 E119.29938
G1 X255.372 Y279.309 E119.30927
G1 X255.224 Y279.309 E119.31558
G1 X254.464 Y280.069 E119.36128
G1 X206.368 Y280.069 E121.40629
G1 X200.644 Y274.345 E121.75050
G1 X200.644 Y236.250 E123.37031
G1 X204.856 Y232.039 E123.62355
G1 F3840
G1 X206.368 Y230.526 E122.35327
G1 F3840
G1 X210.629 Y230.526 E119.82355
G1 E119.62355 F2400.00000
G92 E0
G1 Z0.800 F4800.000
G1 X206.416 Y235.702 F4800.000
G1 X254.776 Y231.173 F4800.000
G1 Z0.300 F4800.000
G1 E4.00000 F2400.00000
G1 F1800
G1 X255.678 Y230.271 E4.05419
G1 X303.490 Y230.271 E6.08719
G1 X309.015 Y235.796 E6.41939
G1 X309.015 Y273.609 E8.02720
G1 X303.490 Y279.133 E8.35940
G1 X255.678 Y279.133 E10.39240
G1 X255.372 Y278.827 E10.41078
G1 X255.224 Y278.827 E10.41709
G1 X254.322 Y279.729 E10.47128
G1 X206.510 Y279.729 E12.50428
G1 X200.985 Y274.204 E12.83648
G1 X200.985 Y236.391 E14.44428
G1 X206.510 Y230.867 E14.77648
G1 X254.322 Y230.867 E16.80949
G1 X254.628 Y231.173 E16.82787
G1 X254.716 Y231.173 E16.83163
G1 X254.776 Y231.655 F4800.000
G1 F1800
G1 X255.819 Y230.612 E16.89431
G1 X303.349 Y230.612 E18.91530
G1 X308.674 Y235.937 E19.23549
G1 X308.674 Y273.467 E20.83129
G1 X303.349 Y278.792 E21.15148
G1 X255.819 Y278.792 E23.17247
G1 X255.372 Y278.345 E23.19935
G1 X255.224 Y278.345 E23.20566
G1 X254.181 Y279.388 E23.26834
G1 X206.651 Y279.388 E25.28933
G1 X201.326 Y274.063 E25.60952
G1 X201.326 Y236.533 E27.20532
G1 X206.651 Y231.208 E27.52551
G1 X254.181 Y231.208 E29.54650
G1 X254.628 Y231.655 E29.57338
G1 X254.716 Y231.655 E29.57713
G1 X254.776 Y232.137 F4800.000
G1 F1800
G1 X255.960 Y230.953 E29.64831
G1 X303.208 Y230.953 E31.65729
G1 X308.333 Y236.078 E31.96548
G1 X308.333 Y273.326 E33.54926
G1 X303.208 Y278.451 E33.85744
G1 X255.960 Y278.451 E35.86643
G1 X255.372 Y277.863 E35.90180
G1 X255.224 Y277.863 E35.90810
G1 X254.040 Y279.047 E35.97928
G1 X206.792 Y279.047 E37.98826
G1 X201.667 Y273.922 E38.29645
G1 X201.667 Y236.674 E39.88023
G1 X206.792 Y231.549 E40.18841
G1 X254.040 Y231.549 E42.19740
G1 X254.628 Y232.137 E42.23277
G1 X254.716 Y232.137 E42.23652
G1 X254.776 Y232.619 F4800.000
G1 F1800
G1 X256.101 Y231.294 E42.31619
G1 X303.067 Y231.294 E44.31316
G1 X307.992 Y236.220 E44.60934
G1 X307.992 Y273.185 E46.18111
G1 X303.067 Y278.110 E46.47729
G1 X256.101 Y278.110 E48.47427
G1 X255.372 Y277.381 E48.51813
G1 X255.224 Y277.381 E48.52443
G1 X253.899 Y278.706 E48.60410
G1 X206.933 Y278.706 E50.60107
G1 X202.008 Y273.780 E50.89725
G1 X202.008 Y236.815 E52.46902
G1 X206.933 Y231.890 E52.76520
G1 X253.899 Y231.890 E54.76217
G1 X254.628 Y232.619 E54.80604
G1 X254.716 Y232.619 E54.80979
G1 X254.776 Y233.101 F4800.000
G1 F1800
G1 X256.242 Y231.635 E54.89795
G1 X302.926 Y231.635 E56.88291
G1 X307.651 Y236.361 E57.16708
G1 X307.651 Y273.044 E58.72685
G1 X302.926 Y277.769 E59.01101
G1 X256.242 Y277.769 E60.99598
G1 X255.372 Y276.899 E61.04833
G1 X255.224 Y276.899 E61.05464
G1 X253.758 Y278.365 E61.14280
G1 X207.074 Y278.365 E63.12776
G1 X202.349 Y273.639 E63.41193
G1 X202.349 Y236.956 E64.97170
G1 X207.074 Y232.231 E65.25586
G1 X253.758 Y232.231 E67.24083
G1 X254.628 Y233.101 E67.29318
G1 X254.716 Y233.101 E67.29694
G1 X254.776 Y233.583 F4800.000
G1 F1800
G1 X256.384 Y231.976 E67.39359
G1 X302.784 Y231.976 E69.36655
G1 X307.310 Y236.502 E69.63870
G1 X307.310 Y272.903 E71.18646
G1 X302.784 Y277.429 E71.45862
G1 X256.384 Y277.429 E73.43158
G1 X255.372 Y276.417 E73.49242
G1 X255.224 Y276.417 E73.49873
G1 X253.616 Y278.024 E73.59538
G1 X207.216 Y278.024 E75.56834
G1 X202.690 Y273.498 E75.84049
G1 X202.690 Y237.097 E77.38825
G1 X207.216 Y232.571 E77.66041
G1 X253.616 Y232.571 E79.63337
G1 X254.628 Y233.583 E79.69421
G1 X254.716 Y233.583 E79.69797
G1 X254.776 Y234.065 F4800.000
G1 F1800
G1 X256.525 Y232.317 E79.80311
G1 X302.643 Y232.317 E81.76406
G1 X306.969 Y236.643 E82.02421
G1 X306.969 Y272.761 E83.55996
G1 X302.643 Y277.088 E83.82011
G1 X256.525 Y277.088 E85.78106
G1 X255.372 Y275.935 E85.85039
G1 X255.224 Y275.935 E85.85670
G1 X253.475 Y277.683 E85.96184
G1 X207.357 Y277.683 E87.92279
G1 X203.031 Y273.357 E88.18294
G1 X203.031 Y237.239 E89.71869
G1 X207.357 Y232.912 E89.97884
G1 X253.475 Y232.912 E91.93979
G1 X254.628 Y234.065 E92.00912
G1 X254.716 Y234.065 E92.01288
G1 X254.776 Y234.547 F4800.000
G1 F1800
G1 X256.666 Y232.658 E92.12651
G1 X302.502 Y232.658 E94.07545
G1 X306.629 Y236.784 E94.32359
G1 X306.629 Y272.620 E95.84733
G1 X302.502 Y276.747 E96.09547
G1 X256.666 Y276.747 E98.04442
G1 X255.372 Y275.453 E98.12224
G1 X255.224 Y275.453 E98.12855
G1 X253.334 Y277.342 E98.24218
G1 X207.498 Y277.342 E100.19112
G1 X203.371 Y273.216 E100.43926
G1 X203.371 Y237.380 E101.96300
G1 X207.498 Y233.253 E102.21114
G1 X253.334 Y233.253 E104.16009
G1 X254.628 Y234.547 E104.23791
G1 X254.716 Y234.547 E104.24167
G1 X254.776 Y235.030 F4800.000
G1 F1800
G1 X256.807 Y232.999 E104.36379
G1 X302.361 Y232.999 E106.30072
G1 X306.288 Y236.926 E106.53686
G1 X306.288 Y272.479 E108.04859
G1 X302.361 Y276.406 E108.28472
G1 X256.807 Y276.406 E110.22166
G1 X255.372 Y274.970 E110.30797
G1 X255.224 Y274.970 E110.31428
G1 X253.193 Y277.001 E110.43640
G1 X207.639 Y277.001 E112.37333
G1 X203.712 Y273.074 E112.60947
G1 X203.712 Y237.521 E114.12120
G1 X207.639 Y233.594 E114.35733
G1 X253.193 Y233.594 E116.29427
G1 X254.628 Y235.030 E116.38058
G1 X254.716 Y235.030 E116.38434
G1 X254.776 Y235.512 F4800.000
G1 F1800
G1 X256.949 Y233.340 E116.51495
G1 X302.220 Y233.340 E118.43988
G1 X305.947 Y237.067 E118.66400
G1 X305.947 Y272.338 E120.16373
G1 X302.220 Y276.065 E120.38785
G1 X256.949 Y276.065 E122.31278
G1 X255.372 Y274.488 E122.40758
G1 X255.224 Y274.488 E122.41389
G1 X253.051 Y276.660 E122.54450
G1 X207.780 Y276.660 E124.46943
G1 X204.053 Y272.933 E124.69355
G1 X204.053 Y237.662 E126.19328
G1 X207.780 Y233.935 E126.41740
G1 X253.051 Y233.935 E128.34233
G1 X254.628 Y235.512 E128.43714
G1 X254.716 Y235.512 E128.44089
G1 X254.776 Y235.994 F4800.000
G1 F1800
G1 X257.090 Y233.681 E128.57999
G1 X302.078 Y233.681 E130.49291
G1 X305.606 Y237.208 E130.70503
G1 X305.606 Y272.197 E132.19274
G1 X302.078 Y275.724 E132.40486
G1 X257.090 Y275.724 E134.31778
G1 X255.372 Y274.006 E134.42108
G1 X255.224 Y274.006 E134.42738
G1 X252.910 Y276.319 E134.56649
G1 X207.922 Y276.319 E136.47940
G1 X204.394 Y272.792 E136.69152
G1 X204.394 Y237.803 E138.17924
G1 X207.922 Y234.276 E138.39135
G1 X252.910 Y234.276 E140.30427
G1 X254.628 Y235.994 E140.40757
G1 X254.716 Y235.994 E140.41132
G1 X254.776 Y236.476 F4800.000
G1 F1800
G1 X257.231 Y234.021 E140.55892
G1 X301.937 Y234.021 E142.45983
G1 X305.265 Y237.349 E142.65993
G1 X305.265 Y272.055 E144.13564
G1 X301.937 Y275.383 E144.33575
G1 X257.231 Y275.383 E146.23666
G1 X255.372 Y273.524 E146.34845
G1 X255.224 Y273.524 E146.35475
G1 X252.769 Y275.979 E146.50235
G1 X208.063 Y275.979 E148.40326
G1 X204.735 Y272.651 E148.60337
G1 X204.735 Y237.945 E150.07907
G1 X208.063 Y234.617 E150.27918
G1 X252.769 Y234.617 E152.18009
G1 X254.628 Y236.476 E152.29188
G1 X254.716 Y236.476 E152.29563
G1 X254.776 Y236.958 F4800.000
G1 F1800
G1 X257.372 Y234.362 E152.45172
G1 X301.796 Y234.362 E154.34062
G1 X304.924 Y237.490 E154.52872
G1 X304.924 Y271.914 E155.99242
G1 X301.796 Y275.042 E156.18052
G1 X257.372 Y275.042 E158.06942
G1 X255.372 Y273.042 E158.18970
G1 X255.224 Y273.042 E158.19601
G1 X252.628 Y275.638 E158.35209
G1 X208.204 Y275.638 E160.24099
G1 X205.076 Y272.510 E160.42909
G1 X205.076 Y238.086 E161.89279
G1 X208.204 Y234.958 E162.08089
G1 X252.628 Y234.958 E163.96979
G1 X254.628 Y236.958 E164.09007
G1 X254.716 Y236.958 E164.09383
G1 X254.776 Y237.440 F4800.000
G1 F1800
G1 X257.513 Y234.703 E164.25841
G1 X301.655 Y234.703 E166.13530
G1 X304.583 Y237.632 E166.31139
G1 X304.583 Y271.773 E167.76308
G1 X301.655 Y274.701 E167.93917
G1 X257.513 Y274.701 E169.81606
G1 X255.372 Y272.560 E169.94484
G1 X255.224 Y272.560 E169.95114
G1 X252.487 Y275.297 E170.11572
G1 X208.345 Y275.297 E171.99261
