; generated by Slic3r 1.3.0 on 2021-04-14 at 22:01:55

; external perimeters extrusion width = 0.44mm (6.76mm^3/s)
; perimeters extrusion width = 0.48mm (7.54mm^3/s)
; infill extrusion width = 0.48mm (6.28mm^3/s)
; solid infill extrusion width = 0.48mm (3.77mm^3/s)
; top infill extrusion width = 0.40mm (7.05mm^3/s)
; support material extrusion width = 0.44mm (7.89mm^3/s)

M107
M190 S100 ; set bed temperature and wait for it to be reached
M104 S240 ; set temperature
G28 ; home all axes
G1 Z5 F5000 ; lift nozzle

; Filament gcode

M109 S240 ; set temperature and wait for it to be reached
G21 ; set units to millimeters
G90 ; use absolute coordinates
M82 ; use absolute distances for extrusion
G92 E0
G1 E-6.00000 F2400.00000
G92 E0
G1 Z0.300 F4800.000
G1 X43.802 Y47.833 F4800.000
G1 E6.00000 F2400.00000
G1 F1800
G1 X47.643 Y44.712 E6.20719
G1 X51.937 Y42.250 E6.41437
G1 X56.570 Y40.510 E6.62156
G1 X61.423 Y39.538 E6.82874
G1 X65.000 Y39.329 E6.97872
G1 X105.000 Y39.329 E8.65313
G1 X109.933 Y39.728 E8.86031
G1 X114.738 Y40.916 E9.06750
G1 X119.289 Y42.861 E9.27468
G1 X123.469 Y45.513 E9.48187
G1 X127.167 Y48.802 E9.68905
G1 X130.288 Y52.643 E9.89624
G1 X132.750 Y56.937 E10.10343
G1 X134.490 Y61.570 E10.31061
G1 X135.462 Y66.423 E10.51780
G1 X135.671 Y70.000 E10.66777
G1 X135.671 Y120.000 E12.76079
G1 X135.272 Y124.933 E12.96797
G1 X134.084 Y129.738 E13.17516
G1 X132.139 Y134.289 E13.38234
G1 X129.487 Y138.469 E13.58953
G1 X126.198 Y142.167 E13.79671
G1 X122.357 Y145.288 E14.00390
G1 X118.063 Y147.750 E14.21108
G1 X113.430 Y149.490 E14.41827
G1 X108.577 Y150.462 E14.62545
G1 X105.000 Y150.671 E14.77543
G1 X65.000 Y150.671 E16.44984
G1 X60.067 Y150.272 E16.65703
G1 X55.262 Y149.084 E16.86421
G1 X50.711 Y147.139 E17.07140
G1 X46.531 Y144.487 E17.27858
G1 X42.833 Y141.198 E17.48577
G1 X39.712 Y137.357 E17.69295
G1 X37.250 Y133.063 E17.90014
G1 X35.510 Y128.430 E18.10732
G1 X34.538 Y123.577 E18.31451
G1 X34.329 Y120.000 E18.46448
G1 X34.329 Y70.000 E20.55750
G1 X34.728 Y65.067 E20.76468
G1 X35.916 Y60.262 E20.97187
G1 X37.861 Y55.711 E21.17906
G1 X40.513 Y51.531 E21.38624
G1 X43.762 Y47.878 E21.59091
G1 X44.132 Y47.983 F4800.000
G1 F1800
G1 X47.967 Y44.897 E21.79696
G1 X52.251 Y42.473 E22.00301
G1 X56.871 Y40.774 E22.20905
G1 X61.704 Y39.844 E22.41510
G1 X65.000 Y39.664 E22.55326
G1 X105.000 Y39.664 E24.22767
G1 X109.906 Y40.064 E24.43372
G1 X114.683 Y41.251 E24.63977
G1 X119.205 Y43.196 E24.84581
G1 X123.353 Y45.846 E25.05186
G1 X127.017 Y49.132 E25.25791
G1 X130.103 Y52.967 E25.46395
G1 X132.527 Y57.251 E25.67000
G1 X134.226 Y61.871 E25.87605
G1 X135.156 Y66.704 E26.08209
G1 X135.336 Y70.000 E26.22025
G1 X135.336 Y120.000 E28.31327
G1 X134.936 Y124.906 E28.51932
G1 X133.749 Y129.683 E28.72536
G1 X131.804 Y134.205 E28.93141
G1 X129.154 Y138.353 E29.13746
G1 X125.868 Y142.017 E29.34350
G1 X122.033 Y145.103 E29.54955
G1 X117.749 Y147.527 E29.75560
G1 X113.129 Y149.226 E29.96164
G1 X108.296 Y150.156 E30.16769
G1 X105.000 Y150.336 E30.30585
G1 X65.000 Y150.336 E31.98026
G1 X60.094 Y149.936 E32.18631
G1 X55.317 Y148.749 E32.39235
G1 X50.795 Y146.804 E32.59840
G1 X46.647 Y144.154 E32.80445
G1 X42.983 Y140.868 E33.01049
G1 X39.897 Y137.033 E33.21654
G1 X37.473 Y132.749 E33.42259
G1 X35.774 Y128.129 E33.62863
G1 X34.844 Y123.296 E33.83468
G1 X34.664 Y120.000 E33.97284
G1 X34.664 Y70.000 E36.06586
G1 X35.064 Y65.094 E36.27190
G1 X36.251 Y60.317 E36.47795
G1 X38.196 Y55.795 E36.68400
G1 X40.846 Y51.647 E36.89004
G1 X44.092 Y48.027 E37.09358
G1 F3840
G1 X47.967 Y44.897 E34.13583
G1 F3840
G1 X51.987 Y42.623 E31.39358
G1 E31.09358 F2400.00000
G92 E0
G1 X47.778 Y51.629 F4800.000
G1 E6.00000 F2400.00000
G1 F1800
G1 X54.575 Y44.832 E6.40413
G1 X115.425 Y44.832 E8.96240
G1 X130.168 Y59.575 E9.83899
G1 X130.168 Y130.425 E12.81769
G1 X115.425 Y145.168 E13.69428
G1 X54.575 Y145.168 E16.25255
G1 X39.832 Y130.425 E17.12914
G1 X39.832 Y59.575 E20.10784
G1 X47.736 Y51.671 E20.57778
G1 X48.016 Y51.867 F4800.000
G1 F1800
G1 X54.715 Y45.169 E20.97603
G1 X115.285 Y45.169 E23.52257
G1 X129.831 Y59.715 E24.38741
G1 X129.831 Y130.285 E27.35437
G1 X115.285 Y144.831 E28.21922
G1 X54.715 Y144.831 E30.76576
G1 X40.169 Y130.285 E31.63060
G1 X40.169 Y59.715 E34.59756
G1 X47.974 Y51.909 E35.06163
G1 X48.255 Y52.105 F4800.000
G1 F1800
G1 X54.854 Y45.506 E35.45402
G1 X115.146 Y45.506 E37.98881
G1 X129.494 Y59.854 E38.84192
G1 X129.494 Y130.146 E41.79714
G1 X115.146 Y144.494 E42.65024
G1 X54.854 Y144.494 E45.18504
G1 X40.506 Y130.146 E46.03815
G1 X40.506 Y59.854 E48.99337
G1 X48.212 Y52.148 E49.45156
G1 X48.493 Y52.344 F4800.000
G1 F1800
G1 X54.994 Y45.843 E49.83808
G1 X115.006 Y45.843 E52.36114
G1 X129.157 Y59.994 E53.20250
G1 X129.157 Y130.006 E56.14598
G1 X115.006 Y144.157 E56.98735
G1 X54.994 Y144.157 E59.51041
G1 X40.843 Y130.006 E60.35177
G1 X40.843 Y59.994 E63.29525
G1 X48.451 Y52.386 E63.74758
G1 X48.731 Y52.582 F4800.000
G1 F1800
G1 X55.133 Y46.180 E64.12822
G1 X114.867 Y46.180 E66.63954
G1 X128.820 Y60.133 E67.46917
G1 X128.820 Y129.867 E70.40091
G1 X114.867 Y143.820 E71.23053
G1 X55.133 Y143.820 E73.74185
G1 X41.180 Y129.867 E74.57147
G1 X41.180 Y60.133 E77.50321
G1 X48.689 Y52.625 E77.94967
G1 X48.970 Y52.820 F4800.000
G1 F1800
G1 X55.273 Y46.517 E78.32445
G1 X114.727 Y46.517 E80.82402
G1 X128.483 Y60.273 E81.64191
G1 X128.483 Y129.727 E84.56191
G1 X114.727 Y143.483 E85.37979
G1 X55.273 Y143.483 E87.87937
G1 X41.517 Y129.727 E88.69725
G1 X41.517 Y60.273 E91.61725
G1 X48.927 Y52.863 E92.05784
G1 X49.208 Y53.059 F4800.000
G1 F1800
G1 X55.413 Y46.854 E92.42675
G1 X114.587 Y46.854 E94.91458
G1 X128.146 Y60.413 E95.72073
G1 X128.146 Y129.587 E98.62899
G1 X114.587 Y143.146 E99.43513
G1 X55.413 Y143.146 E101.92297
G1 X41.854 Y129.587 E102.72912
G1 X41.854 Y60.413 E105.63738
G1 X49.166 Y53.101 E106.07209
G1 X49.446 Y53.297 F4800.000
G1 F1800
G1 X55.552 Y47.191 E106.43513
G1 X114.448 Y47.191 E108.91123
G1 X127.809 Y60.552 E109.70563
G1 X127.809 Y129.448 E112.60215
G1 X114.448 Y142.809 E113.39655
G1 X55.552 Y142.809 E115.87265
G1 X42.191 Y129.448 E116.66706
G1 X42.191 Y60.552 E119.56358
G1 X49.404 Y53.340 E119.99242
G1 X49.685 Y53.536 F4800.000
G1 F1800
G1 X55.692 Y47.528 E120.34959
G1 X114.308 Y47.528 E122.81395
G1 X127.472 Y60.692 E123.59661
G1 X127.472 Y129.308 E126.48139
G1 X114.308 Y142.472 E127.26405
G1 X55.692 Y142.472 E129.72841
G1 X42.528 Y129.308 E130.51108
G1 X42.528 Y60.692 E133.39586
G1 X49.642 Y53.578 E133.81883
G1 X49.923 Y53.774 F4800.000
G1 F1800
G1 X55.832 Y47.865 E134.17013
G1 X114.168 Y47.865 E136.62274
G1 X127.135 Y60.832 E137.39367
G1 X127.135 Y129.168 E140.26671
G1 X114.168 Y142.135 E141.03763
G1 X55.832 Y142.135 E143.49025
G1 X42.865 Y129.168 E144.26118
G1 X42.865 Y60.832 E147.13421
G1 X49.881 Y53.816 E147.55132
G1 X50.161 Y54.012 F4800.000
G1 F1800
G1 X55.971 Y48.203 E147.89675
G1 X114.029 Y48.203 E150.33762
G1 X126.797 Y60.971 E151.09681
G1 X126.797 Y129.029 E153.95811
G1 X114.029 Y141.797 E154.71729
G1 X55.971 Y141.797 E157.15817
G1 X43.203 Y129.029 E157.91735
G1 X43.203 Y60.971 E160.77865
G1 X50.119 Y54.055 E161.18989
G1 X50.400 Y54.251 F4800.000
G1 F1800
G1 X56.111 Y48.540 E161.52945
G1 X113.889 Y48.540 E163.95858
G1 X126.460 Y61.111 E164.70603
G1 X126.460 Y128.889 E167.55559
G1 X113.889 Y141.460 E168.30303
G1 X56.111 Y141.460 E170.73217
G1 X43.540 Y128.889 E171.47961
G1 X43.540 Y61.111 E174.32917
G1 X50.357 Y54.293 E174.73454
G1 X50.638 Y54.489 F4800.000
G1 F1800
G1 X56.250 Y48.877 E175.06822
G1 X113.750 Y48.877 E177.48562
G1 X126.123 Y61.250 E178.22132
G1 X126.123 Y128.750 E181.05914
G1 X113.750 Y141.123 E181.79485
G1 X56.250 Y141.123 E184.21224
G1 X43.877 Y128.750 E184.94795
G1 X43.877 Y61.250 E187.78577
G1 X50.596 Y54.531 E188.18526
G1 X50.877 Y54.727 F4800.000
G1 F1800
G1 X56.390 Y49.214 E188.51308
G1 X113.610 Y49.214 E190.91874
G1 X125.786 Y61.390 E191.64270
G1 X125.786 Y128.610 E194.46878
G1 X113.610 Y140.786 E195.19274
G1 X56.390 Y140.786 E197.59840
G1 X44.214 Y128.610 E198.32236
G1 X44.214 Y61.390 E201.14844
G1 X50.834 Y54.770 E201.54207
G1 X51.115 Y54.966 F4800.000
G1 F1800
G1 X56.530 Y49.551 E201.86402
G1 X113.470 Y49.551 E204.25793
G1 X125.449 Y61.530 E204.97016
G1 X125.449 Y128.470 E207.78450
G1 X113.470 Y140.449 E208.49672
G1 X56.530 Y140.449 E210.89064
G1 X44.551 Y128.470 E211.60286
G1 X44.551 Y61.530 E214.41720
G1 X51.072 Y55.008 E214.80496
G1 X51.353 Y55.204 F4800.000
G1 F1800
G1 X56.669 Y49.888 E215.12103
G1 X113.331 Y49.888 E217.50321
G1 X125.112 Y61.669 E218.20369
G1 X125.112 Y128.331 E221.00629
G1 X113.331 Y140.112 E221.70678
G1 X56.669 Y140.112 E224.08895
G1 X44.888 Y128.331 E224.78944
G1 X44.888 Y61.669 E227.59203
G1 X51.311 Y55.246 E227.97392
G1 X51.592 Y55.442 F4800.000
G1 F1800
G1 X56.809 Y50.225 E228.28413
G1 X113.191 Y50.225 E230.65456
G1 X124.775 Y61.809 E231.34331
G1 X124.775 Y128.191 E234.13417
G1 X113.191 Y139.775 E234.82291
G1 X56.809 Y139.775 E237.19335
G1 X45.225 Y128.191 E237.88209
G1 X45.225 Y61.809 E240.67295
G1 X51.549 Y55.485 E241.04897
G1 X51.830 Y55.681 F4800.000
G1 F1800
G1 X56.949 Y50.562 E241.35330
G1 X113.051 Y50.562 E243.71200
G1 X124.438 Y61.949 E244.38900
G1 X124.438 Y128.051 E247.16812
G1 X113.051 Y139.438 E247.84512
G1 X56.949 Y139.438 E250.20382
G1 X45.562 Y128.051 E250.88082
G1 X45.562 Y61.949 E253.65994
G1 X51.788 Y55.723 E254.03009
G1 X52.068 Y55.919 F4800.000
G1 F1800
G1 X57.088 Y50.899 E254.32855
G1 X112.912 Y50.899 E256.67551
G1 X124.101 Y62.088 E257.34077
G1 X124.101 Y127.912 E260.10815
G1 X112.912 Y139.101 E260.77342
G1 X57.088 Y139.101 E263.12037
G1 X45.899 Y127.912 E263.78564
G1 X45.899 Y62.088 E266.55302
G1 X52.026 Y55.961 E266.91729
G1 X52.307 Y56.157 F4800.000
G1 F1800
G1 X57.228 Y51.236 E267.20989
G1 X112.772 Y51.236 E269.54510
G1 X123.764 Y62.228 E270.19863
G1 X123.764 Y127.772 E272.95427
G1 X112.772 Y138.764 E273.60779
G1 X57.228 Y138.764 E275.94300
G1 X46.236 Y127.772 E276.59653
G1 X46.236 Y62.228 E279.35217
G1 X52.264 Y56.200 E279.71057
G1 X52.545 Y56.396 F4800.000
G1 F1800
G1 X57.367 Y51.573 E279.99730
G1 X112.633 Y51.573 E282.32077
G1 X123.427 Y62.367 E282.96256
G1 X123.427 Y127.633 E285.70646
G1 X112.633 Y138.427 E286.34824
G1 X57.367 Y138.427 E288.67172
G1 X46.573 Y127.633 E289.31350
G1 X46.573 Y62.367 E292.05740
G1 X52.503 Y56.438 E292.40993
G1 X52.783 Y56.634 F4800.000
G1 F1800
G1 X57.507 Y51.910 E292.69079
G1 X112.493 Y51.910 E295.00253
G1 X123.090 Y62.507 E295.63257
G1 X123.090 Y127.493 E298.36473
G1 X112.493 Y138.090 E298.99477
G1 X57.507 Y138.090 E301.30651
G1 X46.910 Y127.493 E301.93655
G1 X46.910 Y62.507 E304.66871
G1 X52.741 Y56.676 E305.01538
G1 X53.022 Y56.872 F4800.000
G1 F1800
G1 X57.647 Y52.247 E305.29036
G1 X112.353 Y52.247 E307.59036
G1 X122.753 Y62.647 E308.20866
G1 X122.753 Y127.353 E310.92908
G1 X112.353 Y137.753 E311.54738
G1 X57.647 Y137.753 E313.84738
G1 X47.247 Y127.353 E314.46568
G1 X47.247 Y62.647 E317.18610
G1 X52.979 Y56.915 E317.52690
G1 X53.260 Y57.111 F4800.000
G1 F1800
G1 X57.786 Y52.585 E317.79601
G1 X112.214 Y52.585 E320.08427
G1 X122.415 Y62.786 E320.69083
G1 X122.415 Y127.214 E323.39951
G1 X112.214 Y137.415 E324.00607
G1 X57.786 Y137.415 E326.29433
G1 X47.585 Y127.214 E326.90089
G1 X47.585 Y62.786 E329.60957
G1 X53.218 Y57.153 E329.94449
G1 X53.498 Y57.349 F4800.000
G1 F1800
G1 X57.926 Y52.922 E330.20774
G1 X112.074 Y52.922 E332.48426
G1 X122.078 Y62.926 E333.07908
G1 X122.078 Y127.074 E335.77602
G1 X112.074 Y137.078 E336.37084
G1 X57.926 Y137.078 E338.64736
G1 X47.922 Y127.074 E339.24218
G1 X47.922 Y62.926 E341.93912
G1 X53.456 Y57.392 E342.26817
G1 X53.737 Y57.587 F4800.000
G1 F1800
G1 X58.066 Y53.259 E342.52555
G1 X111.934 Y53.259 E344.79032
G1 X121.741 Y63.066 E345.37341
G1 X121.741 Y126.934 E348.05861
G1 X111.934 Y136.741 E348.64169
G1 X58.066 Y136.741 E350.90646
G1 X48.259 Y126.934 E351.48955
G1 X48.259 Y63.066 E354.17475
G1 X53.694 Y57.630 E354.49793
G1 X53.975 Y57.826 F4800.000
G1 F1800
G1 X58.205 Y53.596 E354.74944
G1 X111.795 Y53.596 E357.00247
G1 X121.404 Y63.205 E357.57381
G1 X121.404 Y126.795 E360.24727
G1 X111.795 Y136.404 E360.81862
G1 X58.205 Y136.404 E363.07165
G1 X48.596 Y126.795 E363.64299
G1 X48.596 Y63.205 E366.31645
G1 X53.933 Y57.868 E366.63377
G1 X54.213 Y58.064 F4800.000
G1 F1800
G1 X58.345 Y53.933 E366.87940
G1 X111.655 Y53.933 E369.12070
G1 X121.067 Y63.345 E369.68030
G1 X121.067 Y126.655 E372.34202
G1 X111.655 Y136.067 E372.90162
G1 X58.345 Y136.067 E375.14292
G1 X48.933 Y126.655 E375.70252
G1 X48.933 Y63.345 E378.36424
G1 X54.171 Y58.107 E378.67569
G1 X54.452 Y58.303 F4800.000
G1 F1800
G1 X58.484 Y54.270 E378.91545
G1 X111.516 Y54.270 E381.14501
G1 X120.730 Y63.484 E381.69287
G1 X120.730 Y126.516 E384.34285
G1 X111.516 Y135.730 E384.89071
G1 X58.484 Y135.730 E387.12026
G1 X49.270 Y126.516 E387.66813
G1 X49.270 Y63.484 E390.31811
G1 X54.409 Y58.345 E390.62368
G1 X54.690 Y58.541 F4800.000
G1 F1800
G1 X58.624 Y54.607 E390.85758
G1 X111.376 Y54.607 E393.07539
G1 X120.393 Y63.624 E393.61151
G1 X120.393 Y126.376 E396.24975
G1 X111.376 Y135.393 E396.78587
G1 X58.624 Y135.393 E399.00369
G1 X49.607 Y126.376 E399.53981
G1 X49.607 Y63.624 E402.17805
G1 X54.648 Y58.583 E402.47776
G1 X54.928 Y58.779 F4800.000
G1 F1800
G1 X58.764 Y54.944 E402.70578
G1 X111.236 Y54.944 E404.91186
G1 X120.056 Y63.764 E405.43624
G1 X120.056 Y126.236 E408.06274
G1 X111.236 Y135.056 E408.58712
G1 X58.764 Y135.056 E410.79319
G1 X49.944 Y126.236 E411.31758
G1 X49.944 Y63.764 E413.94408
G1 X54.886 Y58.822 E414.23791
G1 X55.167 Y59.018 F4800.000
G1 F1800
G1 X58.903 Y55.281 E414.46007
G1 X111.097 Y55.281 E416.65440
G1 X119.719 Y63.903 E417.16704
G1 X119.719 Y126.097 E419.78180
G1 X111.097 Y134.719 E420.29444
G1 X58.903 Y134.719 E422.48878
G1 X50.281 Y126.097 E423.00142
G1 X50.281 Y63.903 E425.61618
G1 X55.124 Y59.060 E425.90414
G1 X55.405 Y59.256 F4800.000
G1 F1800
G1 X59.043 Y55.618 E426.12043
G1 X110.957 Y55.618 E428.30302
G1 X119.382 Y64.043 E428.80393
G1 X119.382 Y125.957 E431.40694
G1 X110.957 Y134.382 E431.90785
G1 X59.043 Y134.382 E434.09044
G1 X50.618 Y125.957 E434.59134
G1 X50.618 Y64.043 E437.19436
G1 X55.363 Y59.298 E437.47646
G1 X55.644 Y59.494 F4800.000
G1 F1800
G1 X59.182 Y55.955 E437.68687
G1 X110.818 Y55.955 E439.85773
G1 X119.045 Y64.182 E440.34689
G1 X119.045 Y125.818 E442.93817
G1 X110.818 Y134.045 E443.42733
G1 X59.182 Y134.045 E445.59818
G1 X50.955 Y125.818 E446.08735
G1 X50.955 Y64.182 E448.67863
G1 X55.601 Y59.537 E448.95485
G1 X55.882 Y59.733 F4800.000
G1 F1800
G1 X59.322 Y56.292 E449.15940
G1 X110.678 Y56.292 E451.31851
G1 X118.708 Y64.322 E451.79593
G1 X118.708 Y125.678 E454.37547
G1 X110.678 Y133.708 E454.85289
G1 X59.322 Y133.708 E457.01201
G1 X51.292 Y125.678 E457.48943
G1 X51.292 Y64.322 E460.06897
G1 X55.839 Y59.775 E460.33932
G1 X56.120 Y59.971 F4800.000
G1 F1800
G1 X59.462 Y56.629 E460.53800
G1 X110.538 Y56.629 E462.68537
G1 X118.371 Y64.462 E463.15105
G1 X118.371 Y125.538 E465.71885
G1 X110.538 Y133.371 E466.18453
G1 X59.462 Y133.371 E468.33191
G1 X51.629 Y125.538 E468.79759
G1 X51.629 Y64.462 E471.36539
G1 X56.078 Y60.013 E471.62987
G1 X56.359 Y60.209 F4800.000
G1 F1800
G1 X59.601 Y56.967 E471.82268
G1 X110.399 Y56.967 E473.95831
G1 X118.033 Y64.601 E474.41225
G1 X118.033 Y125.399 E476.96831
G1 X110.399 Y133.033 E477.42225
G1 X59.601 Y133.033 E479.55789
G1 X51.967 Y125.399 E480.01183
G1 X51.967 Y64.601 E482.56789
G1 X56.316 Y60.252 E482.82650
G1 X56.597 Y60.448 F4800.000
G1 F1800
G1 X59.741 Y57.304 E483.01344
G1 X110.259 Y57.304 E485.13733
G1 X117.696 Y64.741 E485.57953
G1 X117.696 Y125.259 E488.12385
G1 X110.259 Y132.696 E488.56605
