; generated by Slic3r 1.3.0 on 2021-04-03 at 17:28:22

; external perimeters extrusion width = 0.66mm (13.82mm^3/s)
; perimeters extrusion width = 0.67mm (11.31mm^3/s)
; infill extrusion width = 0.67mm (11.31mm^3/s)
; solid infill extrusion width = 0.67mm (5.65mm^3/s)
; top infill extrusion width = 0.60mm (14.78mm^3/s)
; support material extrusion width = 0.66mm (16.58mm^3/s)

M107
M190 S60 ; set bed temperature and wait for it to be reached
M104 S240 ; set temperature
G28 ; home all axes
G1 Z5 F5000 ; lift nozzle

; Filament gcode

M109 S240 ; set temperature and wait for it to be reached
G21 ; set units to millimeters
G90 ; use absolute coordinates
M82 ; use absolute distances for extrusion
G92 E0
G1 E-3.00000 F2400.00000
G92 E0
G1 Z0.500 F4800.000
G1 Z1.000 F4800.000
G1 X200.861 Y215.447 F4800.000
G1 Z0.500 F4800.000
G1 E3.00000 F2400.00000
G1 F1800
G1 X203.879 Y213.539 E3.36569
G1 X207.246 Y212.349 E3.73138
G1 X209.917 Y211.964 E4.00779
G1 X258.204 Y209.121 E8.96193
G1 X259.144 Y209.093 E9.05821
G1 X299.144 Y209.093 E13.15502
G1 X302.692 Y209.492 E13.52071
G1 X306.063 Y210.668 E13.88640
G1 X309.089 Y212.563 E14.25209
G1 X311.619 Y215.083 E14.61778
G1 X313.526 Y218.101 E14.98347
G1 X314.716 Y221.468 E15.34916
G1 X315.129 Y225.078 E15.72138
G1 X315.129 Y238.078 E17.05284
G1 X315.112 Y238.820 E17.12883
G1 X312.792 Y284.249 E21.78772
G1 X312.656 Y285.488 E21.91543
G1 X312.586 Y285.942 E21.96250
G1 X312.382 Y286.954 E22.06813
G1 X312.220 Y287.609 E22.13733
G1 X311.935 Y288.554 E22.23833
G1 X311.696 Y289.237 E22.31252
G1 X311.274 Y290.262 E22.42604
G1 X311.022 Y290.804 E22.48721
G1 X310.609 Y291.597 E22.57878
G1 X310.203 Y292.300 E22.66195
G1 X309.742 Y293.013 E22.74896
G1 X309.253 Y293.702 E22.83544
G1 X308.747 Y294.344 E22.91919
G1 X308.166 Y295.018 E23.01031
G1 X307.633 Y295.578 E23.08948
G1 X306.953 Y296.231 E23.18603
G1 X306.279 Y296.812 E23.27720
G1 X305.646 Y297.311 E23.35974
G1 X305.090 Y297.710 E23.42986
G1 X304.233 Y298.269 E23.53468
G1 X303.532 Y298.675 E23.61762
G1 X302.738 Y299.088 E23.70924
G1 X302.197 Y299.339 E23.77036
G1 X301.170 Y299.762 E23.88411
G1 X300.488 Y300.001 E23.95807
G1 X299.545 Y300.285 E24.05896
G1 X298.888 Y300.448 E24.12830
G1 X297.879 Y300.651 E24.23367
G1 X297.423 Y300.721 E24.28101
G1 X296.187 Y300.857 E24.40831
G1 X295.598 Y300.890 E24.46874
G1 X294.856 Y300.907 E24.54473
G1 X212.856 Y300.907 E32.94319
G1 X212.115 Y300.890 E33.01919
G1 X211.528 Y300.857 E33.07936
G1 X210.460 Y300.745 E33.18939
G1 X209.832 Y300.651 E33.25434
G1 X208.825 Y300.448 E33.35960
G1 X208.166 Y300.284 E33.42910
G1 X207.224 Y300.001 E33.52985
G1 X206.556 Y299.767 E33.60236
G1 X205.516 Y299.339 E33.71758
G1 X204.975 Y299.088 E33.77863
G1 X204.181 Y298.675 E33.87028
G1 X203.479 Y298.269 E33.95337
G1 X202.764 Y297.807 E34.04053
G1 X202.078 Y297.319 E34.12675
G1 X201.302 Y296.703 E34.22825
G1 X200.751 Y296.223 E34.30310
G1 X200.201 Y295.698 E34.38096
G1 X199.555 Y295.027 E34.47634
G1 X198.966 Y294.344 E34.56871
G1 X198.468 Y293.712 E34.65114
G1 X198.068 Y293.155 E34.72142
G1 X197.510 Y292.300 E34.82597
G1 X197.104 Y291.597 E34.90915
G1 X196.690 Y290.802 E35.00087
G1 X196.370 Y290.106 E35.07938
G1 X196.011 Y289.223 E35.17695
G1 X195.777 Y288.553 E35.24962
G1 X195.494 Y287.611 E35.35037
G1 X195.370 Y287.120 E35.40229
G1 X195.127 Y285.945 E35.52521
G1 X195.033 Y285.319 E35.59004
G1 X194.921 Y284.250 E35.70008
G1 X194.872 Y283.126 E35.81532
G1 X194.871 Y227.922 E41.46936
G1 X195.270 Y224.373 E41.83505
G1 X196.446 Y221.002 E42.20074
G1 X198.341 Y217.976 E42.56643
G1 X200.798 Y215.510 E42.92290
G1 X201.341 Y215.695 F4800.000
G1 F1800
G1 X204.342 Y213.865 E43.28289
G1 X207.678 Y212.759 E43.64288
G1 X209.946 Y212.456 E43.87722
G1 X258.233 Y209.612 E48.83137
G1 X259.144 Y209.586 E48.92468
G1 X299.144 Y209.586 E53.02149
G1 X302.636 Y209.984 E53.38148
G1 X305.948 Y211.160 E53.74147
G1 X308.910 Y213.052 E54.10146
G1 X311.370 Y215.563 E54.46145
G1 X313.200 Y218.564 E54.82145
G1 X314.307 Y221.900 E55.18144
G1 X314.636 Y225.078 E55.50873
G1 X314.636 Y238.078 E56.84020
G1 X314.608 Y239.042 E56.93893
G1 X312.301 Y284.214 E61.57146
G1 X312.168 Y285.420 E61.69578
G1 X312.100 Y285.861 E61.74144
G1 X311.903 Y286.841 E61.84382
G1 X311.744 Y287.482 E61.91147
G1 X311.468 Y288.397 E62.00936
G1 X311.235 Y289.065 E62.08185
G1 X310.823 Y290.063 E62.19240
G1 X310.579 Y290.589 E62.25174
G1 X310.179 Y291.357 E62.34048
G1 X309.782 Y292.043 E62.42167
G1 X309.335 Y292.735 E62.50600
G1 X308.858 Y293.406 E62.59036
G1 X308.368 Y294.029 E62.67157
G1 X307.792 Y294.697 E62.76186
G1 X307.163 Y295.350 E62.85472
G1 X306.632 Y295.857 E62.92992
G1 X306.096 Y296.323 E63.00273
G1 X305.351 Y296.917 E63.10025
G1 X304.670 Y297.400 E63.18578
G1 X303.976 Y297.849 E63.27038
G1 X303.292 Y298.244 E63.35135
G1 X302.523 Y298.645 E63.44015
G1 X301.998 Y298.888 E63.49943
G1 X300.998 Y299.301 E63.61022
G1 X300.332 Y299.533 E63.68248
G1 X299.418 Y299.809 E63.78025
G1 X298.775 Y299.968 E63.84805
G1 X297.798 Y300.165 E63.95017
G1 X297.355 Y300.233 E63.99610
G1 X296.152 Y300.366 E64.12001
G1 X295.575 Y300.398 E64.17916
G1 X294.856 Y300.414 E64.25282
G1 X212.856 Y300.414 E72.65128
G1 X212.137 Y300.398 E72.72494
G1 X211.563 Y300.366 E72.78385
G1 X210.528 Y300.257 E72.89049
G1 X209.914 Y300.165 E72.95402
G1 X208.938 Y299.968 E73.05604
G1 X208.294 Y299.808 E73.12398
G1 X207.381 Y299.533 E73.22162
G1 X206.728 Y299.305 E73.29244
G1 X205.715 Y298.888 E73.40469
G1 X205.190 Y298.645 E73.46390
G1 X204.421 Y298.244 E73.55273
G1 X203.736 Y297.848 E73.63384
G1 X203.043 Y297.400 E73.71831
G1 X202.373 Y296.925 E73.80242
G1 X201.617 Y296.323 E73.90137
G1 X201.082 Y295.858 E73.97396
G1 X200.549 Y295.350 E74.04942
G1 X199.920 Y294.696 E74.14240
G1 X199.345 Y294.029 E74.23251
G1 X198.862 Y293.417 E74.31240
G1 X198.474 Y292.876 E74.38056
G1 X197.931 Y292.043 E74.48243
G1 X197.534 Y291.357 E74.56362
G1 X197.133 Y290.587 E74.65252
G1 X196.821 Y289.907 E74.72919
G1 X196.473 Y289.051 E74.82379
G1 X196.245 Y288.397 E74.89477
G1 X195.970 Y287.484 E74.99242
G1 X195.849 Y287.007 E75.04278
G1 X195.613 Y285.863 E75.16245
G1 X195.521 Y285.251 E75.22586
G1 X195.412 Y284.215 E75.33251
G1 X195.365 Y283.120 E75.44478
G1 X195.364 Y227.922 E81.09819
G1 X195.762 Y224.429 E81.45818
G1 X196.938 Y221.117 E81.81817
G1 X198.830 Y218.155 E82.17816
G1 X201.277 Y215.758 E82.52894
G1 F3840
G1 X204.342 Y213.865 E80.38990
G1 F3840
G1 X205.478 Y213.488 E79.67894
G1 E79.52894 F2400.00000
G92 E0
G1 Z1.000 F4800.000
G1 X203.483 Y217.837 F4800.000
G1 Z0.500 F4800.000
G1 E3.00000 F2400.00000
G1 F1800
G1 X205.743 Y215.577 E3.33224
G1 X251.130 Y215.577 E8.04971
G1 X251.227 Y215.537 E8.06056
G1 X254.030 Y212.734 E8.47262
G1 X304.257 Y212.734 E13.69309
G1 X311.488 Y219.965 E14.75604
G1 X311.488 Y238.110 E16.64200
G1 X311.433 Y239.353 E16.77136
G1 X311.325 Y240.227 E16.86286
G1 X311.171 Y241.083 E16.95323
G1 X310.941 Y242.008 E17.05233
G1 X310.683 Y242.814 E17.14031
G1 X310.373 Y243.626 E17.23065
G1 X310.090 Y244.256 E17.30237
G1 X309.800 Y244.831 E17.36935
G1 X309.223 Y245.815 E17.48795
G1 X309.201 Y245.888 E17.49584
G1 X309.199 Y262.168 E19.18797
G1 X309.146 Y263.197 E19.29500
G1 X309.103 Y263.610 E19.33819
G1 X308.970 Y264.494 E19.43112
G1 X309.008 Y264.615 E19.44436
G1 X309.201 Y264.808 E19.47271
G1 X309.201 Y282.953 E21.35867
G1 X309.167 Y283.898 E21.45694
G1 X309.103 Y284.610 E21.53123
G1 X309.038 Y285.070 E21.57955
G1 X308.884 Y285.926 E21.66992
G1 X308.654 Y286.851 E21.76902
G1 X308.327 Y287.854 E21.87864
G1 X307.898 Y288.895 E21.99562
G1 X307.513 Y289.674 E22.08601
G1 X307.009 Y290.545 E22.19056
G1 X306.568 Y291.204 E22.27300
G1 X306.045 Y291.899 E22.36337
G1 X305.566 Y292.466 E22.44055
G1 X305.162 Y292.900 E22.50211
G1 X304.401 Y293.631 E22.61181
G1 X303.833 Y294.110 E22.68906
G1 X303.139 Y294.633 E22.77940
G1 X302.479 Y295.075 E22.86196
G1 X301.609 Y295.578 E22.96640
G1 X300.829 Y295.963 E23.05679
G1 X300.068 Y296.288 E23.14284
G1 X299.151 Y296.609 E23.24380
G1 X298.498 Y296.796 E23.31443
G1 X297.861 Y296.949 E23.38249
G1 X297.005 Y297.104 E23.47286
G1 X296.134 Y297.211 E23.56417
G1 X295.323 Y297.258 E23.64858
G1 X258.599 Y297.264 E27.46555
G1 X257.581 Y297.211 E27.57156
G1 X257.168 Y297.168 E27.61469
G1 X256.241 Y297.027 E27.71216
G1 X255.214 Y296.796 E27.82152
G1 X254.562 Y296.609 E27.89210
G1 X253.902 Y296.384 E27.96459
G1 X253.811 Y296.384 E27.97397
G1 X252.787 Y296.719 E28.08601
G1 X251.861 Y296.949 E28.18515
G1 X251.472 Y297.028 E28.22645
G1 X250.545 Y297.168 E28.32383
G1 X250.134 Y297.211 E28.36686
G1 X249.108 Y297.264 E28.47357
G1 X212.599 Y297.264 E32.26824
G1 X211.581 Y297.211 E32.37425
G1 X210.536 Y297.077 E32.48374
G1 X209.852 Y296.949 E32.55609
G1 X209.399 Y296.843 E32.60440
G1 X208.562 Y296.609 E32.69478
G1 X207.645 Y296.288 E32.79572
G1 X206.884 Y295.963 E32.88177
G1 X206.410 Y295.738 E32.93622
G1 X205.489 Y295.230 E33.04558
G1 X204.574 Y294.633 E33.15914
G1 X203.879 Y294.110 E33.24948
G1 X203.313 Y293.632 E33.32660
G1 X202.879 Y293.228 E33.38820
G1 X202.146 Y292.465 E33.49809
G1 X201.668 Y291.899 E33.57518
G1 X201.145 Y291.204 E33.66555
G1 X200.704 Y290.545 E33.74799
G1 X200.200 Y289.674 E33.85257
G1 X199.815 Y288.894 E33.94294
G1 X199.491 Y288.134 E34.02890
G1 X199.169 Y287.216 E34.12994
G1 X198.982 Y286.564 E34.20052
G1 X198.750 Y285.537 E34.30993
G1 X198.610 Y284.610 E34.40733
G1 X198.545 Y283.899 E34.48155
G1 X198.514 Y283.184 E34.55593
G1 X198.512 Y264.808 E36.46587
G1 X198.704 Y264.615 E36.49422
G1 X198.743 Y264.494 E36.50746
G1 X198.610 Y263.610 E36.60037
G1 X198.567 Y263.197 E36.64350
G1 X198.512 Y262.063 E36.76157
G1 X198.512 Y243.808 E38.65891
G1 X198.704 Y243.615 E38.68726
G1 X198.743 Y243.494 E38.70050
G1 X198.610 Y242.610 E38.79341
G1 X198.567 Y242.197 E38.83654
G1 X198.512 Y241.063 E38.95461
G1 X198.512 Y222.808 E40.85194
G1 X203.419 Y217.901 E41.57330
G1 X203.836 Y218.191 F4800.000
G1 F1800
G1 X205.950 Y216.077 E41.88401
G1 X230.561 Y216.077 E44.44204
G1 X230.749 Y216.262 E44.46941
G1 X230.964 Y216.262 E44.49177
G1 X231.152 Y216.077 E44.51915
G1 X251.337 Y216.077 E46.61722
G1 X251.434 Y216.037 E46.62808
G1 X254.237 Y213.234 E47.04014
G1 X278.848 Y213.234 E49.59817
G1 X279.036 Y213.418 E49.62554
G1 X279.251 Y213.418 E49.64790
G1 X279.439 Y213.234 E49.67527
G1 X304.050 Y213.234 E52.23330
G1 X310.988 Y220.172 E53.25320
G1 X310.988 Y238.109 E55.11750
G1 X310.935 Y239.309 E55.24242
G1 X310.831 Y240.155 E55.33093
G1 X310.683 Y240.976 E55.41770
G1 X310.460 Y241.871 E55.51357
G1 X310.210 Y242.651 E55.59870
G1 X309.912 Y243.431 E55.68544
G1 X309.513 Y244.300 E55.78487
G1 X309.139 Y244.990 E55.86637
G1 X308.723 Y245.668 E55.94910
G1 X308.701 Y245.741 E55.95699
G1 X308.699 Y262.158 E57.66343
G1 X308.668 Y262.866 E57.73702
G1 X308.606 Y263.549 E57.80835
G1 X308.429 Y264.655 E57.92472
G1 X308.467 Y264.781 E57.93842
G1 X308.701 Y265.015 E57.97289
G1 X308.701 Y282.952 E59.83720
G1 X308.668 Y283.866 E59.93223
G1 X308.606 Y284.549 E60.00356
G1 X308.544 Y284.998 E60.05065
G1 X308.395 Y285.819 E60.13741
G1 X308.173 Y286.715 E60.23328
G1 X307.857 Y287.683 E60.33918
G1 X307.442 Y288.688 E60.45220
G1 X307.073 Y289.437 E60.53899
G1 X306.586 Y290.279 E60.64008
G1 X306.158 Y290.917 E60.71991
G1 X305.656 Y291.584 E60.80667
G1 X305.192 Y292.134 E60.88145
G1 X304.805 Y292.550 E60.94058
G1 X304.069 Y293.257 E61.04661
G1 X303.519 Y293.722 E61.12146
G1 X302.852 Y294.224 E61.20820
G1 X302.213 Y294.651 E61.28813
G1 X301.372 Y295.138 E61.38912
G1 X300.623 Y295.508 E61.47590
G1 X299.886 Y295.822 E61.55919
G1 X298.999 Y296.133 E61.65684
G1 X298.372 Y296.312 E61.72467
G1 X297.754 Y296.461 E61.79069
G1 X296.933 Y296.609 E61.87746
G1 X296.089 Y296.713 E61.96579
G1 X295.304 Y296.759 E62.04756
G1 X258.610 Y296.764 E65.86152
G1 X257.625 Y296.713 E65.96402
G1 X256.332 Y296.536 E66.09967
G1 X255.062 Y296.238 E66.23520
G1 X253.904 Y295.851 E66.36215
G1 X253.809 Y295.851 E66.37200
G1 X252.650 Y296.238 E66.49902
G1 X251.381 Y296.536 E66.63453
G1 X250.089 Y296.713 E66.77000
G1 X249.098 Y296.764 E66.87318
G1 X212.610 Y296.764 E70.66573
G1 X211.625 Y296.713 E70.76823
G1 X210.615 Y296.583 E70.87400
G1 X209.517 Y296.357 E70.99053
G1 X208.713 Y296.133 E71.07730
G1 X207.827 Y295.822 E71.17493
G1 X207.090 Y295.508 E71.25822
G1 X206.635 Y295.291 E71.31053
G1 X205.745 Y294.801 E71.41617
G1 X204.861 Y294.224 E71.52591
G1 X204.194 Y293.722 E71.61265
G1 X203.645 Y293.258 E71.68737
G1 X203.228 Y292.870 E71.74654
G1 X202.520 Y292.133 E71.85275
G1 X202.056 Y291.584 E71.92744
G1 X201.554 Y290.917 E72.01421
G1 X201.127 Y290.279 E72.09403
G1 X200.640 Y289.437 E72.19516
G1 X200.271 Y288.688 E72.28192
G1 X199.957 Y287.952 E72.36512
G1 X199.645 Y287.065 E72.46285
G1 X199.466 Y286.438 E72.53062
G1 X199.242 Y285.446 E72.63632
G1 X199.107 Y284.549 E72.73056
G1 X199.044 Y283.866 E72.80183
G1 X199.014 Y283.174 E72.87392
G1 X199.012 Y265.015 E74.76125
G1 X199.246 Y264.781 E74.79572
G1 X199.284 Y264.655 E74.80942
G1 X199.107 Y263.549 E74.92578
G1 X199.044 Y262.866 E74.99705
G1 X199.014 Y262.174 E75.06914
G1 X199.012 Y244.015 E76.95646
G1 X199.246 Y243.781 E76.99093
G1 X199.284 Y243.655 E77.00464
G1 X199.107 Y242.549 E77.12099
G1 X199.044 Y241.866 E77.19226
G1 X199.014 Y241.174 E77.26435
G1 X199.012 Y223.015 E79.15168
G1 X203.773 Y218.254 E79.85151
G1 F3840
G1 X205.950 Y216.077 E78.02310
G1 F3840
G1 X207.671 Y216.077 E77.00151
G1 E76.85151 F2400.00000
G92 E0
G1 Z1.000 F4800.000
G1 X206.856 Y221.078 F4800.000
G1 X230.749 Y216.964 F4800.000
G1 Z0.500 F4800.000
G1 E3.00000 F2400.00000
G1 F1800
G1 X230.964 Y216.964 E3.02237
G1 X231.357 Y216.577 E3.07964
G1 X251.545 Y216.577 E5.17794
G1 X251.641 Y216.537 E5.18880
G1 X254.444 Y213.734 E5.60086
G1 X278.643 Y213.734 E8.11606
G1 X279.036 Y214.120 E8.17333
G1 X279.251 Y214.120 E8.19570
G1 X279.644 Y213.734 E8.25297
G1 X303.843 Y213.734 E10.76817
G1 X310.488 Y220.379 E11.74501
G1 X310.488 Y238.108 E13.58766
G1 X310.437 Y239.265 E13.70813
G1 X310.336 Y240.082 E13.79366
G1 X310.194 Y240.870 E13.87682
G1 X309.979 Y241.734 E13.96946
G1 X309.738 Y242.489 E14.05175
G1 X309.452 Y243.236 E14.13489
G1 X309.066 Y244.075 E14.23093
G1 X308.705 Y244.742 E14.30975
G1 X308.225 Y245.512 E14.40405
G1 X308.201 Y245.588 E14.41230
G1 X308.199 Y262.149 E16.13361
G1 X308.170 Y262.833 E16.20485
G1 X308.110 Y263.488 E16.27323
G1 X307.979 Y264.354 E16.36420
G1 X307.884 Y264.811 E16.41275
G1 X307.921 Y264.942 E16.42692
G1 X308.201 Y265.222 E16.46810
G1 X308.201 Y282.951 E18.31075
G1 X308.150 Y284.109 E18.43122
G1 X307.979 Y285.354 E18.56186
G1 X307.692 Y286.578 E18.69251
G1 X307.290 Y287.771 E18.82336
G1 X306.900 Y288.670 E18.92527
G1 X306.632 Y289.200 E18.98694
G1 X306.306 Y289.777 E19.05591
G1 X305.998 Y290.266 E19.11593
G1 X305.610 Y290.825 E19.18663
G1 X305.268 Y291.270 E19.24497
G1 X304.818 Y291.802 E19.31734
G1 X304.135 Y292.512 E19.41978
G1 X303.737 Y292.883 E19.47641
G1 X303.204 Y293.333 E19.54884
G1 X302.759 Y293.676 E19.60726
G1 X302.201 Y294.064 E19.67787
G1 X301.711 Y294.372 E19.73800
G1 X301.135 Y294.698 E19.80685
G1 X300.605 Y294.965 E19.86854
G1 X300.013 Y295.230 E19.93590
G1 X299.446 Y295.452 E19.99925
G1 X298.848 Y295.656 E20.06491
G1 X298.246 Y295.828 E20.12994
G1 X297.648 Y295.972 E20.19392
G1 X297.018 Y296.090 E20.26057
G1 X296.424 Y296.175 E20.32292
G1 X295.285 Y296.259 E20.44157
G1 X258.620 Y296.264 E24.25250
G1 X257.669 Y296.215 E24.35149
G1 X256.423 Y296.044 E24.48223
G1 X255.199 Y295.757 E24.61285
G1 X254.447 Y295.516 E24.69496
G1 X253.908 Y295.315 E24.75474
G1 X253.805 Y295.315 E24.76542
G1 X253.266 Y295.516 E24.82519
G1 X252.513 Y295.757 E24.90738
G1 X251.290 Y296.044 E25.03798
