; generated by PrusaSlicer 2.0.0+win64 on 2021-03-23 at 20:10:45

; 

; external perimeters extrusion width = 0.45mm
; perimeters extrusion width = 0.45mm
; infill extrusion width = 0.45mm
; solid infill extrusion width = 0.45mm
; top infill extrusion width = 0.40mm
; first layer extrusion width = 0.40mm

M107
M190 S60 ; set bed temperature and wait for it to be reached
M104 S240 ; set temperature
G28 ; home all axes
G1 Z5 F5000 ; lift nozzle
; Filament gcode
M109 S240 ; set temperature and wait for it to be reached
G21 ; set units to millimeters
G90 ; use absolute coordinates
M82 ; use absolute distances for extrusion
G92 E0
G1 E-6.00000 F2400.00000
G92 E0
G1 Z0.500 F4800.000
G1 X227.940 Y224.385
G1 Z0.300
G1 E6.00000 F2400.00000
G1 F1800
G1 X228.915 Y223.507 E6.05494
G1 X229.954 Y222.721 E6.10949
G1 X231.057 Y222.026 E6.16403
G1 X232.214 Y221.429 E6.21857
G1 X233.419 Y220.931 E6.27311
G1 X234.670 Y220.536 E6.32805
G1 X235.951 Y220.250 E6.38300
G1 X237.243 Y220.076 E6.43754
G1 X271.359 Y218.081 E7.86811
G1 X296.883 Y218.072 E8.93653
G1 X298.223 Y218.132 E8.99269
G1 X299.562 Y218.311 E9.04925
G1 X300.871 Y218.605 E9.10540
G1 X302.158 Y219.016 E9.16196
G1 X303.404 Y219.539 E9.21852
G1 X304.590 Y220.165 E9.27468
G1 X305.717 Y220.893 E9.33084
G1 X306.775 Y221.718 E9.38699
G1 X307.757 Y222.632 E9.44315
G1 X308.662 Y223.636 E9.49971
G1 X309.468 Y224.708 E9.55586
G1 X310.177 Y225.846 E9.61202
G1 X310.784 Y227.043 E9.66818
G1 X311.286 Y228.297 E9.72474
G1 X311.676 Y229.591 E9.78130
G1 X311.948 Y230.905 E9.83745
G1 X312.144 Y233.288 E9.93757
G1 X312.093 Y274.587 E11.66633
G1 X311.922 Y275.937 E11.72329
G1 X311.631 Y277.266 E11.78026
G1 X311.223 Y278.564 E11.83722
G1 X310.701 Y279.821 E11.89418
G1 X310.070 Y281.026 E11.95115
G1 X309.333 Y282.171 E12.00811
G1 X308.498 Y283.245 E12.06508
G1 X307.570 Y284.240 E12.12204
G1 X305.722 Y285.788 E12.22297
G1 X303.653 Y287.026 E12.32389
G1 X301.414 Y287.922 E12.42482
G1 X299.063 Y288.455 E12.52575
G1 X297.786 Y288.586 E12.57948
G1 X263.967 Y290.550 E13.99752
G1 X238.569 Y290.553 E15.06070
G1 X236.721 Y290.433 E15.13824
G1 X235.465 Y290.220 E15.19157
G1 X234.221 Y289.901 E15.24530
G1 X233.018 Y289.482 E15.29863
G1 X231.854 Y288.965 E15.35196
G1 X230.737 Y288.352 E15.40529
G1 X229.675 Y287.648 E15.45862
G1 X228.669 Y286.851 E15.51236
G1 X227.739 Y285.980 E15.56569
G1 X226.861 Y285.005 E15.62063
G1 X226.064 Y283.950 E15.67598
G1 X225.361 Y282.830 E15.73133
G1 X224.762 Y281.662 E15.78627
G1 X224.262 Y280.438 E15.84162
G1 X223.873 Y279.184 E15.89657
G1 X223.592 Y277.902 E15.95151
G1 X223.422 Y276.591 E16.00686
G1 X223.366 Y275.308 E16.06059
G1 X223.366 Y235.235 E17.73808
G1 X223.446 Y233.722 E17.80151
G1 X223.674 Y232.234 E17.86452
G1 X224.047 Y230.775 E17.92754
G1 X224.565 Y229.351 E17.99097
G1 X225.218 Y227.995 E18.05399
G1 X226.006 Y226.701 E18.11741
G1 X226.912 Y225.499 E18.18043
G1 X227.899 Y224.429 E18.24134
G1 X228.146 Y224.658 F4800.000
G1 F1800
G1 X229.146 Y223.751 E18.29787
G1 X230.168 Y222.981 E18.35141
G1 X231.243 Y222.307 E18.40454
G1 X232.380 Y221.722 E18.45808
G1 X233.564 Y221.236 E18.51162
G1 X234.784 Y220.853 E18.56516
G1 X236.023 Y220.578 E18.61830
G1 X237.291 Y220.409 E18.67184
G1 X271.375 Y218.416 E20.10103
G1 X296.883 Y218.408 E21.16880
G1 X298.198 Y218.466 E21.22394
G1 X299.504 Y218.641 E21.27907
G1 X300.789 Y218.930 E21.33421
G1 X302.053 Y219.334 E21.38974
G1 X303.267 Y219.845 E21.44488
G1 X304.431 Y220.461 E21.50001
G1 X305.537 Y221.177 E21.55515
G1 X306.575 Y221.988 E21.61029
G1 X307.537 Y222.886 E21.66542
G1 X308.423 Y223.874 E21.72096
G1 X309.213 Y224.929 E21.77609
G1 X309.906 Y226.048 E21.83123
G1 X310.498 Y227.225 E21.88637
G1 X310.984 Y228.449 E21.94150
G1 X311.360 Y229.712 E21.99664
G1 X311.624 Y231.002 E22.05177
G1 X311.808 Y233.293 E22.14800
G1 X311.759 Y274.554 E23.87517
G1 X311.591 Y275.879 E23.93111
G1 X311.305 Y277.185 E23.98704
G1 X310.904 Y278.459 E24.04298
G1 X310.391 Y279.693 E24.09891
G1 X309.769 Y280.876 E24.15485
G1 X309.044 Y281.998 E24.21078
G1 X308.222 Y283.051 E24.26672
G1 X307.309 Y284.027 E24.32265
G1 X305.499 Y285.535 E24.42126
G1 X303.474 Y286.740 E24.51988
G1 X301.286 Y287.611 E24.61849
G1 X298.987 Y288.127 E24.71711
G1 X297.762 Y288.251 E24.76865
G1 X263.954 Y290.215 E26.18625
G1 X238.580 Y290.218 E27.24843
G1 X236.789 Y290.103 E27.32352
G1 X235.547 Y289.895 E27.37626
G1 X234.335 Y289.585 E27.42860
G1 X233.145 Y289.172 E27.48134
G1 X231.994 Y288.659 E27.53408
G1 X230.899 Y288.057 E27.58642
G1 X229.850 Y287.359 E27.63916
G1 X228.870 Y286.582 E27.69150
G1 X227.953 Y285.719 E27.74424
G1 X227.093 Y284.759 E27.79818
G1 X226.319 Y283.728 E27.85212
G1 X225.637 Y282.635 E27.90606
G1 X225.052 Y281.487 E27.96000
G1 X224.567 Y280.293 E28.01393
G1 X224.188 Y279.062 E28.06787
G1 X223.916 Y277.802 E28.12181
G1 X223.754 Y276.534 E28.17535
G1 X223.702 Y275.304 E28.22689
G1 X223.702 Y235.226 E29.90456
G1 X223.781 Y233.748 E29.96649
G1 X224.006 Y232.286 E30.02841
G1 X224.374 Y230.854 E30.09033
G1 X224.882 Y229.464 E30.15225
G1 X225.530 Y228.124 E30.21458
G1 X226.302 Y226.862 E30.27650
G1 X227.196 Y225.683 E30.33842
G1 X228.105 Y224.702 E30.39443
G1 F3840
G1 X229.146 Y223.751 E29.55711
G1 X230.168 Y222.981 E28.79772
G1 X231.243 Y222.307 E28.04398
G1 X232.380 Y221.722 E27.28458
G1 X233.564 Y221.236 E26.52519
G1 X234.784 Y220.853 E25.76579
G1 X236.023 Y220.578 E25.01206
G1 X236.554 Y220.507 E24.69443
G1 E24.39443 F2400.00000
G92 E0
G1 Z0.800 F4800.000
G1 X264.557 Y220.695
G1 Z0.300
G1 E6.00000 F2400.00000
G1 F1800
G1 X266.965 Y219.566 E6.11132
G1 X270.759 Y218.753 E6.27372
G1 X297.876 Y218.756 E7.40888
G1 X300.766 Y219.241 E7.53154
G1 X303.504 Y220.278 E7.65407
G1 X307.036 Y222.831 E7.83652
G1 X310.091 Y227.074 E8.05538
G1 X311.461 Y232.128 E8.27456
G1 X311.473 Y274.640 E10.05413
G1 X309.369 Y281.016 E10.33519
G1 X307.678 Y283.166 E10.44970
G1 X305.754 Y284.972 E10.56017
G1 X302.146 Y286.984 E10.73308
G1 X297.984 Y287.934 E10.91180
G1 X270.920 Y287.938 E12.04470
G1 X268.461 Y289.088 E12.15834
G1 X264.655 Y289.882 E12.32108
G1 X237.340 Y289.882 E13.46451
G1 X230.963 Y287.779 E13.74557
G1 X228.813 Y286.088 E13.86008
G1 X227.007 Y284.164 E13.97055
G1 X224.996 Y280.556 E14.14345
G1 X224.037 Y276.320 E14.32527
G1 X224.037 Y233.986 E16.09738
G1 X226.141 Y227.609 E16.37845
G1 X227.832 Y225.459 E16.49295
G1 X229.756 Y223.653 E16.60344
G1 X233.365 Y221.641 E16.77638
G1 X237.602 Y220.683 E16.95822
G1 X264.497 Y220.695 E18.08407
G1 X264.632 Y221.031 F4800.000
G1 F1800
G1 X267.055 Y219.890 E18.19615
G1 X270.777 Y219.089 E18.35551
G1 X297.862 Y219.092 E19.48932
G1 X300.694 Y219.570 E19.60954
G1 X303.364 Y220.584 E19.72908
G1 X306.817 Y223.087 E19.90763
G1 X309.800 Y227.245 E20.12185
G1 X311.131 Y232.193 E20.33635
G1 X311.137 Y274.613 E22.11204
G1 X309.060 Y280.882 E22.38852
G1 X307.439 Y282.930 E22.49785
G1 X305.572 Y284.689 E22.60522
G1 X302.004 Y286.679 E22.77624
G1 X297.928 Y287.602 E22.95118
G1 X270.845 Y287.603 E24.08489
G1 X268.373 Y288.764 E24.19923
G1 X264.638 Y289.547 E24.35897
G1 X237.367 Y289.547 E25.50054
G1 X231.097 Y287.470 E25.77701
G1 X229.049 Y285.849 E25.88634
G1 X227.290 Y283.982 E25.99372
G1 X225.301 Y280.414 E26.16473
G1 X224.373 Y276.301 E26.34122
G1 X224.373 Y234.013 E28.11142
G1 X226.450 Y227.743 E28.38789
G1 X228.071 Y225.695 E28.49722
G1 X229.938 Y223.936 E28.60461
G1 X233.507 Y221.946 E28.77567
G1 X237.621 Y221.019 E28.95217
G1 X264.572 Y221.030 E30.08038
G1 X264.678 Y221.380 F4800.000
G1 F1800
G1 X267.145 Y220.214 E30.19458
G1 X270.795 Y219.424 E30.35090
G1 X297.848 Y219.427 E31.48337
G1 X300.590 Y219.889 E31.59977
G1 X303.223 Y220.889 E31.71768
G1 X306.598 Y223.342 E31.89231
G1 X309.510 Y227.415 E32.10189
G1 X310.801 Y232.258 E32.31172
G1 X310.801 Y274.586 E34.08355
G1 X308.751 Y280.748 E34.35541
G1 X307.200 Y282.694 E34.45960
G1 X305.391 Y284.407 E34.56387
G1 X301.862 Y286.374 E34.73299
G1 X297.873 Y287.271 E34.90415
G1 X270.770 Y287.267 E36.03869
G1 X268.284 Y288.439 E36.15373
G1 X264.620 Y289.211 E36.31047
G1 X237.394 Y289.211 E37.45016
G1 X231.232 Y287.161 E37.72202
G1 X229.285 Y285.610 E37.82621
G1 X227.573 Y283.800 E37.93049
G1 X225.606 Y280.272 E38.09961
G1 X224.709 Y276.282 E38.27076
G1 X224.709 Y234.040 E40.03905
G1 X226.759 Y227.878 E40.31091
G1 X228.310 Y225.931 E40.41510
G1 X230.120 Y224.219 E40.51939
G1 X233.650 Y222.251 E40.68855
G1 X237.639 Y221.355 E40.85971
G1 X264.498 Y221.358 E41.98404
G1 X264.619 Y221.373 E41.98914
G1 X264.732 Y221.726 F4800.000
G1 F1800
G1 X267.235 Y220.538 E42.10513
G1 X270.813 Y219.760 E42.25838
G1 X297.834 Y219.763 E43.38950
G1 X300.518 Y220.217 E43.50345
G1 X303.083 Y221.195 E43.61835
G1 X306.378 Y223.597 E43.78907
G1 X309.193 Y227.531 E43.99156
G1 X310.466 Y232.281 E44.19738
G1 X310.466 Y274.559 E45.96715
G1 X308.470 Y280.562 E46.23197
G1 X306.945 Y282.476 E46.33442
G1 X305.175 Y284.148 E46.43634
G1 X301.720 Y286.069 E46.60182
G1 X297.854 Y286.935 E46.76766
G1 X270.694 Y286.931 E47.90459
G1 X268.195 Y288.115 E48.02034
G1 X264.602 Y288.875 E48.17406
G1 X237.421 Y288.875 E49.31189
G1 X231.418 Y286.880 E49.57671
G1 X229.504 Y285.355 E49.67916
G1 X227.831 Y283.585 E49.78108
G1 X225.911 Y280.130 E49.94656
G1 X225.044 Y276.264 E50.11240
G1 X225.044 Y234.067 E51.87878
G1 X227.040 Y228.064 E52.14360
G1 X228.565 Y226.150 E52.24606
G1 X230.335 Y224.477 E52.34798
G1 X233.791 Y222.556 E52.51351
G1 X237.657 Y221.690 E52.67936
G1 X264.486 Y221.694 E53.80241
G1 X264.673 Y221.718 E53.81029
G1 X264.827 Y222.079 F4800.000
G1 F1800
G1 X264.959 Y221.988 E53.81701
G1 X267.326 Y220.862 E53.92673
G1 X270.831 Y220.095 E54.07691
G1 X297.820 Y220.099 E55.20668
G1 X300.445 Y220.545 E55.31815
G1 X302.942 Y221.500 E55.43005
G1 X306.158 Y223.852 E55.59685
G1 X308.903 Y227.701 E55.79473
G1 X310.130 Y232.302 E55.99406
G1 X310.130 Y274.532 E57.76180
G1 X308.189 Y280.376 E58.01959
G1 X306.706 Y282.240 E58.11931
G1 X304.960 Y283.890 E58.21984
G1 X301.578 Y285.763 E58.38168
G1 X297.836 Y286.600 E58.54221
G1 X270.794 Y286.600 E59.67417
G1 X270.655 Y286.578 E59.68009
G1 X268.106 Y287.791 E59.79824
G1 X264.585 Y288.540 E59.94893
G1 X237.448 Y288.540 E61.08489
G1 X231.603 Y286.599 E61.34268
G1 X229.739 Y285.115 E61.44241
G1 X228.090 Y283.370 E61.54293
G1 X226.216 Y279.988 E61.70477
G1 X225.380 Y276.246 E61.86531
G1 X225.380 Y234.094 E63.62979
G1 X227.321 Y228.249 E63.88758
G1 X228.804 Y226.385 E63.98731
G1 X230.550 Y224.736 E64.08785
G1 X233.933 Y222.862 E64.24973
G1 X237.676 Y222.026 E64.41027
G1 X264.474 Y222.029 E65.53204
G1 X264.767 Y222.070 E65.54445
G1 X264.914 Y222.431 F4800.000
G1 F1800
G1 X265.119 Y222.284 E65.55503
G1 X267.417 Y221.185 E65.66163
G1 X270.849 Y220.431 E65.80872
G1 X297.805 Y220.434 E66.93713
G1 X300.372 Y220.873 E67.04613
G1 X302.801 Y221.805 E67.15502
G1 X305.938 Y224.107 E67.31789
G1 X308.611 Y227.871 E67.51116
G1 X309.794 Y232.324 E67.70404
G1 X309.794 Y274.505 E69.46973
G1 X307.908 Y280.190 E69.72049
G1 X306.450 Y282.022 E69.81847
G1 X304.745 Y283.631 E69.91662
G1 X301.481 Y285.441 E70.07285
G1 X297.817 Y286.264 E70.23006
G1 X270.811 Y286.264 E71.36054
G1 X270.561 Y286.220 E71.37118
G1 X270.378 Y286.350 E71.38058
G1 X268.017 Y287.467 E71.48992
G1 X264.567 Y288.204 E71.63759
G1 X237.475 Y288.204 E72.77168
G1 X231.789 Y286.318 E73.02244
G1 X229.958 Y284.860 E73.12042
G1 X228.348 Y283.155 E73.21857
G1 X226.538 Y279.891 E73.37480
G1 X225.716 Y276.227 E73.53201
G1 X225.716 Y234.121 E75.29459
G1 X227.602 Y228.435 E75.54534
G1 X229.060 Y226.604 E75.64333
G1 X230.765 Y224.994 E75.74149
G1 X234.030 Y223.184 E75.89776
G1 X237.694 Y222.362 E76.05498
G1 X264.461 Y222.365 E77.17544
G1 X264.855 Y222.422 E77.19208
G1 X264.864 Y222.763 F4800.000
G1 F1800
G1 X265.003 Y222.784 E77.19796
G1 X265.280 Y222.579 E77.21241
G1 X267.509 Y221.509 E77.31589
G1 X270.867 Y220.767 E77.45987
G1 X297.791 Y220.770 E78.58691
G1 X300.299 Y221.201 E78.69342
G1 X302.659 Y222.110 E78.79930
G1 X305.717 Y224.361 E78.95826
G1 X308.295 Y227.987 E79.14447
G1 X309.459 Y232.346 E79.33335
G1 X309.459 Y274.478 E81.09700
G1 X307.627 Y280.005 E81.34072
G1 X306.195 Y281.803 E81.43696
G1 X304.531 Y283.372 E81.53272
G1 X301.340 Y285.136 E81.68531
G1 X297.799 Y285.928 E81.83723
G1 X270.829 Y285.928 E82.96621
G1 X270.480 Y285.861 E82.98109
G1 X270.217 Y286.054 E82.99472
G1 X267.927 Y287.143 E83.10088
G1 X264.549 Y287.869 E83.24550
G1 X237.502 Y287.869 E84.37772
G1 X231.975 Y286.037 E84.62145
G1 X230.176 Y284.605 E84.71768
G1 X228.607 Y282.940 E84.81344
G1 X226.844 Y279.750 E84.96604
G1 X226.051 Y276.209 E85.11795
G1 X226.051 Y234.148 E86.87863
G1 X227.883 Y228.621 E87.12236
G1 X229.315 Y226.822 E87.21860
G1 X230.980 Y225.253 E87.31437
G1 X234.171 Y223.489 E87.46700
G1 X237.713 Y222.697 E87.61892
G1 X264.448 Y222.701 E88.73807
G1 X264.805 Y222.754 E88.75316
G1 X265.093 Y223.138 F4800.000
G1 F1800
G1 X265.442 Y222.873 E88.77151
G1 X267.601 Y221.832 E88.87183
G1 X270.886 Y221.102 E89.01270
G1 X297.777 Y221.105 E90.13837
G1 X300.193 Y221.520 E90.24101
G1 X302.517 Y222.416 E90.34524
G1 X305.496 Y224.615 E90.50026
G1 X308.004 Y228.156 E90.68188
G1 X309.123 Y232.368 E90.86432
G1 X309.123 Y274.451 E92.62593
G1 X307.346 Y279.819 E92.86263
G1 X305.956 Y281.567 E92.95612
G1 X304.316 Y283.114 E93.05049
G1 X301.243 Y284.814 E93.19749
G1 X297.780 Y285.593 E93.34607
G1 X270.846 Y285.593 E94.47352
G1 X270.398 Y285.501 E94.49269
G1 X270.056 Y285.759 E94.51062
G1 X267.837 Y286.819 E94.61359
G1 X264.531 Y287.533 E94.75515
G1 X237.528 Y287.533 E95.88549
G1 X232.160 Y285.756 E96.12219
G1 X230.412 Y284.366 E96.21568
G1 X228.866 Y282.725 E96.31005
G1 X227.166 Y279.653 E96.45705
G1 X226.387 Y276.190 E96.60563
G1 X226.387 Y234.175 E98.36441
G1 X228.164 Y228.806 E98.60111
G1 X229.554 Y227.058 E98.69460
G1 X231.195 Y225.512 E98.78899
G1 X234.268 Y223.811 E98.93602
G1 X237.731 Y223.033 E99.08461
G1 X264.435 Y223.036 E100.20243
G1 X265.033 Y223.129 E100.22778
G1 X265.040 Y223.470 F4800.000
G1 F1800
G1 X265.184 Y223.492 E100.23386
G1 X265.605 Y223.167 E100.25613
G1 X267.693 Y222.155 E100.35326
G1 X270.904 Y221.438 E100.49100
G1 X297.762 Y221.441 E101.61529
G1 X300.120 Y221.848 E101.71543
G1 X302.375 Y222.720 E101.81664
G1 X305.275 Y224.869 E101.96771
G1 X307.712 Y228.325 E102.14474
G1 X308.788 Y232.389 E102.32075
G1 X308.788 Y274.424 E104.08034
G1 X307.065 Y279.633 E104.31002
G1 X305.701 Y281.349 E104.40175
G1 X304.101 Y282.855 E104.49372
G1 X301.102 Y284.508 E104.63708
G1 X297.762 Y285.257 E104.78039
G1 X270.865 Y285.257 E105.90628
G1 X270.316 Y285.139 E105.92981
G1 X269.894 Y285.465 E105.95210
G1 X267.746 Y286.495 E106.05184
G1 X264.513 Y287.197 E106.19033
G1 X237.555 Y287.197 E107.31879
G1 X232.346 Y285.474 E107.54847
G1 X230.630 Y284.111 E107.64020
G1 X229.125 Y282.511 E107.73217
G1 X227.471 Y279.512 E107.87553
G1 X226.722 Y276.171 E108.01884
G1 X226.722 Y234.201 E109.77572
G1 X228.445 Y228.992 E110.00539
G1 X229.809 Y227.276 E110.09713
G1 X231.409 Y225.771 E110.18911
G1 X234.409 Y224.117 E110.33251
G1 X237.750 Y223.368 E110.47582
G1 X264.421 Y223.372 E111.59230
G1 X264.981 Y223.460 E111.61601
G1 X265.276 Y223.847 F4800.000
G1 F1800
G1 X265.768 Y223.461 E111.64220
G1 X267.822 Y222.466 E111.73773
G1 X270.923 Y221.774 E111.87073
G1 X297.748 Y221.777 E112.99364
G1 X300.046 Y222.176 E113.09127
G1 X302.232 Y223.025 E113.18944
G1 X305.053 Y225.122 E113.33659
G1 X307.395 Y228.440 E113.50661
G1 X308.452 Y232.411 E113.67864
G1 X308.452 Y274.397 E115.43618
G1 X306.783 Y279.448 E115.65884
G1 X305.446 Y281.131 E115.74882
G1 X303.887 Y282.596 E115.83838
G1 X301.005 Y284.186 E115.97616
G1 X297.743 Y284.921 E116.11614
G1 X270.884 Y284.921 E117.24045
G1 X270.233 Y284.776 E117.26838
G1 X269.732 Y285.170 E117.29508
G1 X267.619 Y286.184 E117.39319
G1 X264.495 Y286.862 E117.52698
G1 X237.582 Y286.862 E118.65357
G1 X232.532 Y285.193 E118.87623
G1 X230.849 Y283.856 E118.96621
G1 X229.384 Y282.297 E119.05577
G1 X227.793 Y279.415 E119.19355
G1 X227.058 Y276.153 E119.33353
G1 X227.058 Y234.228 E121.08851
G1 X228.727 Y229.178 E121.31116
G1 X230.064 Y227.495 E121.40114
G1 X231.624 Y226.030 E121.49072
G1 X234.506 Y224.439 E121.62853
G1 X237.769 Y223.704 E121.76852
