; generated by Slic3r 1.3.0 on 2021-03-28 at 14:50:56

; external perimeters extrusion width = 0.44mm (5.63mm^3/s)
; perimeters extrusion width = 0.48mm (5.03mm^3/s)
; infill extrusion width = 0.48mm (6.28mm^3/s)
; solid infill extrusion width = 0.48mm (3.77mm^3/s)
; top infill extrusion width = 0.40mm (5.03mm^3/s)
; support material extrusion width = 0.44mm (7.89mm^3/s)

M107
M190 S100 ; set bed temperature and wait for it to be reached
M104 S240 ; set temperature
G28 ; home all axes
G1 Z5 F5000 ; lift nozzle

; Filament gcode

M109 S240 ; set temperature and wait for it to be reached
G21 ; set units to millimeters
G90 ; use absolute coordinates
M82 ; use absolute distances for extrusion
G92 E0
G1 E-6.00000 F2400.00000
G92 E0
G1 Z0.300 F4800.000
G1 X24.811 Y25.183 F4800.000
G1 E6.00000 F2400.00000
G1 F1800
G1 X27.818 Y23.325 E6.14798
G1 X31.165 Y22.188 E6.29596
G1 X34.500 Y21.829 E6.43636
G1 X135.500 Y21.829 E10.66425
G1 X139.013 Y22.227 E10.81223
G1 X142.346 Y23.403 E10.96021
G1 X145.332 Y25.297 E11.10819
G1 X147.817 Y27.811 E11.25618
G1 X149.675 Y30.818 E11.40416
G1 X150.812 Y34.165 E11.55214
G1 X151.171 Y37.500 E11.69254
G1 X151.171 Y132.500 E15.66927
G1 X150.773 Y136.013 E15.81725
G1 X149.597 Y139.346 E15.96523
G1 X147.703 Y142.332 E16.11321
G1 X145.189 Y144.817 E16.26119
G1 X142.182 Y146.675 E16.40917
G1 X138.835 Y147.812 E16.55715
G1 X135.500 Y148.171 E16.69755
G1 X34.500 Y148.171 E20.92544
G1 X30.987 Y147.773 E21.07342
G1 X27.654 Y146.597 E21.22140
G1 X24.668 Y144.703 E21.36938
G1 X22.183 Y142.189 E21.51736
G1 X20.325 Y139.182 E21.66534
G1 X19.188 Y135.835 E21.81333
G1 X18.829 Y132.500 E21.95373
G1 X18.829 Y37.500 E25.93045
G1 X19.227 Y33.987 E26.07843
G1 X20.403 Y30.654 E26.22642
G1 X22.297 Y27.668 E26.37440
G1 X24.768 Y25.225 E26.51987
G1 X25.137 Y25.354 F4800.000
G1 F1800
G1 X28.132 Y23.549 E26.66625
G1 X31.458 Y22.469 E26.81263
G1 X34.500 Y22.164 E26.94059
G1 X135.500 Y22.164 E31.16848
G1 X138.974 Y22.563 E31.31486
G1 X142.268 Y23.738 E31.46124
G1 X145.209 Y25.629 E31.60763
G1 X147.646 Y28.137 E31.75401
G1 X149.451 Y31.132 E31.90039
G1 X150.531 Y34.458 E32.04677
G1 X150.836 Y37.500 E32.17473
G1 X150.836 Y132.500 E36.15146
G1 X150.437 Y135.974 E36.29784
G1 X149.262 Y139.268 E36.44422
G1 X147.371 Y142.209 E36.59061
G1 X144.863 Y144.646 E36.73699
G1 X141.868 Y146.451 E36.88337
G1 X138.542 Y147.531 E37.02975
G1 X135.500 Y147.836 E37.15771
G1 X34.500 Y147.836 E41.38560
G1 X31.026 Y147.437 E41.53198
G1 X27.732 Y146.262 E41.67837
G1 X24.791 Y144.371 E41.82475
G1 X22.354 Y141.863 E41.97113
G1 X20.549 Y138.868 E42.11751
G1 X19.469 Y135.542 E42.26390
G1 X19.164 Y132.500 E42.39185
G1 X19.164 Y37.500 E46.36858
G1 X19.563 Y34.026 E46.51497
G1 X20.738 Y30.732 E46.66135
G1 X22.629 Y27.791 E46.80773
G1 X25.094 Y25.396 E46.95160
G1 F3840
G1 X28.132 Y23.549 E44.84059
G1 F3840
G1 X31.458 Y22.469 E42.76429
G1 F3840
G1 X33.993 Y22.215 E41.25160
G1 E40.95160 F2400.00000
G92 E0
G1 X27.054 Y27.270 F4800.000
G1 E6.00000 F2400.00000
G1 F1800
G1 X29.323 Y25.001 E6.13645
G1 X140.677 Y25.001 E10.87125
G1 X147.999 Y32.323 E11.31153
G1 X147.999 Y137.677 E15.79121
G1 X140.677 Y144.999 E16.23149
G1 X29.323 Y144.999 E20.96629
G1 X22.001 Y137.677 E21.40656
G1 X22.001 Y32.323 E25.88624
G1 X27.011 Y27.313 E26.18752
G1 X27.295 Y27.511 F4800.000
G1 F1800
G1 X29.464 Y25.342 E26.31796
G1 X140.536 Y25.342 E31.04076
G1 X147.658 Y32.464 E31.46902
G1 X147.658 Y137.536 E35.93670
G1 X140.536 Y144.658 E36.36497
G1 X29.464 Y144.658 E41.08776
G1 X22.342 Y137.536 E41.51603
G1 X22.342 Y32.464 E45.98370
G1 X27.252 Y27.554 E46.27897
G1 X27.536 Y27.752 F4800.000
G1 F1800
G1 X29.605 Y25.683 E46.40341
G1 X140.395 Y25.683 E51.11420
G1 X147.317 Y32.605 E51.53045
G1 X147.317 Y137.395 E55.98612
G1 X140.395 Y144.317 E56.40238
G1 X29.605 Y144.317 E61.11316
G1 X22.683 Y137.395 E61.52942
G1 X22.683 Y32.605 E65.98509
G1 X27.493 Y27.795 E66.27435
G1 X27.777 Y27.993 F4800.000
G1 F1800
G1 X29.746 Y26.024 E66.39279
G1 X140.254 Y26.024 E71.09157
G1 X146.976 Y32.746 E71.49582
G1 X146.976 Y137.254 E75.93947
G1 X140.254 Y143.976 E76.34372
G1 X29.746 Y143.976 E81.04250
G1 X23.024 Y137.254 E81.44675
G1 X23.024 Y32.746 E85.89040
G1 X27.734 Y28.036 E86.17367
G1 X28.018 Y28.234 F4800.000
G1 F1800
G1 X29.888 Y26.365 E86.28610
G1 X140.112 Y26.365 E90.97287
G1 X146.635 Y32.888 E91.36511
G1 X146.635 Y137.112 E95.79676
G1 X140.112 Y143.635 E96.18900
G1 X29.888 Y143.635 E100.87577
G1 X23.365 Y137.112 E101.26801
G1 X23.365 Y32.888 E105.69966
G1 X27.975 Y28.277 E105.97691
G1 X28.259 Y28.475 F4800.000
G1 F1800
G1 X30.029 Y26.706 E106.08334
G1 X139.971 Y26.706 E110.75810
G1 X146.294 Y33.029 E111.13834
G1 X146.294 Y136.971 E115.55798
G1 X139.971 Y143.294 E115.93821
G1 X30.029 Y143.294 E120.61297
G1 X23.706 Y136.971 E120.99320
G1 X23.706 Y33.029 E125.41284
G1 X28.216 Y28.518 E125.68409
G1 X28.500 Y28.716 F4800.000
G1 F1800
G1 X30.170 Y27.046 E125.78452
G1 X139.830 Y27.046 E130.44727
G1 X145.954 Y33.170 E130.81550
G1 X145.954 Y136.830 E135.22313
G1 X139.830 Y142.954 E135.59135
G1 X30.170 Y142.954 E140.25410
G1 X24.046 Y136.830 E140.62233
G1 X24.046 Y33.170 E145.02996
G1 X28.457 Y28.759 E145.29521
G1 X28.741 Y28.958 F4800.000
G1 F1800
G1 X30.311 Y27.387 E145.38963
G1 X139.689 Y27.387 E150.04037
G1 X145.613 Y33.311 E150.39659
G1 X145.613 Y136.689 E154.79221
G1 X139.689 Y142.613 E155.14843
G1 X30.311 Y142.613 E159.79917
G1 X24.387 Y136.689 E160.15538
G1 X24.387 Y33.311 E164.55101
G1 X28.699 Y29.000 E164.81025
G1 X28.982 Y29.199 F4800.000
G1 F1800
G1 X30.452 Y27.728 E164.89867
G1 X139.548 Y27.728 E169.53740
G1 X145.272 Y33.452 E169.88161
G1 X145.272 Y136.548 E174.26522
G1 X139.548 Y142.272 E174.60943
G1 X30.452 Y142.272 E179.24817
G1 X24.728 Y136.548 E179.59238
G1 X24.728 Y33.452 E183.97599
G1 X28.940 Y29.241 E184.22923
G1 X29.223 Y29.440 F4800.000
G1 F1800
G1 X30.594 Y28.069 E184.31164
G1 X139.406 Y28.069 E188.93837
G1 X144.931 Y33.594 E189.27057
G1 X144.931 Y136.406 E193.64217
G1 X139.406 Y141.931 E193.97437
G1 X30.594 Y141.931 E198.60110
G1 X25.069 Y136.406 E198.93330
G1 X25.069 Y33.594 E203.30490
G1 X29.181 Y29.482 E203.55214
G1 X29.464 Y29.681 F4800.000
G1 F1800
G1 X30.735 Y28.410 E203.62855
G1 X139.265 Y28.410 E208.24326
G1 X144.590 Y33.735 E208.56346
G1 X144.590 Y136.265 E212.92305
G1 X139.265 Y141.590 E213.24324
G1 X30.735 Y141.590 E217.85796
G1 X25.410 Y136.265 E218.17815
G1 X25.410 Y33.735 E222.53775
G1 X29.422 Y29.723 E222.77898
G1 X29.705 Y29.922 F4800.000
G1 F1800
G1 X30.876 Y28.751 E222.84939
G1 X139.124 Y28.751 E227.45209
G1 X144.249 Y33.876 E227.76028
G1 X144.249 Y136.124 E232.10787
G1 X139.124 Y141.249 E232.41605
G1 X30.876 Y141.249 E237.01876
G1 X25.751 Y136.124 E237.32694
G1 X25.751 Y33.876 E241.67453
G1 X29.663 Y29.964 E241.90976
G1 X29.946 Y30.163 F4800.000
G1 F1800
G1 X31.017 Y29.092 E241.97416
G1 X138.983 Y29.092 E246.56486
G1 X143.908 Y34.017 E246.86103
G1 X143.908 Y135.983 E251.19661
G1 X138.983 Y140.908 E251.49279
G1 X31.017 Y140.908 E256.08349
G1 X26.092 Y135.983 E256.37966
G1 X26.092 Y34.017 E260.71524
G1 X29.904 Y30.205 E260.94446
G1 X30.187 Y30.404 F4800.000
G1 F1800
G1 X31.158 Y29.433 E261.00286
G1 X138.842 Y29.433 E265.58155
G1 X143.567 Y34.158 E265.86572
G1 X143.567 Y135.842 E270.18929
G1 X138.842 Y140.567 E270.47346
G1 X31.158 Y140.567 E275.05215
G1 X26.433 Y135.842 E275.33631
G1 X26.433 Y34.158 E279.65988
G1 X30.145 Y30.446 E279.88310
G1 X30.428 Y30.645 F4800.000
G1 F1800
G1 X31.300 Y29.774 E279.93550
G1 X138.700 Y29.774 E284.50218
G1 X143.226 Y34.300 E284.77434
G1 X143.226 Y135.700 E289.08590
G1 X138.700 Y140.226 E289.35806
G1 X31.300 Y140.226 E293.92474
G1 X26.774 Y135.700 E294.19690
G1 X26.774 Y34.300 E298.50846
G1 X30.386 Y30.687 E298.72568
G1 X30.669 Y30.886 F4800.000
G1 F1800
G1 X31.441 Y30.115 E298.77206
G1 X138.559 Y30.115 E303.32674
G1 X142.885 Y34.441 E303.58689
G1 X142.885 Y135.559 E307.88644
G1 X138.559 Y139.885 E308.14659
G1 X31.441 Y139.885 E312.70127
G1 X27.115 Y135.559 E312.96142
G1 X27.115 Y34.441 E317.26097
G1 X30.627 Y30.928 E317.47218
G1 X30.911 Y31.127 F4800.000
G1 F1800
G1 X31.582 Y30.456 E317.51256
G1 X138.418 Y30.456 E322.05523
G1 X142.544 Y34.582 E322.30337
G1 X142.544 Y135.418 E326.59092
G1 X138.418 Y139.544 E326.83906
G1 X31.582 Y139.544 E331.38172
G1 X27.456 Y135.418 E331.62987
G1 X27.456 Y34.582 E335.91741
G1 X30.868 Y31.170 E336.12262
G1 X31.152 Y31.368 F4800.000
G1 F1800
G1 X31.723 Y30.796 E336.15700
G1 X138.277 Y30.796 E340.68766
G1 X142.204 Y34.723 E340.92379
G1 X142.204 Y135.277 E345.19933
G1 X138.277 Y139.204 E345.43546
G1 X31.723 Y139.204 E349.96612
G1 X27.796 Y135.277 E350.20225
G1 X27.796 Y34.723 E354.47779
G1 X31.109 Y31.411 E354.67699
G1 X31.393 Y31.609 F4800.000
G1 F1800
G1 X31.864 Y31.137 E354.70536
G1 X138.136 Y31.137 E359.22401
G1 X141.863 Y34.864 E359.44814
G1 X141.863 Y135.136 E363.71167
G1 X138.136 Y138.863 E363.93579
G1 X31.864 Y138.863 E368.45444
G1 X28.137 Y135.136 E368.67856
G1 X28.137 Y34.864 E372.94209
G1 X31.350 Y31.652 E373.13529
G1 X31.634 Y31.850 F4800.000
G1 F1800
G1 X32.006 Y31.478 E373.15766
G1 X137.994 Y31.478 E377.66430
G1 X141.522 Y35.006 E377.87642
G1 X141.522 Y134.994 E382.12794
G1 X137.994 Y138.522 E382.34005
G1 X32.006 Y138.522 E386.84669
G1 X28.478 Y134.994 E387.05881
G1 X28.478 Y35.006 E391.31033
G1 X31.591 Y31.893 E391.49752
G1 X31.875 Y32.091 F4800.000
G1 F1800
G1 X32.147 Y31.819 E391.51389
G1 X137.853 Y31.819 E396.00852
G1 X141.181 Y35.147 E396.20863
G1 X141.181 Y134.853 E400.44814
G1 X137.853 Y138.181 E400.64825
G1 X32.147 Y138.181 E405.14288
G1 X28.819 Y134.853 E405.34299
G1 X28.819 Y35.147 E409.58250
G1 X31.832 Y32.134 E409.76369
G1 X32.116 Y32.332 F4800.000
G1 F1800
G1 X32.288 Y32.160 E409.77405
G1 X137.712 Y32.160 E414.25668
G1 X140.840 Y35.288 E414.44478
G1 X140.840 Y134.712 E418.67228
G1 X137.712 Y137.840 E418.86038
G1 X32.288 Y137.840 E423.34300
G1 X29.160 Y134.712 E423.53110
G1 X29.160 Y35.288 E427.75861
G1 X32.073 Y32.375 E427.93379
G1 X32.357 Y32.573 F4800.000
G1 F1800
G1 X32.429 Y32.501 E427.93815
G1 X137.571 Y32.501 E432.40877
G1 X140.499 Y35.429 E432.58486
G1 X140.499 Y134.571 E436.80035
G1 X137.571 Y137.499 E436.97644
G1 X32.429 Y137.499 E441.44706
G1 X29.501 Y134.571 E441.62315
G1 X29.501 Y35.429 E445.83864
G1 X32.314 Y32.616 E446.00782
G1 X32.571 Y32.842 F4800.000
G1 F1800
G1 X137.429 Y32.842 E450.46643
G1 X140.158 Y35.571 E450.63051
G1 X140.158 Y134.429 E454.83400
G1 X137.429 Y137.158 E454.99808
G1 X32.571 Y137.158 E459.45669
G1 X29.842 Y134.429 E459.62077
G1 X29.842 Y35.571 E463.82426
G1 X32.528 Y32.884 E463.98579
G1 X32.712 Y33.183 F4800.000
G1 F1800
G1 X137.288 Y33.183 E468.43239
G1 X139.817 Y35.712 E468.58446
G1 X139.817 Y134.288 E472.77594
G1 X137.288 Y136.817 E472.92801
G1 X32.712 Y136.817 E477.37461
G1 X30.183 Y134.288 E477.52668
G1 X30.183 Y35.712 E481.71816
G1 X32.669 Y33.225 E481.86768
G1 X32.853 Y33.524 F4800.000
G1 F1800
G1 X137.147 Y33.524 E486.30228
G1 X139.476 Y35.853 E486.44234
G1 X139.476 Y134.147 E490.62181
G1 X137.147 Y136.476 E490.76188
G1 X32.853 Y136.476 E495.19647
G1 X30.524 Y134.147 E495.33653
G1 X30.524 Y35.853 E499.51600
G1 X32.811 Y33.566 E499.65351
G1 X32.994 Y33.865 F4800.000
G1 F1800
G1 X137.006 Y33.865 E504.07610
G1 X139.135 Y35.994 E504.20415
G1 X139.135 Y134.006 E508.37161
G1 X137.006 Y136.135 E508.49967
G1 X32.994 Y136.135 E512.92225
G1 X30.865 Y134.006 E513.05031
G1 X30.865 Y35.994 E517.21777
G1 X32.952 Y33.907 E517.34328
G1 X33.135 Y34.206 F4800.000
G1 F1800
G1 X136.865 Y34.206 E521.75385
G1 X138.794 Y36.135 E521.86990
G1 X138.794 Y133.865 E526.02535
G1 X136.865 Y135.794 E526.14140
G1 X33.135 Y135.794 E530.55197
G1 X31.206 Y133.865 E530.66802
G1 X31.206 Y36.135 E534.82347
G1 X33.093 Y34.248 E534.93697
G1 X33.277 Y34.546 F4800.000
G1 F1800
G1 X136.723 Y34.546 E539.33554
G1 X138.454 Y36.277 E539.43958
G1 X138.454 Y133.723 E543.58302
G1 X136.723 Y135.454 E543.68706
G1 X33.277 Y135.454 E548.08563
G1 X31.546 Y133.723 E548.18966
G1 X31.546 Y36.277 E552.33311
G1 X33.234 Y34.589 E552.43460
G1 X33.418 Y34.887 F4800.000
G1 F1800
G1 X136.582 Y34.887 E556.82115
G1 X138.113 Y36.418 E556.91319
G1 X138.113 Y133.582 E561.04462
G1 X136.582 Y135.113 E561.13665
G1 X33.418 Y135.113 E565.52321
G1 X31.887 Y133.582 E565.61524
G1 X31.887 Y36.418 E569.74668
G1 X33.375 Y34.930 E569.83616
G1 X33.559 Y35.228 F4800.000
G1 F1800
G1 X136.441 Y35.228 E574.21071
G1 X137.772 Y36.559 E574.29073
G1 X137.772 Y133.441 E578.41016
G1 X136.441 Y134.772 E578.49018
G1 X33.559 Y134.772 E582.86473
G1 X32.228 Y133.441 E582.94475
G1 X32.228 Y36.559 E587.06418
G1 X33.517 Y35.271 E587.14165
G1 X33.700 Y35.569 F4800.000
G1 F1800
G1 X136.300 Y35.569 E591.50419
G1 X137.431 Y36.700 E591.57220
G1 X137.431 Y133.300 E595.67962
G1 X136.300 Y134.431 E595.74764
G1 X33.700 Y134.431 E600.11018
G1 X32.569 Y133.300 E600.17819
G1 X32.569 Y36.700 E604.28561
G1 X33.658 Y35.612 E604.35107
G1 X33.841 Y35.910 F4800.000
G1 F1800
G1 X136.159 Y35.910 E608.70160
G1 X137.090 Y36.841 E608.75761
G1 X137.090 Y133.159 E612.85302
G1 X136.159 Y134.090 E612.90903
G1 X33.841 Y134.090 E617.25956
G1 X32.910 Y133.159 E617.31556
G1 X32.910 Y36.841 E621.41098
G1 X33.799 Y35.952 E621.46443
G1 X33.983 Y36.251 F4800.000
G1 F1800
G1 X136.017 Y36.251 E625.80295
G1 X136.749 Y36.983 E625.84695
G1 X136.749 Y133.017 E629.93035
G1 X136.017 Y133.749 E629.97435
G1 X33.983 Y133.749 E634.31287
G1 X33.251 Y133.017 E634.35687
G1 X33.251 Y36.983 E638.44027
G1 X33.940 Y36.293 E638.48172
G1 X34.124 Y36.592 F4800.000
G1 F1800
G1 X135.876 Y36.592 E642.80823
G1 X136.408 Y37.124 E642.84022
G1 X136.408 Y132.876 E646.91162
G1 X135.876 Y133.408 E646.94361
G1 X34.124 Y133.408 E651.27012
G1 X33.592 Y132.876 E651.30211
G1 X33.592 Y37.124 E655.37350
G1 X34.081 Y36.634 E655.40294
G1 X34.265 Y36.933 F4800.000
G1 F1800
G1 X135.735 Y36.933 E659.71745
G1 X136.067 Y37.265 E659.73743
G1 X136.067 Y132.735 E663.79681
G1 X135.735 Y133.067 E663.81679
G1 X34.265 Y133.067 E668.13130
G1 X33.933 Y132.735 E668.15128
G1 X33.933 Y37.265 E672.21067
G1 X34.223 Y36.975 E672.22809
G1 X34.406 Y37.274 F4800.000
G1 F1800
G1 X135.594 Y37.274 E676.53059
G1 X135.726 Y37.406 E676.53856
G1 X135.726 Y132.594 E680.58594
G1 X135.594 Y132.726 E680.59391
G1 X34.406 Y132.726 E684.89641
G1 X34.274 Y132.594 E684.90438
G1 X34.274 Y37.406 E688.95176
G1 X34.364 Y37.316 E688.95718
G1 X34.700 Y37.700 F4800.000
G1 F1800
G1 X135.300 Y37.700 E693.16833
G1 X135.300 Y132.300 E697.12831
G1 X34.700 Y132.300 E701.33946
G1 X34.700 Y37.760 E705.29693
G1 X35.087 Y37.800 F4800.000
G1 X35.036 Y38.036 F4800.000
G1 F1800
G1 X134.964 Y38.036 E709.47998
G1 X134.964 Y131.964 E713.41187
G1 X35.036 Y131.964 E717.59492
G1 X35.036 Y38.096 E721.52429
G1 X35.371 Y38.371 F4800.000
G1 F1800
G1 X134.629 Y38.371 E725.67924
G1 X134.629 Y131.629 E729.58303
G1 X35.371 Y131.629 E733.73798
G1 X35.371 Y38.431 E737.63926
G1 F3840
G1 X44.971 Y38.425 E731.93926
G1 E731.63926 F2400.00000
G92 E0
G1 X82.829 Y47.138 F4800.000
G1 E6.00000 F2400.00000
G1 F1800
G1 X82.919 Y46.785 E6.01521
G1 X83.058 Y46.468 E6.02970
G1 X83.263 Y46.149 E6.04560
G1 X83.510 Y45.881 E6.06085
G1 X83.796 Y45.658 E6.07606
G1 X84.116 Y45.485 E6.09128
G1 X84.460 Y45.367 E6.10649
G1 X84.818 Y45.307 E6.12171
G1 X85.182 Y45.307 E6.13692
G1 X85.540 Y45.367 E6.15214
G1 X85.868 Y45.479 E6.16663
G1 X86.203 Y45.657 E6.18252
G1 X86.490 Y45.881 E6.19777
G1 X86.737 Y46.148 E6.21299
G1 X86.935 Y46.453 E6.22820
G1 X87.081 Y46.785 E6.24342
G1 X87.171 Y47.138 E6.25863
G1 X87.201 Y47.500 E6.27385
G1 X87.171 Y47.862 E6.28906
G1 X87.081 Y48.215 E6.30427
G1 X86.942 Y48.532 E6.31877
G1 X86.737 Y48.851 E6.33466
