; generated by Slic3r 1.3.0 on 2021-05-04 at 21:40:58

; external perimeters extrusion width = 0.44mm (6.76mm^3/s)
; perimeters extrusion width = 0.48mm (7.54mm^3/s)
; infill extrusion width = 0.48mm (6.28mm^3/s)
; solid infill extrusion width = 0.48mm (3.77mm^3/s)
; top infill extrusion width = 0.40mm (7.05mm^3/s)
; support material extrusion width = 0.44mm (7.89mm^3/s)

M107
M190 S100 ; set bed temperature and wait for it to be reached
M104 S240 ; set temperature
G28 ; home all axes
G1 Z5 F5000 ; lift nozzle

; Filament gcode

M109 S240 ; set temperature and wait for it to be reached
G21 ; set units to millimeters
G90 ; use absolute coordinates
M82 ; use absolute distances for extrusion
G92 E0
G1 E-6.00000 F2400.00000
G92 E0
G1 Z0.300 F6000.000
G1 X33.318 Y58.325 F6000.000
G1 E6.00000 F2400.00000
G1 F1800
G1 X36.665 Y57.188 E6.14798
G1 X40.000 Y56.829 E6.28838
G1 X130.000 Y56.829 E10.05581
G1 X133.513 Y57.227 E10.20379
G1 X136.846 Y58.403 E10.35177
G1 X139.832 Y60.297 E10.49975
G1 X142.317 Y62.811 E10.64773
G1 X144.175 Y65.818 E10.79571
G1 X145.312 Y69.165 E10.94369
G1 X145.671 Y72.500 E11.08409
G1 X145.671 Y97.500 E12.13060
G1 X145.273 Y101.013 E12.27858
G1 X144.097 Y104.346 E12.42656
G1 X142.203 Y107.332 E12.57454
G1 X139.689 Y109.817 E12.72252
G1 X136.682 Y111.675 E12.87050
G1 X133.335 Y112.812 E13.01848
G1 X130.000 Y113.171 E13.15888
G1 X40.000 Y113.171 E16.92631
G1 X36.487 Y112.773 E17.07429
G1 X33.154 Y111.597 E17.22227
G1 X30.168 Y109.703 E17.37025
G1 X27.683 Y107.189 E17.51823
G1 X25.825 Y104.182 E17.66622
G1 X24.688 Y100.835 E17.81420
G1 X24.329 Y97.500 E17.95460
G1 X24.329 Y72.500 E19.00110
G1 X24.727 Y68.987 E19.14908
G1 X25.903 Y65.654 E19.29707
G1 X27.797 Y62.668 E19.44505
G1 X30.311 Y60.183 E19.59303
G1 X33.267 Y58.356 E19.73850
G1 X33.632 Y58.549 F6000.000
G1 F1800
G1 X36.958 Y57.469 E19.88488
G1 X40.000 Y57.164 E20.01284
G1 X130.000 Y57.164 E23.78026
G1 X133.474 Y57.563 E23.92665
G1 X136.768 Y58.738 E24.07303
G1 X139.709 Y60.629 E24.21941
G1 X142.146 Y63.137 E24.36579
G1 X143.951 Y66.132 E24.51218
G1 X145.031 Y69.458 E24.65856
G1 X145.336 Y72.500 E24.78651
G1 X145.336 Y97.500 E25.83302
G1 X144.937 Y100.974 E25.97940
G1 X143.762 Y104.268 E26.12579
G1 X141.871 Y107.209 E26.27217
G1 X139.363 Y109.646 E26.41855
G1 X136.368 Y111.451 E26.56493
G1 X133.042 Y112.531 E26.71132
G1 X130.000 Y112.836 E26.83927
G1 X40.000 Y112.836 E30.60670
G1 X36.526 Y112.437 E30.75308
G1 X33.232 Y111.262 E30.89947
G1 X30.291 Y109.371 E31.04585
G1 X27.854 Y106.863 E31.19223
G1 X26.049 Y103.868 E31.33861
G1 X24.969 Y100.542 E31.48500
G1 X24.664 Y97.500 E31.61295
G1 X24.664 Y72.500 E32.65946
G1 X25.063 Y69.026 E32.80584
G1 X26.238 Y65.732 E32.95223
G1 X28.129 Y62.791 E33.09861
G1 X30.637 Y60.354 E33.24499
G1 X33.581 Y58.580 E33.38886
G1 X34.823 Y60.001 F6000.000
G1 F1800
G1 X135.177 Y60.001 E37.65594
G1 X142.499 Y67.323 E38.09622
G1 X142.499 Y102.677 E39.59950
G1 X135.177 Y109.999 E40.03977
G1 X34.823 Y109.999 E44.30685
G1 X27.501 Y102.677 E44.74713
G1 X27.501 Y67.323 E46.25041
G1 X34.780 Y60.043 E46.68813
G1 X34.964 Y60.342 F6000.000
G1 F1800
G1 X135.036 Y60.342 E50.94320
G1 X142.158 Y67.464 E51.37147
G1 X142.158 Y102.536 E52.86274
G1 X135.036 Y109.658 E53.29101
G1 X34.964 Y109.658 E57.54608
G1 X27.842 Y102.536 E57.97435
G1 X27.842 Y67.464 E59.46561
G1 X34.922 Y60.384 E59.89133
G1 X35.105 Y60.683 F6000.000
G1 F1800
G1 X134.895 Y60.683 E64.13439
G1 X141.817 Y67.605 E64.55065
G1 X141.817 Y102.395 E66.02991
G1 X134.895 Y109.317 E66.44617
G1 X35.105 Y109.317 E70.68924
G1 X28.183 Y102.395 E71.10550
G1 X28.183 Y67.605 E72.58476
G1 X35.063 Y60.725 E72.99846
G1 X35.246 Y61.024 F6000.000
G1 F1800
G1 X134.754 Y61.024 E77.22952
G1 X141.476 Y67.746 E77.63377
G1 X141.476 Y102.254 E79.10102
G1 X134.754 Y108.976 E79.50527
G1 X35.246 Y108.976 E83.73633
G1 X28.524 Y102.254 E84.14058
G1 X28.524 Y67.746 E85.60783
G1 X35.204 Y61.066 E86.00953
G1 X35.388 Y61.365 F6000.000
G1 F1800
G1 X134.612 Y61.365 E90.22858
G1 X141.135 Y67.888 E90.62082
G1 X141.135 Y102.112 E92.07606
G1 X134.612 Y108.635 E92.46830
G1 X35.388 Y108.635 E96.68735
G1 X28.865 Y102.112 E97.07959
G1 X28.865 Y67.888 E98.53484
G1 X35.345 Y61.407 E98.92453
G1 X35.529 Y61.706 F6000.000
G1 F1800
G1 X134.471 Y61.706 E103.13157
G1 X140.794 Y68.029 E103.51180
G1 X140.794 Y101.971 E104.95503
G1 X134.471 Y108.294 E105.33527
G1 X35.529 Y108.294 E109.54231
G1 X29.206 Y101.971 E109.92254
G1 X29.206 Y68.029 E111.36577
G1 X35.486 Y61.748 E111.74346
G1 X35.670 Y62.046 F6000.000
G1 F1800
G1 X134.330 Y62.046 E115.93849
G1 X140.454 Y68.170 E116.30671
G1 X140.454 Y101.830 E117.73794
G1 X134.330 Y107.954 E118.10616
G1 X35.670 Y107.954 E122.30119
G1 X29.546 Y101.830 E122.66942
G1 X29.546 Y68.170 E124.10065
G1 X35.628 Y62.089 E124.46632
G1 X35.811 Y62.387 F6000.000
G1 F1800
G1 X134.189 Y62.387 E128.64934
G1 X140.113 Y68.311 E129.00556
G1 X140.113 Y101.689 E130.42478
G1 X134.189 Y107.613 E130.78099
G1 X35.811 Y107.613 E134.96401
G1 X29.887 Y101.689 E135.32023
G1 X29.887 Y68.311 E136.73945
G1 X35.769 Y62.430 E137.09311
G1 X35.952 Y62.728 F6000.000
G1 F1800
G1 X134.048 Y62.728 E141.26413
G1 X139.772 Y68.452 E141.60834
G1 X139.772 Y101.548 E143.01555
G1 X134.048 Y107.272 E143.35975
G1 X35.952 Y107.272 E147.53077
G1 X30.228 Y101.548 E147.87498
G1 X30.228 Y68.452 E149.28219
G1 X35.910 Y62.771 E149.62384
G1 X36.094 Y63.069 F6000.000
G1 F1800
G1 X133.906 Y63.069 E153.78285
G1 X139.431 Y68.594 E154.11505
G1 X139.431 Y101.406 E155.51025
G1 X133.906 Y106.931 E155.84245
G1 X36.094 Y106.931 E160.00145
G1 X30.569 Y101.406 E160.33365
G1 X30.569 Y68.594 E161.72885
G1 X36.051 Y63.112 E162.05850
G1 X36.235 Y63.410 F6000.000
G1 F1800
G1 X133.765 Y63.410 E166.20550
G1 X139.090 Y68.735 E166.52569
G1 X139.090 Y101.265 E167.90888
G1 X133.765 Y106.590 E168.22907
G1 X36.235 Y106.590 E172.37607
G1 X30.910 Y101.265 E172.69626
G1 X30.910 Y68.735 E174.07946
G1 X36.192 Y63.452 E174.39710
G1 X36.376 Y63.751 F6000.000
G1 F1800
G1 X133.624 Y63.751 E178.53208
G1 X138.749 Y68.876 E178.84027
G1 X138.749 Y101.124 E180.21145
G1 X133.624 Y106.249 E180.51963
G1 X36.376 Y106.249 E184.65462
G1 X31.251 Y101.124 E184.96280
G1 X31.251 Y68.876 E186.33399
G1 X36.334 Y63.793 E186.63962
G1 X36.517 Y64.092 F6000.000
G1 F1800
G1 X133.483 Y64.092 E190.76260
G1 X138.408 Y69.017 E191.05877
G1 X138.408 Y100.983 E192.41795
G1 X133.483 Y105.908 E192.71413
G1 X36.517 Y105.908 E196.83710
G1 X31.592 Y100.983 E197.13328
G1 X31.592 Y69.017 E198.49246
G1 X36.475 Y64.134 E198.78608
G1 X36.658 Y64.433 F6000.000
G1 F1800
G1 X133.342 Y64.433 E202.89705
G1 X138.067 Y69.158 E203.18122
G1 X138.067 Y100.842 E204.52838
G1 X133.342 Y105.567 E204.81255
G1 X36.658 Y105.567 E208.92352
G1 X31.933 Y100.842 E209.20769
G1 X31.933 Y69.158 E210.55485
G1 X36.616 Y64.475 E210.83647
G1 X36.800 Y64.774 F6000.000
G1 F1800
G1 X133.200 Y64.774 E214.93543
G1 X137.726 Y69.300 E215.20759
G1 X137.726 Y100.700 E216.54275
G1 X133.200 Y105.226 E216.81491
G1 X36.800 Y105.226 E220.91387
G1 X32.274 Y100.700 E221.18603
G1 X32.274 Y69.300 E222.52118
G1 X36.757 Y64.816 E222.79079
G1 X36.941 Y65.115 F6000.000
G1 F1800
G1 X133.059 Y65.115 E226.87775
G1 X137.385 Y69.441 E227.13789
G1 X137.385 Y100.559 E228.46105
G1 X133.059 Y104.885 E228.72119
G1 X36.941 Y104.885 E232.80815
G1 X32.615 Y100.559 E233.06830
G1 X32.615 Y69.441 E234.39145
G1 X36.898 Y65.157 E234.64905
G1 X37.082 Y65.456 F6000.000
G1 F1800
G1 X132.918 Y65.456 E238.72399
G1 X137.044 Y69.582 E238.97213
G1 X137.044 Y100.418 E240.28327
G1 X132.918 Y104.544 E240.53142
G1 X37.082 Y104.544 E244.60636
G1 X32.956 Y100.418 E244.85450
G1 X32.956 Y69.582 E246.16564
G1 X37.040 Y65.498 E246.41123
G1 X37.223 Y65.796 F6000.000
G1 F1800
G1 X132.777 Y65.796 E250.47417
G1 X136.704 Y69.723 E250.71030
G1 X136.704 Y100.277 E252.00944
G1 X132.777 Y104.204 E252.24557
G1 X37.223 Y104.204 E256.30851
G1 X33.296 Y100.277 E256.54464
G1 X33.296 Y69.723 E257.84377
G1 X37.181 Y65.839 E258.07735
G1 X37.364 Y66.137 F6000.000
G1 F1800
G1 X132.636 Y66.137 E262.12828
G1 X136.363 Y69.864 E262.35241
G1 X136.363 Y100.136 E263.63953
G1 X132.636 Y103.863 E263.86366
G1 X37.364 Y103.863 E267.91458
G1 X33.637 Y100.136 E268.13871
G1 X33.637 Y69.864 E269.42583
G1 X37.322 Y66.180 E269.64741
G1 X37.506 Y66.478 F6000.000
G1 F1800
G1 X132.494 Y66.478 E273.68633
G1 X136.022 Y70.006 E273.89844
G1 X136.022 Y99.994 E275.17356
G1 X132.494 Y103.522 E275.38567
G1 X37.506 Y103.522 E279.42459
G1 X33.978 Y99.994 E279.63671
G1 X33.978 Y70.006 E280.91183
G1 X37.463 Y66.521 E281.12139
G1 X37.647 Y66.819 F6000.000
G1 F1800
G1 X132.353 Y66.819 E285.14830
G1 X135.681 Y70.147 E285.34841
G1 X135.681 Y99.853 E286.61152
G1 X132.353 Y103.181 E286.81163
G1 X37.647 Y103.181 E290.83854
G1 X34.319 Y99.853 E291.03864
G1 X34.319 Y70.147 E292.30175
G1 X37.604 Y66.862 E292.49931
G1 X37.788 Y67.160 F6000.000
G1 F1800
G1 X132.212 Y67.160 E296.51421
G1 X135.340 Y70.288 E296.70231
G1 X135.340 Y99.712 E297.95341
G1 X132.212 Y102.840 E298.14151
G1 X37.788 Y102.840 E302.15641
G1 X34.660 Y99.712 E302.34451
G1 X34.660 Y70.288 E303.59561
G1 X37.746 Y67.202 E303.78116
G1 X37.929 Y67.501 F6000.000
G1 F1800
G1 X132.071 Y67.501 E307.78405
G1 X134.999 Y70.429 E307.96014
G1 X134.999 Y99.571 E309.19923
G1 X132.071 Y102.499 E309.37532
G1 X37.929 Y102.499 E313.37822
G1 X35.001 Y99.571 E313.55431
G1 X35.001 Y70.429 E314.79340
G1 X37.887 Y67.543 E314.96694
G1 X38.071 Y67.842 F6000.000
G1 F1800
G1 X131.929 Y67.842 E318.95783
G1 X134.658 Y70.571 E319.12191
G1 X134.658 Y99.429 E320.34899
G1 X131.929 Y102.158 E320.51307
G1 X38.071 Y102.158 E324.50396
G1 X35.342 Y99.429 E324.66804
G1 X35.342 Y70.571 E325.89512
G1 X38.028 Y67.884 E326.05666
G1 X38.212 Y68.183 F6000.000
G1 F1800
G1 X131.788 Y68.183 E330.03553
G1 X134.317 Y70.712 E330.18761
G1 X134.317 Y99.288 E331.40268
G1 X131.788 Y101.817 E331.55475
G1 X38.212 Y101.817 E335.53363
G1 X35.683 Y99.288 E335.68571
G1 X35.683 Y70.712 E336.90078
G1 X38.169 Y68.225 E337.05030
G1 X38.353 Y68.524 F6000.000
G1 F1800
G1 X131.647 Y68.524 E341.01717
G1 X133.976 Y70.853 E341.15724
G1 X133.976 Y99.147 E342.36030
G1 X131.647 Y101.476 E342.50037
G1 X38.353 Y101.476 E346.46724
G1 X36.024 Y99.147 E346.60730
G1 X36.024 Y70.853 E347.81037
G1 X38.311 Y68.566 E347.94788
G1 X38.494 Y68.865 F6000.000
G1 F1800
G1 X131.506 Y68.865 E351.90274
G1 X133.635 Y70.994 E352.03080
G1 X133.635 Y99.006 E353.22186
G1 X131.506 Y101.135 E353.34991
G1 X38.494 Y101.135 E357.30478
G1 X36.365 Y99.006 E357.43283
G1 X36.365 Y70.994 E358.62389
G1 X38.452 Y68.907 E358.74939
G1 X38.635 Y69.206 F6000.000
G1 F1800
G1 X131.365 Y69.206 E362.69225
G1 X133.294 Y71.135 E362.80829
G1 X133.294 Y98.865 E363.98734
G1 X131.365 Y100.794 E364.10339
G1 X38.635 Y100.794 E368.04625
G1 X36.706 Y98.865 E368.16229
G1 X36.706 Y71.135 E369.34134
G1 X38.593 Y69.248 E369.45484
G1 X38.777 Y69.546 F6000.000
G1 F1800
G1 X131.223 Y69.546 E373.38568
G1 X132.954 Y71.277 E373.48972
G1 X132.954 Y98.723 E374.65676
G1 X131.223 Y100.454 E374.76080
G1 X38.777 Y100.454 E378.69165
G1 X37.046 Y98.723 E378.79569
G1 X37.046 Y71.277 E379.96273
G1 X38.734 Y69.589 E380.06422
G1 X38.918 Y69.887 F6000.000
G1 F1800
G1 X131.082 Y69.887 E383.98305
G1 X132.613 Y71.418 E384.07508
G1 X132.613 Y98.582 E385.23012
G1 X131.082 Y100.113 E385.32215
G1 X38.918 Y100.113 E389.24098
G1 X37.387 Y98.582 E389.33301
G1 X37.387 Y71.418 E390.48805
G1 X38.875 Y69.930 E390.57753
G1 X39.059 Y70.228 F6000.000
G1 F1800
G1 X130.941 Y70.228 E394.48435
G1 X132.272 Y71.559 E394.56438
G1 X132.272 Y98.441 E395.70740
G1 X130.941 Y99.772 E395.78742
G1 X39.059 Y99.772 E399.69425
G1 X37.728 Y98.441 E399.77427
G1 X37.728 Y71.559 E400.91730
G1 X39.017 Y70.271 E400.99477
G1 X39.200 Y70.569 F6000.000
G1 F1800
G1 X130.800 Y70.569 E404.88959
G1 X131.931 Y71.700 E404.95760
G1 X131.931 Y98.300 E406.08862
G1 X130.800 Y99.431 E406.15663
G1 X39.200 Y99.431 E410.05145
G1 X38.069 Y98.300 E410.11946
G1 X38.069 Y71.700 E411.25048
G1 X39.158 Y70.612 E411.31594
G1 X39.341 Y70.910 F6000.000
G1 F1800
G1 X130.659 Y70.910 E415.19875
G1 X131.590 Y71.841 E415.25476
G1 X131.590 Y98.159 E416.37377
G1 X130.659 Y99.090 E416.42977
G1 X39.341 Y99.090 E420.31258
G1 X38.410 Y98.159 E420.36859
G1 X38.410 Y71.841 E421.48759
G1 X39.299 Y70.952 E421.54105
G1 X39.483 Y71.251 F6000.000
G1 F1800
G1 X130.517 Y71.251 E425.41185
G1 X131.249 Y71.983 E425.45585
G1 X131.249 Y98.017 E426.56285
G1 X130.517 Y98.749 E426.60684
G1 X39.483 Y98.749 E430.47765
G1 X38.751 Y98.017 E430.52164
G1 X38.751 Y71.983 E431.62864
G1 X39.440 Y71.293 E431.67009
G1 X39.624 Y71.592 F6000.000
G1 F1800
G1 X130.376 Y71.592 E435.52888
G1 X130.908 Y72.124 E435.56087
G1 X130.908 Y97.876 E436.65586
G1 X130.376 Y98.408 E436.68785
G1 X39.624 Y98.408 E440.54664
G1 X39.092 Y97.876 E440.57863
G1 X39.092 Y72.124 E441.67362
G1 X39.581 Y71.634 E441.70306
G1 X39.765 Y71.933 F6000.000
G1 F1800
G1 X130.235 Y71.933 E445.54985
G1 X130.567 Y72.265 E445.56983
G1 X130.567 Y97.735 E446.65281
G1 X130.235 Y98.067 E446.67279
G1 X39.765 Y98.067 E450.51957
G1 X39.433 Y97.735 E450.53955
G1 X39.433 Y72.265 E451.62254
G1 X39.723 Y71.975 E451.63996
G1 X39.906 Y72.274 F6000.000
G1 F1800
G1 X130.094 Y72.274 E455.47474
G1 X130.226 Y72.406 E455.48271
G1 X130.226 Y97.594 E456.55369
G1 X130.094 Y97.726 E456.56166
G1 X39.906 Y97.726 E460.39644
G1 X39.774 Y97.594 E460.40441
G1 X39.774 Y72.406 E461.47538
G1 X39.864 Y72.316 E461.48080
G1 F4800
G1 X51.864 Y72.310 E455.78080
G1 E455.48080 F2400.00000
G92 E0
G1 X40.200 Y97.300 F6000.000
G1 E6.00000 F2400.00000
G1 F1800
G1 X40.200 Y72.700 E7.02976
G1 X129.800 Y72.700 E10.78045
G1 X129.800 Y97.300 E11.81021
G1 X40.260 Y97.300 E15.55838
G1 X40.368 Y96.937 F6000.000
G1 X40.536 Y96.964 F6000.000
G1 F1800
G1 X40.536 Y73.036 E16.56005
G1 X129.464 Y73.036 E20.28263
G1 X129.464 Y96.964 E21.28430
G1 X40.596 Y96.964 E25.00437
G1 X40.871 Y96.629 F6000.000
G1 F1800
G1 X40.871 Y73.371 E25.97794
G1 X129.129 Y73.371 E29.67243
G1 X129.129 Y96.629 E30.64599
G1 X40.931 Y96.629 E34.33797
G1 F4800
G1 X40.900 Y84.629 E28.63797
G1 E28.33797 F2400.00000
G92 E0
G1 X117.321 Y82.835 F6000.000
G1 E6.00000 F2400.00000
G1 F1800
G1 X117.300 Y82.504 E6.01392
G1 X117.321 Y82.165 E6.02813
G1 X117.380 Y81.845 E6.04175
G1 X117.481 Y81.528 E6.05566
G1 X117.619 Y81.226 E6.06958
G1 X117.794 Y80.943 E6.08350
G1 X118.007 Y80.678 E6.09772
G1 X118.240 Y80.452 E6.11134
G1 X118.505 Y80.251 E6.12525
G1 X118.800 Y80.081 E6.13947
G1 X119.099 Y79.954 E6.15309
G1 X119.419 Y79.863 E6.16700
G1 X119.754 Y79.811 E6.18122
G1 X120.080 Y79.801 E6.19484
G1 X120.411 Y79.831 E6.20875
G1 X120.742 Y79.904 E6.22298
G1 X121.056 Y80.015 E6.23690
G1 X121.353 Y80.163 E6.25082
G1 X121.630 Y80.347 E6.26473
G1 X121.877 Y80.559 E6.27835
G1 X122.106 Y80.810 E6.29256
G1 X122.294 Y81.075 E6.30617
G1 X122.452 Y81.368 E6.32009
G1 X122.574 Y81.685 E6.33431
G1 X122.655 Y82.008 E6.34824
G1 X122.695 Y82.338 E6.36215
G1 X122.695 Y82.670 E6.37606
G1 X122.655 Y82.993 E6.38968
G1 X122.572 Y83.322 E6.40390
G1 X122.452 Y83.632 E6.41781
G1 X122.298 Y83.919 E6.43143
G1 X122.101 Y84.196 E6.44565
G1 X121.877 Y84.441 E6.45957
G1 X121.630 Y84.653 E6.47318
G1 X121.347 Y84.840 E6.48740
G1 X121.049 Y84.988 E6.50132
G1 X120.742 Y85.096 E6.51493
G1 X120.418 Y85.168 E6.52884
G1 X120.087 Y85.199 E6.54276
G1 X119.755 Y85.189 E6.55667
G1 X119.426 Y85.139 E6.57060
G1 X119.099 Y85.046 E6.58481
G1 X118.800 Y84.919 E6.59843
G1 X118.511 Y84.753 E6.61235
G1 X118.240 Y84.548 E6.62656
G1 X118.007 Y84.322 E6.64018
G1 X117.798 Y84.063 E6.65409
G1 X117.623 Y83.781 E6.66801
G1 X117.483 Y83.479 E6.68193
G1 X117.380 Y83.155 E6.69615
