; generated by Slic3r 1.3.0 on 2021-04-13 at 19:11:18

; external perimeters extrusion width = 0.44mm (6.76mm^3/s)
; perimeters extrusion width = 0.48mm (7.54mm^3/s)
; infill extrusion width = 0.48mm (6.28mm^3/s)
; solid infill extrusion width = 0.48mm (3.77mm^3/s)
; top infill extrusion width = 0.40mm (7.05mm^3/s)
; support material extrusion width = 0.44mm (7.89mm^3/s)

M107
M190 S100 ; set bed temperature and wait for it to be reached
M104 S240 ; set temperature
G28 ; home all axes
G1 Z5 F5000 ; lift nozzle

; Filament gcode

M109 S240 ; set temperature and wait for it to be reached
G21 ; set units to millimeters
G90 ; use absolute coordinates
M82 ; use absolute distances for extrusion
G92 E0
G1 E-6.00000 F2400.00000
G92 E0
G1 Z0.300 F6000.000
G1 X36.405 Y56.702 F6000.000
G1 E6.00000 F2400.00000
G1 F1800
G1 X39.752 Y55.565 E6.14798
G1 X42.460 Y55.219 E6.26225
G1 X86.913 Y53.451 E8.12452
G1 X126.913 Y53.451 E9.79893
G1 X130.425 Y53.850 E9.94691
G1 X133.759 Y55.026 E10.09490
G1 X136.745 Y56.919 E10.24288
G1 X139.230 Y59.433 E10.39086
G1 X141.088 Y62.440 E10.53884
G1 X142.225 Y65.788 E10.68682
G1 X142.584 Y69.122 E10.82722
G1 X142.584 Y99.122 E12.08303
G1 X142.185 Y102.635 E12.23101
G1 X141.009 Y105.969 E12.37899
G1 X139.116 Y108.954 E12.52697
G1 X136.602 Y111.439 E12.67495
G1 X133.595 Y113.298 E12.82293
G1 X130.248 Y114.435 E12.97091
G1 X127.540 Y114.781 E13.08518
G1 X83.087 Y116.549 E14.94745
G1 X43.087 Y116.549 E16.62186
G1 X39.575 Y116.150 E16.76985
G1 X36.241 Y114.974 E16.91783
G1 X33.255 Y113.081 E17.06581
G1 X30.770 Y110.567 E17.21379
G1 X28.912 Y107.560 E17.36177
G1 X27.775 Y104.212 E17.50975
G1 X27.416 Y100.878 E17.65015
G1 X27.416 Y70.878 E18.90596
G1 X27.815 Y67.365 E19.05394
G1 X28.991 Y64.031 E19.20192
G1 X30.884 Y61.046 E19.34990
G1 X33.398 Y58.561 E19.49788
G1 X36.354 Y56.734 E19.64335
G1 X36.720 Y56.926 F6000.000
G1 F1800
G1 X40.046 Y55.847 E19.78973
G1 X42.474 Y55.554 E19.89210
G1 X86.913 Y53.787 E21.75381
G1 X126.913 Y53.787 E23.42822
G1 X130.387 Y54.185 E23.57461
G1 X133.680 Y55.361 E23.72099
G1 X136.622 Y57.252 E23.86737
G1 X139.059 Y59.760 E24.01375
G1 X140.864 Y62.755 E24.16014
G1 X141.944 Y66.081 E24.30652
G1 X142.248 Y69.122 E24.43447
G1 X142.248 Y99.122 E25.69028
G1 X141.850 Y102.597 E25.83667
G1 X140.674 Y105.890 E25.98305
G1 X138.783 Y108.832 E26.12943
G1 X136.275 Y111.268 E26.27581
G1 X133.280 Y113.074 E26.42220
G1 X129.954 Y114.153 E26.56858
G1 X127.526 Y114.446 E26.67094
G1 X83.087 Y116.213 E28.53266
G1 X43.087 Y116.213 E30.20707
G1 X39.613 Y115.815 E30.35345
G1 X36.320 Y114.639 E30.49983
G1 X33.378 Y112.748 E30.64622
G1 X30.941 Y110.240 E30.79260
G1 X29.136 Y107.245 E30.93898
G1 X28.056 Y103.919 E31.08536
G1 X27.752 Y100.878 E31.21332
G1 X27.752 Y70.878 E32.46913
G1 X28.150 Y67.403 E32.61551
G1 X29.326 Y64.110 E32.76189
G1 X31.217 Y61.168 E32.90828
G1 X33.725 Y58.732 E33.05466
G1 X36.668 Y56.957 E33.19853
G1 X37.910 Y58.379 F6000.000
G1 F1800
G1 X79.942 Y58.379 E34.98573
G1 X80.008 Y58.351 E34.98876
G1 X81.736 Y56.623 E35.09266
G1 X132.090 Y56.623 E37.23374
G1 X139.412 Y63.945 E37.67402
G1 X139.412 Y104.300 E39.38989
G1 X132.090 Y111.621 E39.83017
G1 X90.058 Y111.621 E41.61737
G1 X89.992 Y111.649 E41.62039
G1 X88.264 Y113.377 E41.72430
G1 X37.910 Y113.377 E43.86538
G1 X30.588 Y106.055 E44.30565
G1 X30.588 Y65.700 E46.02153
G1 X37.868 Y58.421 E46.45925
G1 X38.051 Y58.719 F6000.000
G1 F1800
G1 X80.083 Y58.719 E48.24645
G1 X80.149 Y58.692 E48.24948
G1 X81.877 Y56.964 E48.35339
G1 X131.949 Y56.964 E50.48246
G1 X139.071 Y64.086 E50.91072
G1 X139.071 Y104.158 E52.61459
G1 X131.949 Y111.281 E53.04286
G1 X89.917 Y111.281 E54.83006
G1 X89.851 Y111.308 E54.83308
G1 X88.123 Y113.036 E54.93699
G1 X38.051 Y113.036 E57.06606
G1 X30.929 Y105.914 E57.49433
G1 X30.929 Y65.842 E59.19820
G1 X38.009 Y58.762 E59.62391
G1 X38.192 Y59.060 F6000.000
G1 F1800
G1 X80.224 Y59.060 E61.41111
G1 X80.290 Y59.033 E61.41414
G1 X82.018 Y57.305 E61.51804
G1 X131.808 Y57.305 E63.63510
G1 X138.730 Y64.228 E64.05136
G1 X138.730 Y104.017 E65.74322
G1 X131.808 Y110.940 E66.15948
G1 X89.776 Y110.940 E67.94668
G1 X89.710 Y110.967 E67.94971
G1 X87.982 Y112.695 E68.05361
G1 X38.192 Y112.695 E70.17067
G1 X31.270 Y105.772 E70.58693
G1 X31.270 Y65.983 E72.27879
G1 X38.150 Y59.103 E72.69250
G1 X38.334 Y59.401 F6000.000
G1 F1800
G1 X80.365 Y59.401 E74.47970
G1 X80.431 Y59.374 E74.48273
G1 X82.159 Y57.646 E74.58663
G1 X131.666 Y57.646 E76.69168
G1 X138.389 Y64.369 E77.09593
G1 X138.389 Y103.876 E78.77579
G1 X131.666 Y110.599 E79.18004
G1 X89.635 Y110.599 E80.96723
G1 X89.569 Y110.626 E80.97026
G1 X87.841 Y112.354 E81.07417
G1 X38.334 Y112.354 E83.17922
G1 X31.611 Y105.631 E83.58347
G1 X31.611 Y66.124 E85.26332
G1 X38.291 Y59.444 E85.66502
G1 X38.475 Y59.742 F6000.000
G1 F1800
G1 X80.507 Y59.742 E87.45222
G1 X80.572 Y59.715 E87.45525
G1 X82.300 Y57.987 E87.55915
G1 X131.525 Y57.987 E89.65220
G1 X138.048 Y64.510 E90.04444
G1 X138.048 Y103.735 E91.71228
G1 X131.525 Y110.258 E92.10453
G1 X89.493 Y110.258 E93.89172
G1 X89.428 Y110.285 E93.89475
G1 X87.700 Y112.013 E93.99866
G1 X38.475 Y112.013 E96.09170
G1 X31.952 Y105.490 E96.48394
G1 X31.952 Y66.265 E98.15179
G1 X38.432 Y59.785 E98.54148
G1 X38.616 Y60.083 F6000.000
G1 F1800
G1 X80.648 Y60.083 E100.32867
G1 X80.714 Y60.056 E100.33170
G1 X82.442 Y58.328 E100.43561
G1 X131.384 Y58.328 E102.51664
G1 X137.707 Y64.651 E102.89688
G1 X137.707 Y103.594 E104.55271
G1 X131.384 Y109.917 E104.93295
G1 X89.352 Y109.917 E106.72014
G1 X89.286 Y109.944 E106.72317
G1 X87.558 Y111.672 E106.82708
G1 X38.616 Y111.672 E108.90811
G1 X32.293 Y105.349 E109.28835
G1 X32.293 Y66.406 E110.94418
G1 X38.574 Y60.126 E111.32186
G1 X38.757 Y60.424 F6000.000
G1 F1800
G1 X80.789 Y60.424 E113.10906
G1 X80.855 Y60.397 E113.11209
G1 X82.583 Y58.669 E113.21599
G1 X131.243 Y58.669 E115.28502
G1 X137.366 Y64.792 E115.65325
G1 X137.366 Y103.452 E117.29707
G1 X131.243 Y109.576 E117.66530
G1 X89.211 Y109.576 E119.45250
G1 X89.145 Y109.603 E119.45552
G1 X87.417 Y111.331 E119.55943
G1 X38.757 Y111.331 E121.62846
G1 X32.634 Y105.208 E121.99668
G1 X32.634 Y66.548 E123.64051
G1 X38.715 Y60.466 E124.00618
G1 X38.898 Y60.765 F6000.000
G1 F1800
G1 X80.930 Y60.765 E125.79338
G1 X80.996 Y60.738 E125.79641
G1 X82.724 Y59.010 E125.90031
G1 X131.102 Y59.010 E127.95733
G1 X137.025 Y64.934 E128.31355
G1 X137.025 Y103.311 E129.94537
G1 X131.102 Y109.235 E130.30158
G1 X89.070 Y109.235 E132.08878
G1 X89.004 Y109.262 E132.09181
G1 X87.276 Y110.990 E132.19572
G1 X38.898 Y110.990 E134.25273
G1 X32.975 Y105.066 E134.60895
G1 X32.975 Y66.689 E136.24077
G1 X38.856 Y60.807 E136.59443
G1 X39.040 Y61.106 F6000.000
G1 F1800
G1 X81.071 Y61.106 E138.38163
G1 X81.137 Y61.079 E138.38466
G1 X82.865 Y59.351 E138.48857
G1 X130.960 Y59.351 E140.53358
G1 X136.685 Y65.075 E140.87778
G1 X136.685 Y103.170 E142.49759
G1 X130.960 Y108.894 E142.84180
G1 X88.929 Y108.894 E144.62900
G1 X88.863 Y108.921 E144.63203
G1 X87.135 Y110.649 E144.73593
G1 X39.040 Y110.649 E146.78094
G1 X33.315 Y104.925 E147.12515
G1 X33.315 Y66.830 E148.74496
G1 X38.997 Y61.148 E149.08662
G1 X39.181 Y61.447 F6000.000
G1 F1800
G1 X81.213 Y61.447 E150.87382
G1 X81.278 Y61.419 E150.87684
G1 X83.006 Y59.692 E150.98075
G1 X130.819 Y59.692 E153.01375
G1 X136.344 Y65.216 E153.34595
G1 X136.344 Y103.029 E154.95375
G1 X130.819 Y108.553 E155.28595
G1 X88.787 Y108.553 E157.07315
G1 X88.722 Y108.581 E157.07618
G1 X86.994 Y110.308 E157.18008
G1 X39.181 Y110.308 E159.21309
G1 X33.656 Y104.784 E159.54529
G1 X33.656 Y66.971 E161.15309
G1 X39.138 Y61.489 E161.48274
G1 X39.322 Y61.788 F6000.000
G1 F1800
G1 X81.354 Y61.788 E163.26993
G1 X81.420 Y61.760 E163.27296
G1 X83.148 Y60.032 E163.37687
G1 X130.678 Y60.032 E165.39786
G1 X136.003 Y65.357 E165.71805
G1 X136.003 Y102.888 E167.31384
G1 X130.678 Y108.212 E167.63404
G1 X88.646 Y108.212 E169.42123
G1 X88.580 Y108.240 E169.42426
G1 X86.852 Y109.968 E169.52817
G1 X39.322 Y109.968 E171.54916
G1 X33.997 Y104.643 E171.86935
G1 X33.997 Y67.112 E173.46514
G1 X39.280 Y61.830 E173.78278
G1 X39.463 Y62.129 F6000.000
G1 F1800
G1 X81.495 Y62.129 E175.56998
G1 X81.561 Y62.101 E175.57301
G1 X83.289 Y60.373 E175.67692
G1 X130.537 Y60.373 E177.68590
G1 X135.662 Y65.498 E177.99408
G1 X135.662 Y102.746 E179.57787
G1 X130.537 Y107.871 E179.88605
G1 X88.505 Y107.871 E181.67325
G1 X88.439 Y107.899 E181.67628
G1 X86.711 Y109.627 E181.78018
G1 X39.463 Y109.627 E183.78917
G1 X34.338 Y104.502 E184.09735
G1 X34.338 Y67.254 E185.68113
G1 X39.421 Y62.171 E185.98677
G1 X39.604 Y62.469 F6000.000
G1 F1800
G1 X81.636 Y62.469 E187.77396
G1 X81.702 Y62.442 E187.77699
G1 X83.430 Y60.714 E187.88090
G1 X130.396 Y60.714 E189.87787
G1 X135.321 Y65.640 E190.17405
G1 X135.321 Y102.605 E191.74582
G1 X130.396 Y107.531 E192.04200
G1 X88.364 Y107.531 E193.82920
G1 X88.298 Y107.558 E193.83222
G1 X86.570 Y109.286 E193.93613
G1 X39.604 Y109.286 E195.93311
G1 X34.679 Y104.360 E196.22928
G1 X34.679 Y67.395 E197.80106
G1 X39.562 Y62.512 E198.09468
G1 X39.746 Y62.810 F6000.000
G1 F1800
G1 X81.778 Y62.810 E199.88188
G1 X81.843 Y62.783 E199.88490
G1 X83.571 Y61.055 E199.98881
G1 X130.254 Y61.055 E201.97378
G1 X134.980 Y65.781 E202.25794
G1 X134.980 Y102.464 E203.81771
G1 X130.254 Y107.190 E204.10188
G1 X88.222 Y107.190 E205.88908
G1 X88.157 Y107.217 E205.89210
G1 X86.429 Y108.945 E205.99601
G1 X39.746 Y108.945 E207.98098
G1 X35.020 Y104.219 E208.26514
G1 X35.020 Y67.536 E209.82491
G1 X39.703 Y62.853 E210.10653
G1 X39.887 Y63.151 F6000.000
G1 F1800
G1 X81.919 Y63.151 E211.89372
G1 X81.984 Y63.124 E211.89675
G1 X83.712 Y61.396 E212.00066
G1 X130.113 Y61.396 E213.97362
G1 X134.639 Y65.922 E214.24577
G1 X134.639 Y102.323 E215.79353
G1 X130.113 Y106.849 E216.06569
G1 X88.081 Y106.849 E217.85289
G1 X88.015 Y106.876 E217.85592
G1 X86.288 Y108.604 E217.95982
G1 X39.887 Y108.604 E219.93278
G1 X35.361 Y104.078 E220.20494
G1 X35.361 Y67.677 E221.75270
G1 X39.844 Y63.194 E222.02231
G1 X40.028 Y63.492 F6000.000
G1 F1800
G1 X82.060 Y63.492 E223.80950
G1 X82.126 Y63.465 E223.81253
G1 X83.854 Y61.737 E223.91644
G1 X129.972 Y61.737 E225.87739
G1 X134.298 Y66.063 E226.13754
G1 X134.298 Y102.182 E227.67329
G1 X129.972 Y106.508 E227.93344
G1 X87.940 Y106.508 E229.72063
G1 X87.874 Y106.535 E229.72366
G1 X86.146 Y108.263 E229.82757
G1 X40.028 Y108.263 E231.78852
G1 X35.702 Y103.937 E232.04867
G1 X35.702 Y67.818 E233.58442
G1 X39.986 Y63.535 E233.84202
G1 X40.169 Y63.833 F6000.000
G1 F1800
G1 X82.201 Y63.833 E235.62921
G1 X82.267 Y63.806 E235.63224
G1 X83.995 Y62.078 E235.73615
G1 X129.831 Y62.078 E237.68509
G1 X133.957 Y66.204 E237.93323
G1 X133.957 Y102.040 E239.45697
G1 X129.831 Y106.167 E239.70511
G1 X87.799 Y106.167 E241.49231
G1 X87.733 Y106.194 E241.49534
G1 X86.005 Y107.922 E241.59924
G1 X40.169 Y107.922 E243.54819
G1 X36.043 Y103.796 E243.79633
G1 X36.043 Y67.960 E245.32007
G1 X40.127 Y63.876 E245.56566
G1 X40.310 Y64.174 F6000.000
G1 F1800
G1 X82.342 Y64.174 E247.35286
G1 X82.408 Y64.147 E247.35589
G1 X84.136 Y62.419 E247.45979
G1 X129.690 Y62.419 E249.39673
G1 X133.616 Y66.346 E249.63286
G1 X133.616 Y101.899 E251.14459
G1 X129.690 Y105.826 E251.38072
G1 X87.658 Y105.826 E253.16792
G1 X87.592 Y105.853 E253.17095
G1 X85.864 Y107.581 E253.27485
G1 X40.310 Y107.581 E255.21179
G1 X36.384 Y103.654 E255.44792
G1 X36.384 Y68.101 E256.95966
G1 X40.268 Y64.216 E257.19324
G1 X40.452 Y64.515 F6000.000
G1 F1800
G1 X82.484 Y64.515 E258.98043
G1 X82.549 Y64.488 E258.98346
G1 X84.277 Y62.760 E259.08737
G1 X129.548 Y62.760 E261.01229
G1 X133.275 Y66.487 E261.23642
G1 X133.275 Y101.758 E262.73614
G1 X129.548 Y105.485 E262.96027
G1 X87.516 Y105.485 E264.74746
G1 X87.451 Y105.512 E264.75049
G1 X85.723 Y107.240 E264.85440
G1 X40.452 Y107.240 E266.77932
G1 X36.725 Y103.513 E267.00345
G1 X36.725 Y68.242 E268.50317
G1 X40.409 Y64.557 E268.72475
G1 X40.593 Y64.856 F6000.000
G1 F1800
G1 X82.625 Y64.856 E270.51194
G1 X82.691 Y64.829 E270.51497
G1 X84.419 Y63.101 E270.61888
G1 X129.407 Y63.101 E272.53179
G1 X132.935 Y66.628 E272.74391
G1 X132.935 Y101.617 E274.23163
G1 X129.407 Y105.144 E274.44374
G1 X87.375 Y105.144 E276.23094
G1 X87.309 Y105.171 E276.23397
G1 X85.581 Y106.899 E276.33787
G1 X40.593 Y106.899 E278.25079
G1 X37.065 Y103.372 E278.46291
G1 X37.065 Y68.383 E279.95062
G1 X40.550 Y64.898 E280.16019
G1 X40.734 Y65.197 F6000.000
G1 F1800
G1 X82.766 Y65.197 E281.94738
G1 X82.832 Y65.169 E281.95041
G1 X84.560 Y63.442 E282.05432
G1 X129.266 Y63.442 E283.95523
G1 X132.594 Y66.769 E284.15533
G1 X132.594 Y101.475 E285.63104
G1 X129.266 Y104.803 E285.83115
G1 X87.234 Y104.803 E287.61835
G1 X87.168 Y104.831 E287.62137
G1 X85.440 Y106.558 E287.72528
G1 X40.734 Y106.558 E289.62619
G1 X37.406 Y103.231 E289.82630
G1 X37.406 Y68.525 E291.30200
G1 X40.692 Y65.239 E291.49956
G1 X40.875 Y65.538 F6000.000
G1 F1800
G1 X82.907 Y65.538 E293.28676
G1 X82.973 Y65.510 E293.28979
G1 X84.701 Y63.782 E293.39369
G1 X129.125 Y63.782 E295.28259
G1 X132.253 Y66.911 E295.47069
G1 X132.253 Y101.334 E296.93439
G1 X129.125 Y104.462 E297.12249
G1 X87.093 Y104.462 E298.90969
G1 X87.027 Y104.490 E298.91271
G1 X85.299 Y106.218 E299.01662
G1 X40.875 Y106.218 E300.90552
G1 X37.747 Y103.089 E301.09362
G1 X37.747 Y68.666 E302.55732
G1 X40.833 Y65.580 E302.74287
G1 X41.017 Y65.879 F6000.000
G1 F1800
G1 X83.048 Y65.879 E304.53006
G1 X83.114 Y65.851 E304.53309
G1 X84.842 Y64.123 E304.63700
G1 X128.983 Y64.123 E306.51389
G1 X131.912 Y67.052 E306.68998
G1 X131.912 Y101.193 E308.14167
G1 X128.983 Y104.121 E308.31776
G1 X86.952 Y104.121 E310.10496
G1 X86.886 Y104.149 E310.10799
G1 X85.158 Y105.877 E310.21189
G1 X41.017 Y105.877 E312.08878
G1 X38.088 Y102.948 E312.26487
G1 X38.088 Y68.807 E313.71657
G1 X40.974 Y65.921 E313.89011
G1 X41.158 Y66.219 F6000.000
G1 F1800
G1 X83.190 Y66.219 E315.67730
G1 X83.255 Y66.192 E315.68033
G1 X84.983 Y64.464 E315.78424
G1 X128.842 Y64.464 E317.64912
G1 X131.571 Y67.193 E317.81320
G1 X131.571 Y101.052 E319.25288
G1 X128.842 Y103.781 E319.41697
G1 X86.810 Y103.781 E321.20416
G1 X86.745 Y103.808 E321.20719
G1 X85.017 Y105.536 E321.31110
G1 X41.158 Y105.536 E323.17598
G1 X38.429 Y102.807 E323.34006
G1 X38.429 Y68.948 E324.77975
G1 X41.115 Y66.262 E324.94128
G1 X41.299 Y66.560 F6000.000
G1 F1800
G1 X83.331 Y66.560 E326.72847
G1 X83.397 Y66.533 E326.73150
G1 X85.125 Y64.805 E326.83541
G1 X128.701 Y64.805 E328.68828
G1 X131.230 Y67.334 E328.84036
G1 X131.230 Y100.911 E330.26803
G1 X128.701 Y103.440 E330.42010
G1 X86.669 Y103.440 E332.20730
G1 X86.603 Y103.467 E332.21033
G1 X84.875 Y105.195 E332.31423
G1 X41.299 Y105.195 E334.16711
G1 X38.770 Y102.666 E334.31918
G1 X38.770 Y69.089 E335.74686
G1 X41.257 Y66.603 E335.89638
G1 X41.440 Y66.901 F6000.000
G1 F1800
G1 X83.472 Y66.901 E337.68358
G1 X83.538 Y66.874 E337.68660
G1 X85.266 Y65.146 E337.79051
G1 X128.560 Y65.146 E339.63138
G1 X130.889 Y67.475 E339.77144
G1 X130.889 Y100.769 E341.18711
G1 X128.560 Y103.099 E341.32717
G1 X86.528 Y103.099 E343.11437
G1 X86.462 Y103.126 E343.11740
G1 X84.734 Y104.854 E343.22130
G1 X41.440 Y104.854 E345.06217
G1 X39.111 Y102.525 E345.20224
G1 X39.111 Y69.231 E346.61790
G1 X41.398 Y66.944 E346.75542
G1 X41.581 Y67.242 F6000.000
G1 F1800
G1 X83.613 Y67.242 E348.54261
G1 X83.679 Y67.215 E348.54564
G1 X85.407 Y65.487 E348.64955
G1 X128.419 Y65.487 E350.47841
G1 X130.548 Y67.617 E350.60646
G1 X130.548 Y100.628 E352.01012
G1 X128.419 Y102.758 E352.13818
G1 X86.387 Y102.758 E353.92537
G1 X86.321 Y102.785 E353.92840
G1 X84.593 Y104.513 E354.03231
G1 X41.581 Y104.513 E355.86117
G1 X39.452 Y102.383 E355.98922
G1 X39.452 Y69.372 E357.39288
