; generated by Slic3r 1.3.0 on 2021-04-30 at 13:31:59

; external perimeters extrusion width = 0.44mm (6.76mm^3/s)
; perimeters extrusion width = 0.48mm (7.54mm^3/s)
; infill extrusion width = 0.48mm (6.28mm^3/s)
; solid infill extrusion width = 0.48mm (3.77mm^3/s)
; top infill extrusion width = 0.40mm (7.05mm^3/s)
; support material extrusion width = 0.44mm (7.89mm^3/s)

M107
M190 S100 ; set bed temperature and wait for it to be reached
M104 S240 ; set temperature
G28 ; home all axes
G1 Z5 F5000 ; lift nozzle

; Filament gcode

M109 S240 ; set temperature and wait for it to be reached
G21 ; set units to millimeters
G90 ; use absolute coordinates
M82 ; use absolute distances for extrusion
G92 E0
G1 E-6.00000 F2400.00000
G92 E0
G1 Z0.300 F6000.000
G1 X71.939 Y50.168 F6000.000
G1 E6.00000 F2400.00000
G1 F1800
G1 X74.453 Y47.683 E6.14798
G1 X77.460 Y45.825 E6.29596
G1 X80.807 Y44.688 E6.44394
G1 X84.142 Y44.329 E6.58434
G1 X104.142 Y44.329 E7.42155
G1 X107.655 Y44.727 E7.56953
G1 X110.988 Y45.903 E7.71751
G1 X113.974 Y47.797 E7.86549
G1 X116.459 Y50.311 E8.01347
G1 X118.317 Y53.318 E8.16145
G1 X119.454 Y56.665 E8.30943
G1 X119.813 Y60.000 E8.44983
G1 X119.813 Y110.000 E10.54285
G1 X119.415 Y113.513 E10.69083
G1 X118.239 Y116.846 E10.83881
G1 X116.346 Y119.832 E10.98679
G1 X113.831 Y122.317 E11.13477
G1 X110.824 Y124.175 E11.28275
G1 X107.477 Y125.312 E11.43073
G1 X104.142 Y125.671 E11.57113
G1 X84.142 Y125.671 E12.40834
G1 X80.630 Y125.273 E12.55632
G1 X77.296 Y124.097 E12.70430
G1 X74.310 Y122.203 E12.85228
G1 X71.825 Y119.689 E13.00026
G1 X69.967 Y116.682 E13.14824
G1 X68.830 Y113.335 E13.29622
G1 X68.471 Y110.000 E13.43662
G1 X68.471 Y60.000 E15.52964
G1 X68.870 Y56.487 E15.67762
G1 X70.046 Y53.154 E15.82560
G1 X71.907 Y50.219 E15.97107
G1 X72.271 Y50.291 F6000.000
G1 F1800
G1 X74.780 Y47.854 E16.11745
G1 X77.775 Y46.049 E16.26383
G1 X81.101 Y44.969 E16.41022
G1 X84.142 Y44.664 E16.53817
G1 X104.142 Y44.664 E17.37538
G1 X107.616 Y45.063 E17.52176
G1 X110.910 Y46.238 E17.66814
G1 X113.851 Y48.129 E17.81453
G1 X116.288 Y50.637 E17.96091
G1 X118.093 Y53.632 E18.10729
G1 X119.173 Y56.958 E18.25367
G1 X119.478 Y60.000 E18.38163
G1 X119.478 Y110.000 E20.47465
G1 X119.079 Y113.474 E20.62103
G1 X117.904 Y116.768 E20.76741
G1 X116.013 Y119.709 E20.91379
G1 X113.505 Y122.146 E21.06018
G1 X110.510 Y123.951 E21.20656
G1 X107.184 Y125.031 E21.35294
G1 X104.142 Y125.336 E21.48090
G1 X84.142 Y125.336 E22.31810
G1 X80.668 Y124.937 E22.46449
G1 X77.375 Y123.762 E22.61087
G1 X74.433 Y121.871 E22.75725
G1 X71.996 Y119.363 E22.90363
G1 X70.191 Y116.368 E23.05002
G1 X69.111 Y113.042 E23.19640
G1 X68.807 Y110.000 E23.32436
G1 X68.807 Y60.000 E25.41737
G1 X69.205 Y56.526 E25.56375
G1 X70.381 Y53.232 E25.71014
G1 X72.239 Y50.341 E25.85401
G1 F4800
G1 X74.780 Y47.854 E24.16520
G1 F4800
G1 X77.775 Y46.049 E22.50415
G1 F4800
G1 X81.101 Y44.969 E20.84312
G1 F4800
G1 X82.544 Y44.824 E20.15401
G1 E19.85401 F2400.00000
G92 E0
G1 X74.223 Y52.243 F6000.000
G1 E6.00000 F2400.00000
G1 F1800
G1 X78.965 Y47.501 E6.28512
G1 X109.319 Y47.501 E7.57580
G1 X116.641 Y54.823 E8.01608
G1 X116.641 Y115.177 E10.58236
G1 X109.319 Y122.499 E11.02263
G1 X78.965 Y122.499 E12.31331
G1 X71.643 Y115.177 E12.75358
G1 X71.643 Y54.823 E15.31986
G1 X74.181 Y52.285 E15.47246
G1 X74.464 Y52.484 F6000.000
G1 F1800
G1 X79.106 Y47.842 E15.75158
G1 X109.178 Y47.842 E17.03025
G1 X116.300 Y54.964 E17.45852
G1 X116.300 Y115.036 E20.01279
G1 X109.178 Y122.158 E20.44106
G1 X79.106 Y122.158 E21.71972
G1 X71.984 Y115.036 E22.14799
G1 X71.984 Y54.964 E24.70226
G1 X74.422 Y52.526 E24.84886
G1 X74.705 Y52.725 F6000.000
G1 F1800
G1 X79.247 Y48.183 E25.12197
G1 X109.037 Y48.183 E26.38863
G1 X115.959 Y55.105 E26.80489
G1 X115.959 Y114.895 E29.34715
G1 X109.037 Y121.817 E29.76341
G1 X79.247 Y121.817 E31.03007
G1 X72.325 Y114.895 E31.44633
G1 X72.325 Y55.105 E33.98859
G1 X74.663 Y52.767 E34.12919
G1 X74.946 Y52.966 F6000.000
G1 F1800
G1 X79.388 Y48.524 E34.39630
G1 X108.896 Y48.524 E35.65095
G1 X115.618 Y55.246 E36.05520
G1 X115.618 Y114.754 E38.58545
G1 X108.896 Y121.476 E38.98970
G1 X79.388 Y121.476 E40.24435
G1 X72.666 Y114.754 E40.64860
G1 X72.666 Y55.246 E43.17886
G1 X74.904 Y53.008 E43.31345
G1 X75.187 Y53.207 F6000.000
G1 F1800
G1 X79.530 Y48.865 E43.57455
G1 X108.755 Y48.865 E44.81720
G1 X115.278 Y55.388 E45.20944
G1 X115.278 Y114.612 E47.72768
G1 X108.755 Y121.135 E48.11992
G1 X79.530 Y121.135 E49.36257
G1 X73.007 Y114.612 E49.75481
G1 X73.007 Y55.388 E52.27305
G1 X75.145 Y53.249 E52.40164
G1 X75.429 Y53.448 F6000.000
G1 F1800
G1 X79.671 Y49.206 E52.65674
G1 X108.613 Y49.206 E53.88738
G1 X114.937 Y55.529 E54.26761
G1 X114.937 Y114.471 E56.77385
G1 X108.613 Y120.794 E57.15408
G1 X79.671 Y120.794 E58.38471
G1 X73.348 Y114.471 E58.76495
G1 X73.348 Y55.529 E61.27118
G1 X75.386 Y53.490 E61.39376
G1 X75.670 Y53.689 F6000.000
G1 F1800
G1 X79.812 Y49.546 E61.64286
G1 X108.472 Y49.546 E62.86149
G1 X114.596 Y55.670 E63.22971
G1 X114.596 Y114.330 E65.72394
G1 X108.472 Y120.454 E66.09217
G1 X79.812 Y120.454 E67.31079
G1 X73.689 Y114.330 E67.67902
G1 X73.689 Y55.670 E70.17325
G1 X75.627 Y53.731 E70.28982
G1 X75.911 Y53.930 F6000.000
G1 F1800
G1 X79.953 Y49.887 E70.53292
G1 X108.331 Y49.887 E71.73953
G1 X114.255 Y55.811 E72.09575
G1 X114.255 Y114.189 E74.57797
G1 X108.331 Y120.113 E74.93419
G1 X79.953 Y120.113 E76.14080
G1 X74.029 Y114.189 E76.49702
G1 X74.029 Y55.811 E78.97924
G1 X75.868 Y53.972 E79.08981
G1 X76.152 Y54.171 F6000.000
G1 F1800
G1 X80.095 Y50.228 E79.32690
G1 X108.190 Y50.228 E80.52151
G1 X113.914 Y55.952 E80.86572
G1 X113.914 Y114.048 E83.33593
G1 X108.190 Y119.772 E83.68014
G1 X80.095 Y119.772 E84.87475
G1 X74.370 Y114.048 E85.21896
G1 X74.370 Y55.952 E87.68917
G1 X76.109 Y54.213 E87.79373
G1 X76.393 Y54.412 F6000.000
G1 F1800
G1 X80.236 Y50.569 E88.02482
G1 X108.049 Y50.569 E89.20742
G1 X113.573 Y56.094 E89.53962
G1 X113.573 Y113.906 E91.99782
G1 X108.049 Y119.431 E92.33002
G1 X80.236 Y119.431 E93.51262
G1 X74.711 Y113.906 E93.84482
G1 X74.711 Y56.094 E96.30303
G1 X76.350 Y54.455 E96.40159
G1 X76.634 Y54.653 F6000.000
G1 F1800
G1 X80.377 Y50.910 E96.62667
G1 X107.907 Y50.910 E97.79726
G1 X113.232 Y56.235 E98.11745
G1 X113.232 Y113.765 E100.56365
G1 X107.907 Y119.090 E100.88384
G1 X80.377 Y119.090 E102.05443
G1 X75.052 Y113.765 E102.37462
G1 X75.052 Y56.235 E104.82082
G1 X76.591 Y54.696 E104.91337
G1 X76.875 Y54.894 F6000.000
G1 F1800
G1 X80.518 Y51.251 E105.13245
G1 X107.766 Y51.251 E106.29104
G1 X112.891 Y56.376 E106.59922
G1 X112.891 Y113.624 E109.03341
G1 X107.766 Y118.749 E109.34159
G1 X80.518 Y118.749 E110.50017
G1 X75.393 Y113.624 E110.80835
G1 X75.393 Y56.376 E113.24254
G1 X76.832 Y54.937 E113.32909
G1 X77.116 Y55.135 F6000.000
G1 F1800
G1 X80.659 Y51.592 E113.54217
G1 X107.625 Y51.592 E114.68874
G1 X112.550 Y56.517 E114.98492
G1 X112.550 Y113.483 E117.40710
G1 X107.625 Y118.408 E117.70327
G1 X80.659 Y118.408 E118.84985
G1 X75.734 Y113.483 E119.14602
G1 X75.734 Y56.517 E121.56820
G1 X77.074 Y55.178 E121.64875
G1 X77.357 Y55.376 F6000.000
G1 F1800
G1 X80.801 Y51.933 E121.85582
G1 X107.484 Y51.933 E122.99038
G1 X112.209 Y56.658 E123.27455
G1 X112.209 Y113.342 E125.68472
G1 X107.484 Y118.067 E125.96888
G1 X80.801 Y118.067 E127.10345
G1 X76.075 Y113.342 E127.38762
G1 X76.075 Y56.658 E129.79779
G1 X77.315 Y55.419 E129.87233
G1 X77.598 Y55.617 F6000.000
G1 F1800
G1 X80.942 Y52.274 E130.07340
G1 X107.342 Y52.274 E131.19596
G1 X111.868 Y56.800 E131.46811
G1 X111.868 Y113.200 E133.86627
G1 X107.342 Y117.726 E134.13843
G1 X80.942 Y117.726 E135.26099
G1 X76.416 Y113.200 E135.53315
G1 X76.416 Y56.800 E137.93131
G1 X77.556 Y55.660 E137.99985
G1 X77.839 Y55.858 F6000.000
G1 F1800
G1 X81.083 Y52.615 E138.19491
G1 X107.201 Y52.615 E139.30546
G1 X111.528 Y56.941 E139.56561
G1 X111.528 Y113.059 E141.95176
G1 X107.201 Y117.385 E142.21191
G1 X81.083 Y117.385 E143.32246
G1 X76.757 Y113.059 E143.58261
G1 X76.757 Y56.941 E145.96876
G1 X77.797 Y55.901 E146.03130
G1 X78.080 Y56.100 F6000.000
G1 F1800
G1 X81.224 Y52.956 E146.22035
G1 X107.060 Y52.956 E147.31890
G1 X111.187 Y57.082 E147.56704
G1 X111.187 Y112.918 E149.94118
G1 X107.060 Y117.044 E150.18932
G1 X81.224 Y117.044 E151.28786
G1 X77.098 Y112.918 E151.53600
G1 X77.098 Y57.082 E153.91015
G1 X78.038 Y56.142 E153.96668
G1 X78.321 Y56.341 F6000.000
G1 F1800
G1 X81.365 Y53.296 E154.14973
G1 X106.919 Y53.296 E155.23627
G1 X110.846 Y57.223 E155.47240
G1 X110.846 Y112.777 E157.83453
G1 X106.919 Y116.704 E158.07067
G1 X81.365 Y116.704 E159.15720
G1 X77.439 Y112.777 E159.39333
G1 X77.439 Y57.223 E161.75547
G1 X78.279 Y56.383 E161.80599
G1 X78.562 Y56.582 F6000.000
G1 F1800
G1 X81.507 Y53.637 E161.98304
G1 X106.778 Y53.637 E163.05757
G1 X110.505 Y57.364 E163.28169
G1 X110.505 Y112.636 E165.63182
G1 X106.778 Y116.363 E165.85594
G1 X81.507 Y116.363 E166.93047
G1 X77.779 Y112.636 E167.15459
G1 X77.779 Y57.364 E169.50472
G1 X78.520 Y56.624 E169.54924
G1 X78.803 Y56.823 F6000.000
G1 F1800
G1 X81.648 Y53.978 E169.72029
G1 X106.636 Y53.978 E170.78280
G1 X110.164 Y57.506 E170.99492
G1 X110.164 Y112.494 E173.33304
G1 X106.636 Y116.022 E173.54515
G1 X81.648 Y116.022 E174.60767
G1 X78.120 Y112.494 E174.81978
G1 X78.120 Y57.506 E177.15790
G1 X78.761 Y56.865 E177.19642
G1 X79.044 Y57.064 F6000.000
G1 F1800
G1 X81.789 Y54.319 E177.36146
G1 X106.495 Y54.319 E178.41197
G1 X109.823 Y57.647 E178.61208
G1 X109.823 Y112.353 E180.93819
G1 X106.495 Y115.681 E181.13829
G1 X81.789 Y115.681 E182.18880
G1 X78.461 Y112.353 E182.38891
G1 X78.461 Y57.647 E184.71502
G1 X79.002 Y57.106 E184.74753
G1 X79.285 Y57.305 F6000.000
G1 F1800
G1 X81.930 Y54.660 E184.90657
G1 X106.354 Y54.660 E185.94507
G1 X109.482 Y57.788 E186.13317
G1 X109.482 Y112.212 E188.44727
G1 X106.354 Y115.340 E188.63537
G1 X81.930 Y115.340 E189.67387
G1 X78.802 Y112.212 E189.86196
G1 X78.802 Y57.788 E192.17607
G1 X79.243 Y57.347 E192.20258
G1 X79.527 Y57.546 F6000.000
G1 F1800
G1 X82.071 Y55.001 E192.35561
G1 X106.213 Y55.001 E193.38210
G1 X109.141 Y57.929 E193.55819
G1 X109.141 Y112.071 E195.86028
G1 X106.213 Y114.999 E196.03637
G1 X82.071 Y114.999 E197.06286
G1 X79.143 Y112.071 E197.23895
G1 X79.143 Y57.929 E199.54105
G1 X79.484 Y57.588 E199.56155
G1 X79.768 Y57.787 F6000.000
G1 F1800
G1 X82.213 Y55.342 E199.70858
G1 X106.072 Y55.342 E200.72306
G1 X108.800 Y58.071 E200.88715
G1 X108.800 Y111.929 E203.17723
G1 X106.072 Y114.658 E203.34131
G1 X82.213 Y114.658 E204.35579
G1 X79.484 Y111.929 E204.51988
G1 X79.484 Y58.071 E206.80996
G1 X79.725 Y57.829 E206.82446
G1 X80.009 Y58.028 F6000.000
G1 F1800
G1 X82.354 Y55.683 E206.96549
G1 X105.930 Y55.683 E207.96796
G1 X108.459 Y58.212 E208.12003
G1 X108.459 Y111.788 E210.39811
G1 X105.930 Y114.317 E210.55018
G1 X82.354 Y114.317 E211.55266
G1 X79.825 Y111.788 E211.70473
G1 X79.825 Y58.212 E213.98281
G1 X79.966 Y58.070 E213.99130
G1 X80.250 Y58.269 F6000.000
G1 F1800
G1 X82.495 Y56.024 E214.12632
G1 X105.789 Y56.024 E215.11679
G1 X108.118 Y58.353 E215.25685
G1 X108.118 Y111.647 E217.52292
G1 X105.789 Y113.976 E217.66299
G1 X82.495 Y113.976 E218.65345
G1 X80.166 Y111.647 E218.79352
G1 X80.166 Y58.353 E221.05958
G1 X80.207 Y58.311 E221.06208
G1 X80.507 Y58.494 F6000.000
G1 F1800
G1 X82.636 Y56.365 E221.19014
G1 X105.648 Y56.365 E222.16859
G1 X107.778 Y58.494 E222.29665
G1 X107.778 Y111.506 E224.55071
G1 X105.648 Y113.635 E224.67876
G1 X82.636 Y113.635 E225.65722
G1 X80.507 Y111.506 E225.78528
G1 X80.507 Y58.554 E228.03679
G1 X80.848 Y58.635 F6000.000
G1 F1800
G1 X82.778 Y56.706 E228.15283
G1 X105.507 Y56.706 E229.11928
G1 X107.437 Y58.635 E229.23533
G1 X107.437 Y111.365 E231.47738
G1 X105.507 Y113.294 E231.59343
G1 X82.778 Y113.294 E232.55988
G1 X80.848 Y111.365 E232.67593
G1 X80.848 Y58.695 E234.91543
G1 X81.189 Y58.777 F6000.000
G1 F1800
G1 X82.919 Y57.046 E235.01946
G1 X105.366 Y57.046 E235.97390
G1 X107.096 Y58.777 E236.07794
G1 X107.096 Y111.223 E238.30799
G1 X105.366 Y112.954 E238.41203
G1 X82.919 Y112.954 E239.36647
G1 X81.189 Y111.223 E239.47051
G1 X81.189 Y58.837 E241.69800
G1 X81.529 Y58.918 F6000.000
G1 F1800
G1 X83.060 Y57.387 E241.79003
G1 X105.224 Y57.387 E242.73246
G1 X106.755 Y58.918 E242.82449
G1 X106.755 Y111.082 E245.04252
G1 X105.224 Y112.613 E245.13456
G1 X83.060 Y112.613 E246.07699
G1 X81.529 Y111.082 E246.16902
G1 X81.529 Y58.978 E248.38450
G1 X81.870 Y59.059 F6000.000
G1 F1800
G1 X83.201 Y57.728 E248.46452
G1 X105.083 Y57.728 E249.39495
G1 X106.414 Y59.059 E249.47497
G1 X106.414 Y110.941 E251.68099
G1 X105.083 Y112.272 E251.76102
G1 X83.201 Y112.272 E252.69144
G1 X81.870 Y110.941 E252.77146
G1 X81.870 Y59.119 E254.97494
G1 X82.211 Y59.200 F6000.000
G1 F1800
G1 X83.342 Y58.069 E255.04295
G1 X104.942 Y58.069 E255.96137
G1 X106.073 Y59.200 E256.02938
G1 X106.073 Y110.800 E258.22340
G1 X104.942 Y111.931 E258.29141
G1 X83.342 Y111.931 E259.20983
G1 X82.211 Y110.800 E259.27784
G1 X82.211 Y59.260 E261.46931
G1 X82.552 Y59.341 F6000.000
G1 F1800
G1 X83.484 Y58.410 E261.52531
G1 X104.801 Y58.410 E262.43172
G1 X105.732 Y59.341 E262.48772
G1 X105.732 Y110.659 E264.66973
G1 X104.801 Y111.590 E264.72574
G1 X83.484 Y111.590 E265.63215
G1 X82.552 Y110.659 E265.68815
G1 X82.552 Y59.401 E267.86761
G1 X82.893 Y59.483 F6000.000
G1 F1800
G1 X83.625 Y58.751 E267.91161
G1 X104.660 Y58.751 E268.80600
G1 X105.391 Y59.483 E268.85000
G1 X105.391 Y110.517 E271.02000
G1 X104.660 Y111.249 E271.06400
G1 X83.625 Y111.249 E271.95840
G1 X82.893 Y110.517 E272.00239
G1 X82.893 Y59.543 E274.16984
G1 X83.234 Y59.624 F6000.000
G1 F1800
G1 X83.766 Y59.092 E274.20183
G1 X104.518 Y59.092 E275.08422
G1 X105.050 Y59.624 E275.11621
G1 X105.050 Y110.376 E277.27420
G1 X104.518 Y110.908 E277.30619
G1 X83.766 Y110.908 E278.18858
G1 X83.234 Y110.376 E278.22057
G1 X83.234 Y59.684 E280.37601
G1 X83.575 Y59.765 F6000.000
G1 F1800
G1 X83.907 Y59.433 E280.39599
G1 X104.377 Y59.433 E281.26637
G1 X104.709 Y59.765 E281.28635
G1 X104.709 Y110.235 E283.43233
G1 X104.377 Y110.567 E283.45231
G1 X83.907 Y110.567 E284.32270
G1 X83.575 Y110.235 E284.34268
G1 X83.575 Y59.825 E286.48611
G1 X83.916 Y59.906 F6000.000
G1 F1800
G1 X84.048 Y59.774 E286.49408
G1 X104.236 Y59.774 E287.35245
G1 X104.368 Y59.906 E287.36042
G1 X104.368 Y110.094 E289.49440
G1 X104.236 Y110.226 E289.50237
G1 X84.048 Y110.226 E290.36074
G1 X83.916 Y110.094 E290.36872
G1 X83.916 Y59.966 E292.50014
G1 F4800
G1 X84.048 Y59.774 E292.38909
G1 F4800
G1 X95.815 Y59.774 E286.80014
G1 E286.50014 F2400.00000
G92 E0
G1 X103.942 Y109.800 F6000.000
G1 E6.00000 F2400.00000
G1 F1800
G1 X84.342 Y109.800 E6.82046
G1 X84.342 Y60.200 E8.89673
G1 X103.942 Y60.200 E9.71720
G1 X103.942 Y109.740 E11.79095
G1 X103.573 Y109.645 F6000.000
G1 X103.607 Y109.464 F6000.000
G1 F1800
G1 X84.678 Y109.464 E12.58332
G1 X84.678 Y60.536 E14.63149
G1 X103.607 Y60.536 E15.42386
G1 X103.607 Y109.404 E17.46952
G1 X103.271 Y109.129 F6000.000
G1 F1800
G1 X85.013 Y109.129 E18.23378
G1 X85.013 Y60.871 E20.25386
G1 X103.271 Y60.871 E21.01812
G1 X103.271 Y109.069 E23.03569
G1 F4800
G1 X91.271 Y109.108 E17.33569
G1 E17.03569 F2400.00000
G92 E0
G1 X94.642 Y69.654 F6000.000
G1 E6.00000 F2400.00000
G1 F1800
G1 X94.358 Y69.692 E6.01203
G1 X94.070 Y69.699 E6.02406
G1 X93.784 Y69.676 E6.03610
G1 X93.501 Y69.623 E6.04813
G1 X93.226 Y69.540 E6.06016
G1 X92.961 Y69.428 E6.07219
G1 X92.710 Y69.289 E6.08422
G1 X92.475 Y69.124 E6.09626
G1 X92.258 Y68.935 E6.10829
G1 X92.063 Y68.723 E6.12032
G1 X91.892 Y68.493 E6.13235
G1 X91.746 Y68.245 E6.14438
G1 X91.631 Y67.991 E6.15607
G1 X91.537 Y67.711 E6.16843
G1 X91.476 Y67.430 E6.18048
