; generated by Slic3r 1.3.0 on 2021-04-15 at 21:47:10

; external perimeters extrusion width = 0.44mm (6.76mm^3/s)
; perimeters extrusion width = 0.48mm (7.54mm^3/s)
; infill extrusion width = 0.48mm (6.28mm^3/s)
; solid infill extrusion width = 0.48mm (3.77mm^3/s)
; top infill extrusion width = 0.40mm (7.05mm^3/s)
; support material extrusion width = 0.44mm (7.89mm^3/s)

M107
M190 S100 ; set bed temperature and wait for it to be reached
M104 S240 ; set temperature
G28 ; home all axes
G1 Z5 F5000 ; lift nozzle

; Filament gcode

M109 S240 ; set temperature and wait for it to be reached
G21 ; set units to millimeters
G90 ; use absolute coordinates
M82 ; use absolute distances for extrusion
G92 E0
G1 E-6.00000 F2400.00000
G92 E0
G1 Z0.300 F4800.000
G1 X55.311 Y57.683 F4800.000
G1 E6.00000 F2400.00000
G1 F1800
G1 X58.318 Y55.825 E6.14798
G1 X61.665 Y54.688 E6.29596
G1 X65.000 Y54.329 E6.43636
G1 X105.000 Y54.329 E8.11077
G1 X108.513 Y54.727 E8.25875
G1 X111.846 Y55.903 E8.40674
G1 X114.832 Y57.797 E8.55472
G1 X117.317 Y60.311 E8.70270
G1 X119.175 Y63.318 E8.85068
G1 X120.312 Y66.665 E8.99866
G1 X120.671 Y70.000 E9.13906
G1 X120.671 Y100.000 E10.39487
G1 X120.273 Y103.513 E10.54285
G1 X119.097 Y106.846 E10.69083
G1 X117.203 Y109.832 E10.83881
G1 X114.689 Y112.317 E10.98679
G1 X111.682 Y114.175 E11.13477
G1 X108.335 Y115.312 E11.28275
G1 X105.000 Y115.671 E11.42315
G1 X65.000 Y115.671 E13.09756
G1 X61.487 Y115.273 E13.24554
G1 X58.154 Y114.097 E13.39352
G1 X55.168 Y112.203 E13.54151
G1 X52.683 Y109.689 E13.68949
G1 X50.825 Y106.682 E13.83747
G1 X49.688 Y103.335 E13.98545
G1 X49.329 Y100.000 E14.12585
G1 X49.329 Y70.000 E15.38166
G1 X49.727 Y66.487 E15.52964
G1 X50.903 Y63.154 E15.67762
G1 X52.797 Y60.168 E15.82560
G1 X55.268 Y57.725 E15.97107
G1 X55.637 Y57.854 F4800.000
G1 F1800
G1 X58.632 Y56.049 E16.11745
G1 X61.958 Y54.969 E16.26383
G1 X65.000 Y54.664 E16.39179
G1 X105.000 Y54.664 E18.06620
G1 X108.474 Y55.063 E18.21258
G1 X111.768 Y56.238 E18.35897
G1 X114.709 Y58.129 E18.50535
G1 X117.146 Y60.637 E18.65173
G1 X118.951 Y63.632 E18.79811
G1 X120.031 Y66.958 E18.94450
G1 X120.336 Y70.000 E19.07245
G1 X120.336 Y100.000 E20.32826
G1 X119.937 Y103.474 E20.47465
G1 X118.762 Y106.768 E20.62103
G1 X116.871 Y109.709 E20.76741
G1 X114.363 Y112.146 E20.91379
G1 X111.368 Y113.951 E21.06018
G1 X108.042 Y115.031 E21.20656
G1 X105.000 Y115.336 E21.33452
G1 X65.000 Y115.336 E23.00893
G1 X61.526 Y114.937 E23.15531
G1 X58.232 Y113.762 E23.30169
G1 X55.291 Y111.871 E23.44807
G1 X52.854 Y109.363 E23.59446
G1 X51.049 Y106.368 E23.74084
G1 X49.969 Y103.042 E23.88722
G1 X49.664 Y100.000 E24.01518
G1 X49.664 Y70.000 E25.27099
G1 X50.063 Y66.526 E25.41737
G1 X51.238 Y63.232 E25.56375
G1 X53.129 Y60.291 E25.71014
G1 X55.594 Y57.896 E25.85401
G1 F3840
G1 X58.632 Y56.049 E23.74299
G1 F3840
G1 X61.958 Y54.969 E21.66669
G1 F3840
G1 X64.493 Y54.715 E20.15401
G1 E19.85401 F2400.00000
G92 E0
G1 X57.554 Y59.770 F4800.000
G1 E6.00000 F2400.00000
G1 F1800
G1 X59.823 Y57.501 E6.13645
G1 X110.177 Y57.501 E8.27753
G1 X117.499 Y64.823 E8.71780
G1 X117.499 Y105.177 E10.43368
G1 X110.177 Y112.499 E10.87396
G1 X59.823 Y112.499 E13.01504
G1 X52.501 Y105.177 E13.45531
G1 X52.501 Y64.823 E15.17119
G1 X57.511 Y59.813 E15.47246
G1 X57.795 Y60.011 F4800.000
G1 F1800
G1 X59.964 Y57.842 E15.60291
G1 X110.036 Y57.842 E17.73198
G1 X117.158 Y64.964 E18.16025
G1 X117.158 Y105.036 E19.86412
G1 X110.036 Y112.158 E20.29238
G1 X59.964 Y112.158 E22.42145
G1 X52.842 Y105.036 E22.84972
G1 X52.842 Y64.964 E24.55359
G1 X57.752 Y60.054 E24.84886
G1 X58.036 Y60.252 F4800.000
G1 F1800
G1 X60.105 Y58.183 E24.97330
G1 X109.895 Y58.183 E27.09036
G1 X116.817 Y65.105 E27.50662
G1 X116.817 Y104.895 E29.19848
G1 X109.895 Y111.817 E29.61474
G1 X60.105 Y111.817 E31.73180
G1 X53.183 Y104.895 E32.14806
G1 X53.183 Y65.105 E33.83992
G1 X57.993 Y60.295 E34.12919
G1 X58.277 Y60.493 F4800.000
G1 F1800
G1 X60.246 Y58.524 E34.24762
G1 X109.754 Y58.524 E36.35268
G1 X116.476 Y65.246 E36.75693
G1 X116.476 Y104.754 E38.43678
G1 X109.754 Y111.476 E38.84103
G1 X60.246 Y111.476 E40.94608
G1 X53.524 Y104.754 E41.35033
G1 X53.524 Y65.246 E43.03018
G1 X58.234 Y60.536 E43.31345
G1 X58.518 Y60.734 F4800.000
G1 F1800
G1 X60.388 Y58.865 E43.42588
G1 X109.612 Y58.865 E45.51892
G1 X116.135 Y65.388 E45.91117
G1 X116.135 Y104.612 E47.57901
G1 X109.612 Y111.135 E47.97125
G1 X60.388 Y111.135 E50.06430
G1 X53.865 Y104.612 E50.45654
G1 X53.865 Y65.388 E52.12438
G1 X58.475 Y60.777 E52.40164
G1 X58.759 Y60.975 F4800.000
G1 F1800
G1 X60.529 Y59.206 E52.50807
G1 X109.471 Y59.206 E54.58910
G1 X115.794 Y65.529 E54.96934
G1 X115.794 Y104.471 E56.62517
G1 X109.471 Y110.794 E57.00541
G1 X60.529 Y110.794 E59.08644
G1 X54.206 Y104.471 E59.46667
G1 X54.206 Y65.529 E61.12251
G1 X58.716 Y61.018 E61.39376
G1 X59.000 Y61.216 F4800.000
G1 F1800
G1 X60.670 Y59.546 E61.49419
G1 X109.330 Y59.546 E63.56322
G1 X115.454 Y65.670 E63.93144
G1 X115.454 Y104.330 E65.57527
G1 X109.330 Y110.454 E65.94349
G1 X60.670 Y110.454 E68.01252
G1 X54.546 Y104.330 E68.38074
G1 X54.546 Y65.670 E70.02457
G1 X58.957 Y61.259 E70.28982
G1 X59.241 Y61.458 F4800.000
G1 F1800
G1 X60.811 Y59.887 E70.38424
G1 X109.189 Y59.887 E72.44126
G1 X115.113 Y65.811 E72.79748
G1 X115.113 Y104.189 E74.42930
G1 X109.189 Y110.113 E74.78551
G1 X60.811 Y110.113 E76.84253
G1 X54.887 Y104.189 E77.19875
G1 X54.887 Y65.811 E78.83057
G1 X59.199 Y61.500 E79.08981
G1 X59.482 Y61.699 F4800.000
G1 F1800
G1 X60.952 Y60.228 E79.17823
G1 X109.048 Y60.228 E81.22324
G1 X114.772 Y65.952 E81.56745
G1 X114.772 Y104.048 E83.18726
G1 X109.048 Y109.772 E83.53146
G1 X60.952 Y109.772 E85.57647
G1 X55.228 Y104.048 E85.92068
G1 X55.228 Y65.952 E87.54049
G1 X59.440 Y61.741 E87.79373
G1 X59.723 Y61.940 F4800.000
G1 F1800
G1 X61.094 Y60.569 E87.87614
G1 X108.906 Y60.569 E89.90915
G1 X114.431 Y66.094 E90.24135
G1 X114.431 Y103.906 E91.84915
G1 X108.906 Y109.431 E92.18135
G1 X61.094 Y109.431 E94.21435
G1 X55.569 Y103.906 E94.54655
G1 X55.569 Y66.094 E96.15435
G1 X59.681 Y61.982 E96.40159
G1 X59.964 Y62.181 F4800.000
G1 F1800
G1 X61.235 Y60.910 E96.47800
G1 X108.765 Y60.910 E98.49899
G1 X114.090 Y66.235 E98.81918
G1 X114.090 Y103.765 E100.41497
G1 X108.765 Y109.090 E100.73516
G1 X61.235 Y109.090 E102.75616
G1 X55.910 Y103.765 E103.07635
G1 X55.910 Y66.235 E104.67214
G1 X59.922 Y62.223 E104.91337
G1 X60.205 Y62.422 F4800.000
G1 F1800
G1 X61.376 Y61.251 E104.98378
G1 X108.624 Y61.251 E106.99276
G1 X113.749 Y66.376 E107.30095
G1 X113.749 Y103.624 E108.88473
G1 X108.624 Y108.749 E109.19291
G1 X61.376 Y108.749 E111.20190
G1 X56.251 Y103.624 E111.51008
G1 X56.251 Y66.376 E113.09387
G1 X60.163 Y62.464 E113.32909
G1 X60.446 Y62.663 F4800.000
G1 F1800
G1 X61.517 Y61.592 E113.39349
G1 X108.483 Y61.592 E115.39047
G1 X113.408 Y66.517 E115.68665
G1 X113.408 Y103.483 E117.25842
G1 X108.483 Y108.408 E117.55460
G1 X61.517 Y108.408 E119.55157
G1 X56.592 Y103.483 E119.84775
G1 X56.592 Y66.517 E121.41952
G1 X60.404 Y62.705 E121.64875
G1 X60.687 Y62.904 F4800.000
G1 F1800
G1 X61.658 Y61.933 E121.70714
G1 X108.342 Y61.933 E123.69211
G1 X113.067 Y66.658 E123.97628
G1 X113.067 Y103.342 E125.53604
G1 X108.342 Y108.067 E125.82021
G1 X61.658 Y108.067 E127.80518
G1 X56.933 Y103.342 E128.08934
G1 X56.933 Y66.658 E129.64911
G1 X60.645 Y62.946 E129.87233
G1 X60.928 Y63.145 F4800.000
G1 F1800
G1 X61.800 Y62.274 E129.92472
G1 X108.200 Y62.274 E131.89768
G1 X112.726 Y66.800 E132.16984
G1 X112.726 Y103.200 E133.71760
G1 X108.200 Y107.726 E133.98976
G1 X61.800 Y107.726 E135.96272
G1 X57.274 Y103.200 E136.23487
G1 X57.274 Y66.800 E137.78263
G1 X60.886 Y63.187 E137.99985
G1 X61.169 Y63.386 F4800.000
G1 F1800
G1 X61.941 Y62.615 E138.04624
G1 X108.059 Y62.615 E140.00719
G1 X112.385 Y66.941 E140.26734
G1 X112.385 Y103.059 E141.80309
G1 X108.059 Y107.385 E142.06324
G1 X61.941 Y107.385 E144.02419
G1 X57.615 Y103.059 E144.28434
G1 X57.615 Y66.941 E145.82009
G1 X61.127 Y63.428 E146.03130
G1 X61.411 Y63.627 F4800.000
G1 F1800
G1 X62.082 Y62.956 E146.07168
G1 X107.918 Y62.956 E148.02062
G1 X112.044 Y67.082 E148.26876
G1 X112.044 Y102.918 E149.79251
G1 X107.918 Y107.044 E150.04065
G1 X62.082 Y107.044 E151.98959
G1 X57.956 Y102.918 E152.23773
G1 X57.956 Y67.082 E153.76147
G1 X61.368 Y63.670 E153.96668
G1 X61.652 Y63.868 F4800.000
G1 F1800
G1 X62.223 Y63.296 E154.00106
G1 X107.777 Y63.296 E155.93799
G1 X111.704 Y67.223 E156.17413
G1 X111.704 Y102.777 E157.68586
G1 X107.777 Y106.704 E157.92199
G1 X62.223 Y106.704 E159.85893
G1 X58.296 Y102.777 E160.09506
G1 X58.296 Y67.223 E161.60679
G1 X61.609 Y63.911 E161.80599
G1 X61.893 Y64.109 F4800.000
G1 F1800
G1 X62.364 Y63.637 E161.83437
G1 X107.636 Y63.637 E163.75929
G1 X111.363 Y67.364 E163.98342
G1 X111.363 Y102.636 E165.48314
G1 X107.636 Y106.363 E165.70727
G1 X62.364 Y106.363 E167.63219
G1 X58.637 Y102.636 E167.85632
G1 X58.637 Y67.364 E169.35604
G1 X61.850 Y64.152 E169.54924
G1 X62.134 Y64.350 F4800.000
G1 F1800
G1 X62.506 Y63.978 E169.57161
G1 X107.494 Y63.978 E171.48453
G1 X111.022 Y67.506 E171.69664
G1 X111.022 Y102.494 E173.18436
G1 X107.494 Y106.022 E173.39648
G1 X62.506 Y106.022 E175.30939
G1 X58.978 Y102.494 E175.52151
G1 X58.978 Y67.506 E177.00923
G1 X62.091 Y64.393 E177.19642
G1 X62.375 Y64.591 F4800.000
G1 F1800
G1 X62.647 Y64.319 E177.21279
G1 X107.353 Y64.319 E179.11370
G1 X110.681 Y67.647 E179.31380
G1 X110.681 Y102.353 E180.78951
G1 X107.353 Y105.681 E180.98962
G1 X62.647 Y105.681 E182.89053
G1 X59.319 Y102.353 E183.09063
G1 X59.319 Y67.647 E184.56634
G1 X62.332 Y64.634 E184.74753
G1 X62.616 Y64.832 F4800.000
G1 F1800
G1 X62.788 Y64.660 E184.75789
G1 X107.212 Y64.660 E186.64680
G1 X110.340 Y67.788 E186.83489
G1 X110.340 Y102.212 E188.29859
G1 X107.212 Y105.340 E188.48669
G1 X62.788 Y105.340 E190.37559
G1 X59.660 Y102.212 E190.56369
G1 X59.660 Y67.788 E192.02739
G1 X62.573 Y64.875 E192.20258
G1 X62.857 Y65.073 F4800.000
G1 F1800
G1 X62.929 Y65.001 E192.20693
G1 X107.071 Y65.001 E194.08383
G1 X109.999 Y67.929 E194.25992
G1 X109.999 Y102.071 E195.71161
G1 X107.071 Y104.999 E195.88770
G1 X62.929 Y104.999 E197.76459
G1 X60.001 Y102.071 E197.94068
G1 X60.001 Y67.929 E199.39237
G1 X62.814 Y65.116 E199.56155
G1 X63.071 Y65.342 F4800.000
G1 F1800
G1 X106.929 Y65.342 E201.42644
G1 X109.658 Y68.071 E201.59052
G1 X109.658 Y101.929 E203.03020
G1 X106.929 Y104.658 E203.19428
G1 X63.071 Y104.658 E205.05917
G1 X60.342 Y101.929 E205.22325
G1 X60.342 Y68.071 E206.66293
G1 X63.028 Y65.384 E206.82446
G1 X63.212 Y65.683 F4800.000
G1 F1800
G1 X106.788 Y65.683 E208.67734
G1 X109.317 Y68.212 E208.82941
G1 X109.317 Y101.788 E210.25709
G1 X106.788 Y104.317 E210.40916
G1 X63.212 Y104.317 E212.26204
G1 X60.683 Y101.788 E212.41411
G1 X60.683 Y68.212 E213.84178
G1 X63.169 Y65.725 E213.99130
G1 X63.353 Y66.024 F4800.000
G1 F1800
G1 X106.647 Y66.024 E215.83217
G1 X108.976 Y68.353 E215.97224
G1 X108.976 Y101.647 E217.38790
G1 X106.647 Y103.976 E217.52797
G1 X63.353 Y103.976 E219.36883
G1 X61.024 Y101.647 E219.50890
G1 X61.024 Y68.353 E220.92457
G1 X63.311 Y66.066 E221.06208
G1 X63.494 Y66.365 F4800.000
G1 F1800
G1 X106.506 Y66.365 E222.89094
G1 X108.635 Y68.494 E223.01899
G1 X108.635 Y101.506 E224.42265
G1 X106.506 Y103.635 E224.55071
G1 X63.494 Y103.635 E226.37957
G1 X61.365 Y101.506 E226.50762
G1 X61.365 Y68.494 E227.91128
G1 X63.452 Y66.407 E228.03679
G1 X63.635 Y66.706 F4800.000
G1 F1800
G1 X106.365 Y66.706 E229.85364
G1 X108.294 Y68.635 E229.96968
G1 X108.294 Y101.365 E231.36133
G1 X106.365 Y103.294 E231.47738
G1 X63.635 Y103.294 E233.29423
G1 X61.706 Y101.365 E233.41028
G1 X61.706 Y68.635 E234.80193
G1 X63.593 Y66.748 E234.91543
G1 X63.777 Y67.046 F4800.000
G1 F1800
G1 X106.223 Y67.046 E236.72027
G1 X107.954 Y68.777 E236.82431
G1 X107.954 Y101.223 E238.20395
G1 X106.223 Y102.954 E238.30799
G1 X63.777 Y102.954 E240.11283
G1 X62.046 Y101.223 E240.21687
G1 X62.046 Y68.777 E241.59651
G1 X63.734 Y67.089 E241.69800
G1 X63.918 Y67.387 F4800.000
G1 F1800
G1 X106.082 Y67.387 E243.49083
G1 X107.613 Y68.918 E243.58286
G1 X107.613 Y101.082 E244.95049
G1 X106.082 Y102.613 E245.04252
G1 X63.918 Y102.613 E246.83536
G1 X62.387 Y101.082 E246.92739
G1 X62.387 Y68.918 E248.29502
G1 X63.875 Y67.430 E248.38450
G1 X64.059 Y67.728 F4800.000
G1 F1800
G1 X105.941 Y67.728 E250.16533
G1 X107.272 Y69.059 E250.24535
G1 X107.272 Y100.941 E251.60097
G1 X105.941 Y102.272 E251.68099
G1 X64.059 Y102.272 E253.46182
G1 X62.728 Y100.941 E253.54184
G1 X62.728 Y69.059 E254.89747
G1 X64.017 Y67.771 E254.97494
G1 X64.200 Y68.069 F4800.000
G1 F1800
G1 X105.800 Y68.069 E256.74375
G1 X106.931 Y69.200 E256.81177
G1 X106.931 Y100.800 E258.15538
G1 X105.800 Y101.931 E258.22340
G1 X64.200 Y101.931 E259.99221
G1 X63.069 Y100.800 E260.06023
G1 X63.069 Y69.200 E261.40384
G1 X64.158 Y68.112 E261.46931
G1 X64.341 Y68.410 F4800.000
G1 F1800
G1 X105.659 Y68.410 E263.22611
G1 X106.590 Y69.341 E263.28212
G1 X106.590 Y100.659 E264.61373
G1 X105.659 Y101.590 E264.66973
G1 X64.341 Y101.590 E266.42654
G1 X63.410 Y100.659 E266.48255
G1 X63.410 Y69.341 E267.81415
G1 X64.299 Y68.452 E267.86761
G1 X64.483 Y68.751 F4800.000
G1 F1800
G1 X105.517 Y68.751 E269.61241
G1 X106.249 Y69.483 E269.65640
G1 X106.249 Y100.517 E270.97600
G1 X105.517 Y101.249 E271.02000
G1 X64.483 Y101.249 E272.76480
G1 X63.751 Y100.517 E272.80880
G1 X63.751 Y69.483 E274.12840
G1 X64.440 Y68.793 E274.16984
G1 X64.624 Y69.092 F4800.000
G1 F1800
G1 X105.376 Y69.092 E275.90263
G1 X105.908 Y69.624 E275.93462
G1 X105.908 Y100.376 E277.24221
G1 X105.376 Y100.908 E277.27420
G1 X64.624 Y100.908 E279.00699
G1 X64.092 Y100.376 E279.03898
G1 X64.092 Y69.624 E280.34657
G1 X64.581 Y69.134 E280.37601
G1 X64.765 Y69.433 F4800.000
G1 F1800
G1 X105.235 Y69.433 E282.09679
G1 X105.567 Y69.765 E282.11677
G1 X105.567 Y100.235 E283.41235
G1 X105.235 Y100.567 E283.43233
G1 X64.765 Y100.567 E285.15312
G1 X64.433 Y100.235 E285.17310
G1 X64.433 Y69.765 E286.46868
G1 X64.723 Y69.475 E286.48611
G1 X64.906 Y69.774 F4800.000
G1 F1800
G1 X105.094 Y69.774 E288.19488
G1 X105.226 Y69.906 E288.20285
G1 X105.226 Y100.094 E289.48643
G1 X105.094 Y100.226 E289.49440
G1 X64.906 Y100.226 E291.20317
G1 X64.774 Y100.094 E291.21114
G1 X64.774 Y69.906 E292.49472
G1 X64.864 Y69.816 E292.50014
G1 F3840
G1 X74.464 Y69.806 E286.80014
G1 E286.50014 F2400.00000
G92 E0
G1 X104.800 Y99.800 F4800.000
G1 E6.00000 F2400.00000
G1 F1800
G1 X65.200 Y99.800 E7.65767
G1 X65.200 Y70.200 E8.89673
G1 X104.800 Y70.200 E10.55440
G1 X104.800 Y99.740 E11.79095
G1 X104.409 Y99.715 F4800.000
G1 X104.464 Y99.464 F4800.000
G1 F1800
G1 X65.536 Y99.464 E13.42052
G1 X65.536 Y70.536 E14.63149
G1 X104.464 Y70.536 E16.26106
G1 X104.464 Y99.404 E17.46952
G1 X104.129 Y99.129 F4800.000
G1 F1800
G1 X65.871 Y99.129 E19.07099
G1 X65.871 Y70.871 E20.25386
G1 X67.908 Y70.871 E20.33913
G1 X67.926 Y71.053 E20.34677
G1 X67.623 Y71.113 E20.35970
G1 X67.171 Y71.313 E20.38042
G1 X66.904 Y71.500 E20.39405
G1 X66.568 Y71.846 E20.41425
G1 X66.390 Y72.119 E20.42788
G1 X66.200 Y72.588 E20.44907
G1 X66.137 Y73.038 E20.46808
G1 X66.150 Y73.384 E20.48257
G1 X66.209 Y73.688 E20.49554
G1 X66.390 Y74.136 E20.51574
G1 X66.568 Y74.409 E20.52937
G1 X66.923 Y74.776 E20.55076
G1 X67.360 Y75.040 E20.57214
G1 X67.639 Y75.143 E20.58459
G1 X67.929 Y75.209 E20.59705
G1 X68.412 Y75.225 E20.61725
G1 X68.733 Y75.173 E20.63088
G1 X69.186 Y75.006 E20.65108
G1 X69.464 Y74.837 E20.66471
G1 X69.822 Y74.513 E20.68491
G1 X70.016 Y74.252 E20.69854
G1 X70.226 Y73.817 E20.71874
G1 X70.308 Y73.502 E20.73237
G1 X70.339 Y73.021 E20.75257
G1 X70.298 Y72.698 E20.76620
