; generated by Slic3r 1.3.0 on 2021-04-27 at 21:05:49

; external perimeters extrusion width = 0.44mm (6.76mm^3/s)
; perimeters extrusion width = 0.48mm (7.54mm^3/s)
; infill extrusion width = 0.48mm (6.28mm^3/s)
; solid infill extrusion width = 0.48mm (3.77mm^3/s)
; top infill extrusion width = 0.40mm (7.05mm^3/s)
; support material extrusion width = 0.44mm (7.89mm^3/s)

M107
M190 S100 ; set bed temperature and wait for it to be reached
M104 S240 ; set temperature
G28 ; home all axes
G1 Z5 F5000 ; lift nozzle

; Filament gcode

M109 S240 ; set temperature and wait for it to be reached
G21 ; set units to millimeters
G90 ; use absolute coordinates
M82 ; use absolute distances for extrusion
G92 E0
G1 E-6.00000 F2400.00000
G92 E0
G1 Z0.300 F6000.000
G1 X50.919 Y61.419 F6000.000
G1 E6.00000 F2400.00000
G1 F1800
G1 X53.684 Y59.217 E6.14798
G1 X56.873 Y57.691 E6.29596
G1 X62.000 Y56.829 E6.51358
G1 X108.000 Y56.829 E8.43916
G1 X111.513 Y57.227 E8.58714
G1 X114.846 Y58.403 E8.73512
G1 X119.081 Y61.419 E8.95274
G1 X121.081 Y63.419 E9.07114
G1 X123.283 Y66.184 E9.21912
G1 X124.809 Y69.373 E9.36710
G1 X125.671 Y74.500 E9.58472
G1 X125.671 Y95.500 E10.46379
G1 X125.273 Y99.013 E10.61177
G1 X124.097 Y102.346 E10.75975
G1 X121.081 Y106.581 E10.97737
G1 X119.081 Y108.581 E11.09577
G1 X116.316 Y110.783 E11.24375
G1 X113.127 Y112.309 E11.39173
G1 X108.000 Y113.171 E11.60935
G1 X62.000 Y113.171 E13.53492
G1 X58.487 Y112.773 E13.68290
G1 X55.154 Y111.597 E13.83088
G1 X50.919 Y108.581 E14.04850
G1 X48.919 Y106.581 E14.16690
G1 X46.717 Y103.816 E14.31488
G1 X45.191 Y100.627 E14.46286
G1 X44.329 Y95.500 E14.68048
G1 X44.329 Y74.500 E15.55955
G1 X44.727 Y70.987 E15.70753
G1 X45.903 Y67.654 E15.85551
G1 X48.919 Y63.419 E16.07313
G1 X50.876 Y61.461 E16.18902
G1 X51.156 Y61.656 F6000.000
G1 F1800
G1 X53.895 Y59.481 E16.33540
G1 X57.055 Y57.984 E16.48178
G1 X62.000 Y57.164 E16.69163
G1 X108.000 Y57.164 E18.61720
G1 X111.474 Y57.563 E18.76358
G1 X114.768 Y58.738 E18.90996
G1 X118.844 Y61.656 E19.11981
G1 X120.844 Y63.656 E19.23820
G1 X123.019 Y66.395 E19.38459
G1 X124.516 Y69.555 E19.53097
G1 X125.336 Y74.500 E19.74081
G1 X125.336 Y95.500 E20.61988
G1 X124.937 Y98.974 E20.76626
G1 X123.762 Y102.268 E20.91264
G1 X120.844 Y106.344 E21.12248
G1 X118.844 Y108.344 E21.24088
G1 X116.105 Y110.519 E21.38726
G1 X112.945 Y112.016 E21.53365
G1 X108.000 Y112.836 E21.74349
G1 X62.000 Y112.836 E23.66906
G1 X58.526 Y112.437 E23.81544
G1 X55.232 Y111.262 E23.96183
G1 X51.156 Y108.344 E24.17167
G1 X49.156 Y106.344 E24.29006
G1 X46.981 Y103.605 E24.43645
G1 X45.484 Y100.445 E24.58283
G1 X44.664 Y95.500 E24.79267
G1 X44.664 Y74.500 E25.67174
G1 X45.063 Y71.026 E25.81812
G1 X46.238 Y67.732 E25.96450
G1 X49.156 Y63.656 E26.17434
G1 X51.114 Y61.699 E26.29023
G1 F4800
G1 X53.895 Y59.481 E24.60087
G1 F4800
G1 X57.055 Y57.984 E22.93983
G1 F4800
G1 X61.935 Y57.175 E20.59023
G1 E20.29023 F2400.00000
G92 E0
G1 X53.162 Y63.662 F6000.000
G1 E6.00000 F2400.00000
G1 F1800
G1 X54.920 Y61.904 E6.10571
G1 X59.514 Y60.001 E6.31714
G1 X110.486 Y60.001 E8.48449
G1 X115.080 Y61.904 E8.69592
G1 X120.596 Y67.420 E9.02761
G1 X122.499 Y72.014 E9.23904
G1 X122.499 Y97.986 E10.34339
G1 X120.596 Y102.580 E10.55482
G1 X115.080 Y108.096 E10.88651
G1 X110.486 Y109.999 E11.09794
G1 X59.514 Y109.999 E13.26529
G1 X54.920 Y108.096 E13.47672
G1 X49.404 Y102.580 E13.80841
G1 X47.501 Y97.986 E14.01984
G1 X47.501 Y72.014 E15.12419
G1 X49.404 Y67.420 E15.33561
G1 X53.119 Y63.704 E15.55904
G1 X53.403 Y63.903 F6000.000
G1 F1800
G1 X55.113 Y62.193 E15.66187
G1 X59.582 Y60.342 E15.86753
G1 X110.418 Y60.342 E18.02912
G1 X114.887 Y62.193 E18.23478
G1 X120.307 Y67.613 E18.56070
G1 X122.158 Y72.082 E18.76637
G1 X122.158 Y97.918 E19.86495
G1 X120.307 Y102.387 E20.07061
G1 X114.887 Y107.807 E20.39654
G1 X110.418 Y109.658 E20.60220
G1 X59.582 Y109.658 E22.76378
G1 X55.113 Y107.807 E22.96944
G1 X49.693 Y102.387 E23.29537
G1 X47.842 Y97.918 E23.50103
G1 X47.842 Y72.082 E24.59961
G1 X49.693 Y67.613 E24.80527
G1 X53.360 Y63.945 E25.02582
G1 X53.644 Y64.144 F6000.000
G1 F1800
G1 X55.306 Y62.482 E25.12576
G1 X59.649 Y60.683 E25.32566
G1 X110.351 Y60.683 E27.48148
G1 X114.694 Y62.482 E27.68137
G1 X120.018 Y67.806 E28.00153
G1 X121.817 Y72.149 E28.20142
G1 X121.817 Y97.851 E29.29424
G1 X120.018 Y102.194 E29.49413
G1 X114.694 Y107.518 E29.81429
G1 X110.351 Y109.317 E30.01419
G1 X59.649 Y109.317 E32.17001
G1 X55.306 Y107.518 E32.36990
G1 X49.982 Y102.194 E32.69006
G1 X48.183 Y97.851 E32.88995
G1 X48.183 Y72.149 E33.98277
G1 X49.982 Y67.806 E34.18266
G1 X53.602 Y64.186 E34.40033
G1 X53.885 Y64.385 F6000.000
G1 F1800
G1 X55.499 Y62.771 E34.49739
G1 X59.717 Y61.024 E34.69152
G1 X110.283 Y61.024 E36.84157
G1 X114.501 Y62.771 E37.03570
G1 X119.729 Y67.999 E37.35009
G1 X121.476 Y72.217 E37.54422
G1 X121.476 Y97.783 E38.63127
G1 X119.729 Y102.001 E38.82539
G1 X114.501 Y107.229 E39.13979
G1 X110.283 Y108.976 E39.33391
G1 X59.717 Y108.976 E41.48396
G1 X55.499 Y107.229 E41.67809
G1 X50.271 Y102.001 E41.99249
G1 X48.524 Y97.783 E42.18661
G1 X48.524 Y72.217 E43.27366
G1 X50.271 Y67.999 E43.46779
G1 X53.843 Y64.427 E43.68257
G1 X54.126 Y64.626 F6000.000
G1 F1800
G1 X55.692 Y63.060 E43.77675
G1 X59.785 Y61.365 E43.96511
G1 X110.215 Y61.365 E46.10939
G1 X114.308 Y63.060 E46.29776
G1 X119.440 Y68.192 E46.60638
G1 X121.135 Y72.285 E46.79474
G1 X121.135 Y97.715 E47.87602
G1 X119.440 Y101.808 E48.06439
G1 X114.308 Y106.940 E48.37301
G1 X110.215 Y108.635 E48.56137
G1 X59.785 Y108.635 E50.70566
G1 X55.692 Y106.940 E50.89402
G1 X50.560 Y101.808 E51.20264
G1 X48.865 Y97.715 E51.39101
G1 X48.865 Y72.285 E52.47229
G1 X50.560 Y68.192 E52.66065
G1 X54.084 Y64.669 E52.87254
G1 X54.367 Y64.867 F6000.000
G1 F1800
G1 X55.885 Y63.349 E52.96384
G1 X59.853 Y61.706 E53.14644
G1 X110.147 Y61.706 E55.28495
G1 X114.115 Y63.349 E55.46755
G1 X119.151 Y68.385 E55.77041
G1 X120.794 Y72.353 E55.95300
G1 X120.794 Y97.647 E57.02852
G1 X119.151 Y101.615 E57.21111
G1 X114.115 Y106.651 E57.51397
G1 X110.147 Y108.294 E57.69657
G1 X59.853 Y108.294 E59.83508
G1 X55.885 Y106.651 E60.01768
G1 X50.849 Y101.615 E60.32054
G1 X49.206 Y97.647 E60.50313
G1 X49.206 Y72.353 E61.57865
G1 X50.849 Y68.385 E61.76124
G1 X54.325 Y64.910 E61.97025
G1 X54.608 Y65.108 F6000.000
G1 F1800
G1 X56.079 Y63.638 E62.05867
G1 X59.921 Y62.046 E62.23549
G1 X110.079 Y62.046 E64.36825
G1 X113.921 Y63.638 E64.54507
G1 X118.862 Y68.579 E64.84217
G1 X120.454 Y72.421 E65.01899
G1 X120.454 Y97.579 E66.08874
G1 X118.862 Y101.421 E66.26557
G1 X113.921 Y106.362 E66.56266
G1 X110.079 Y107.954 E66.73949
G1 X59.921 Y107.954 E68.87224
G1 X56.079 Y106.362 E69.04907
G1 X51.138 Y101.421 E69.34616
G1 X49.546 Y97.579 E69.52299
G1 X49.546 Y72.421 E70.59274
G1 X51.138 Y68.579 E70.76957
G1 X54.566 Y65.151 E70.97570
G1 X54.849 Y65.349 F6000.000
G1 F1800
G1 X56.272 Y63.927 E71.06123
G1 X59.988 Y62.387 E71.23229
G1 X110.012 Y62.387 E73.35927
G1 X113.728 Y63.927 E73.53033
G1 X118.573 Y68.772 E73.82166
G1 X120.113 Y72.488 E73.99272
G1 X120.113 Y97.512 E75.05670
G1 X118.573 Y101.228 E75.22776
G1 X113.728 Y106.073 E75.51909
G1 X110.012 Y107.613 E75.69015
G1 X59.988 Y107.613 E77.81714
G1 X56.272 Y106.073 E77.98820
G1 X51.427 Y101.228 E78.27952
G1 X49.887 Y97.512 E78.45058
G1 X49.887 Y72.488 E79.51457
G1 X51.427 Y68.772 E79.68563
G1 X54.807 Y65.392 E79.88887
G1 X55.090 Y65.590 F6000.000
G1 F1800
G1 X56.465 Y64.216 E79.97152
G1 X60.056 Y62.728 E80.13681
G1 X109.944 Y62.728 E82.25803
G1 X113.535 Y64.216 E82.42333
G1 X118.284 Y68.965 E82.70889
G1 X119.772 Y72.556 E82.87418
G1 X119.772 Y97.444 E83.93240
G1 X118.284 Y101.035 E84.09769
G1 X113.535 Y105.784 E84.38325
G1 X109.944 Y107.272 E84.54854
G1 X60.056 Y107.272 E86.66976
G1 X56.465 Y105.784 E86.83506
G1 X51.716 Y101.035 E87.12062
G1 X50.228 Y97.444 E87.28591
G1 X50.228 Y72.556 E88.34413
G1 X51.716 Y68.965 E88.50942
G1 X55.048 Y65.633 E88.70978
G1 X55.331 Y65.831 F6000.000
G1 F1800
G1 X56.658 Y64.505 E88.78955
G1 X60.124 Y63.069 E88.94907
G1 X109.876 Y63.069 E91.06452
G1 X113.342 Y64.505 E91.22405
G1 X117.995 Y69.158 E91.50384
G1 X119.431 Y72.624 E91.66337
G1 X119.431 Y97.376 E92.71582
G1 X117.995 Y100.842 E92.87535
G1 X113.342 Y105.495 E93.15514
G1 X109.876 Y106.931 E93.31467
G1 X60.124 Y106.931 E95.43012
G1 X56.658 Y105.495 E95.58965
G1 X52.005 Y100.842 E95.86944
G1 X50.569 Y97.376 E96.02897
G1 X50.569 Y72.624 E97.08142
G1 X52.005 Y69.158 E97.24095
G1 X55.289 Y65.874 E97.43842
G1 X55.572 Y66.072 F6000.000
G1 F1800
G1 X56.851 Y64.794 E97.51531
G1 X60.192 Y63.410 E97.66907
G1 X109.808 Y63.410 E99.77875
G1 X113.149 Y64.794 E99.93251
G1 X117.706 Y69.351 E100.20654
G1 X119.090 Y72.692 E100.36030
G1 X119.090 Y97.308 E101.40698
G1 X117.706 Y100.649 E101.56074
G1 X113.149 Y105.206 E101.83477
G1 X109.808 Y106.590 E101.98853
G1 X60.192 Y106.590 E104.09821
G1 X56.851 Y105.206 E104.25198
G1 X52.294 Y100.649 E104.52600
G1 X50.910 Y97.308 E104.67976
G1 X50.910 Y72.692 E105.72645
G1 X52.294 Y69.351 E105.88021
G1 X55.530 Y66.115 E106.07480
G1 X55.813 Y66.313 F6000.000
G1 F1800
G1 X57.044 Y65.083 E106.14880
G1 X60.260 Y63.751 E106.29679
G1 X109.740 Y63.751 E108.40071
G1 X112.956 Y65.083 E108.54871
G1 X117.417 Y69.544 E108.81696
G1 X118.749 Y72.760 E108.96496
G1 X118.749 Y97.240 E110.00588
G1 X117.417 Y100.456 E110.15387
G1 X112.956 Y104.917 E110.42213
G1 X109.740 Y106.249 E110.57012
G1 X60.260 Y106.249 E112.67404
G1 X57.044 Y104.917 E112.82204
G1 X52.583 Y100.456 E113.09030
G1 X51.251 Y97.240 E113.23829
G1 X51.251 Y72.760 E114.27921
G1 X52.583 Y69.544 E114.42720
G1 X55.771 Y66.356 E114.61891
G1 X56.055 Y66.555 F6000.000
G1 F1800
G1 X57.237 Y65.372 E114.69003
G1 X60.328 Y64.092 E114.83225
G1 X109.672 Y64.092 E116.93040
G1 X112.763 Y65.372 E117.07263
G1 X117.128 Y69.737 E117.33513
G1 X118.408 Y72.828 E117.47735
G1 X118.408 Y97.172 E118.51250
G1 X117.128 Y100.263 E118.65473
G1 X112.763 Y104.628 E118.91722
G1 X109.672 Y105.908 E119.05945
G1 X60.328 Y105.908 E121.15760
G1 X57.237 Y104.628 E121.29983
G1 X52.872 Y100.263 E121.56232
G1 X51.592 Y97.172 E121.70455
G1 X51.592 Y72.828 E122.73970
G1 X52.872 Y69.737 E122.88193
G1 X56.012 Y66.597 E123.07076
G1 X56.296 Y66.796 F6000.000
G1 F1800
G1 X57.430 Y65.661 E123.13899
G1 X60.395 Y64.433 E123.27545
G1 X109.605 Y64.433 E125.36783
G1 X112.570 Y65.661 E125.50429
G1 X116.839 Y69.930 E125.76102
G1 X118.067 Y72.895 E125.89748
G1 X118.067 Y97.105 E126.92686
G1 X116.839 Y100.070 E127.06332
G1 X112.570 Y104.339 E127.32005
G1 X109.605 Y105.567 E127.45651
G1 X60.395 Y105.567 E129.54890
G1 X57.430 Y104.339 E129.68536
G1 X53.161 Y100.070 E129.94208
G1 X51.933 Y97.105 E130.07854
G1 X51.933 Y72.895 E131.10793
G1 X53.161 Y69.930 E131.24439
G1 X56.253 Y66.838 E131.43033
G1 X56.537 Y67.037 F6000.000
G1 F1800
G1 X57.623 Y65.950 E131.49568
G1 X60.463 Y64.774 E131.62637
G1 X109.537 Y64.774 E133.71299
G1 X112.377 Y65.950 E133.84369
G1 X116.550 Y70.123 E134.09465
G1 X117.726 Y72.963 E134.22534
G1 X117.726 Y97.037 E135.24896
G1 X116.550 Y99.877 E135.37965
G1 X112.377 Y104.050 E135.63061
G1 X109.537 Y105.226 E135.76131
G1 X60.463 Y105.226 E137.84792
G1 X57.623 Y104.050 E137.97862
G1 X53.450 Y99.877 E138.22958
G1 X52.274 Y97.037 E138.36027
G1 X52.274 Y72.963 E139.38389
G1 X53.450 Y70.123 E139.51458
G1 X56.494 Y67.079 E139.69764
G1 X56.778 Y67.278 F6000.000
G1 F1800
G1 X57.817 Y66.239 E139.76011
G1 X60.531 Y65.115 E139.88503
G1 X109.469 Y65.115 E141.96589
G1 X112.183 Y66.239 E142.09081
G1 X116.261 Y70.317 E142.33601
G1 X117.385 Y73.031 E142.46093
G1 X117.385 Y96.969 E143.47878
G1 X116.261 Y99.683 E143.60371
G1 X112.183 Y103.761 E143.84890
G1 X109.469 Y104.885 E143.97383
G1 X60.531 Y104.885 E146.05468
G1 X57.817 Y103.761 E146.17961
G1 X53.739 Y99.683 E146.42480
G1 X52.615 Y96.969 E146.54973
G1 X52.615 Y73.031 E147.56758
G1 X53.739 Y70.317 E147.69251
G1 X56.735 Y67.320 E147.87269
G1 X57.019 Y67.519 F6000.000
G1 F1800
G1 X58.010 Y66.528 E147.93227
G1 X60.599 Y65.456 E148.05143
G1 X109.401 Y65.456 E150.12651
G1 X111.990 Y66.528 E150.24567
G1 X115.972 Y70.510 E150.48510
G1 X117.044 Y73.099 E150.60426
G1 X117.044 Y96.901 E151.61634
G1 X115.972 Y99.490 E151.73551
G1 X111.990 Y103.472 E151.97493
G1 X109.401 Y104.544 E152.09409
G1 X60.599 Y104.544 E154.16918
G1 X58.010 Y103.472 E154.28834
G1 X54.028 Y99.490 E154.52776
G1 X52.956 Y96.901 E154.64693
G1 X52.956 Y73.099 E155.65901
G1 X54.028 Y70.510 E155.77817
G1 X56.976 Y67.561 E155.95546
G1 X57.260 Y67.760 F6000.000
G1 F1800
G1 X58.203 Y66.817 E156.01216
G1 X60.667 Y65.796 E156.12556
G1 X109.333 Y65.796 E158.19487
G1 X111.797 Y66.817 E158.30827
G1 X115.683 Y70.703 E158.54193
G1 X116.704 Y73.167 E158.65532
G1 X116.704 Y96.833 E159.66164
G1 X115.683 Y99.297 E159.77503
G1 X111.797 Y103.183 E160.00869
G1 X109.333 Y104.204 E160.12209
G1 X60.667 Y104.204 E162.19141
G1 X58.203 Y103.183 E162.30480
G1 X54.317 Y99.297 E162.53846
G1 X53.296 Y96.833 E162.65185
G1 X53.296 Y73.167 E163.65817
G1 X54.317 Y70.703 E163.77156
G1 X57.217 Y67.802 E163.94598
G1 X57.501 Y68.001 F6000.000
G1 F1800
G1 X58.396 Y67.106 E163.99979
G1 X60.734 Y66.137 E164.10742
G1 X109.266 Y66.137 E166.17097
G1 X111.604 Y67.106 E166.27860
G1 X115.394 Y70.896 E166.50649
G1 X116.363 Y73.234 E166.61412
G1 X116.363 Y96.766 E167.61467
G1 X115.394 Y99.104 E167.72229
G1 X111.604 Y102.894 E167.95019
G1 X109.266 Y103.863 E168.05782
G1 X60.734 Y103.863 E170.12137
G1 X58.396 Y102.894 E170.22899
G1 X54.606 Y99.104 E170.45689
G1 X53.637 Y96.766 E170.56452
G1 X53.637 Y73.234 E171.56506
G1 X54.606 Y70.896 E171.67269
G1 X57.458 Y68.043 E171.84422
G1 X57.742 Y68.242 F6000.000
G1 F1800
G1 X58.589 Y67.395 E171.89515
G1 X60.802 Y66.478 E171.99701
G1 X109.198 Y66.478 E174.05480
G1 X111.411 Y67.395 E174.15666
G1 X115.105 Y71.089 E174.37878
G1 X116.022 Y73.302 E174.48065
G1 X116.022 Y96.698 E175.47543
G1 X115.105 Y98.911 E175.57729
G1 X111.411 Y102.605 E175.79942
G1 X109.198 Y103.522 E175.90128
G1 X60.802 Y103.522 E177.95906
G1 X58.589 Y102.605 E178.06092
G1 X54.895 Y98.911 E178.28305
G1 X53.978 Y96.698 E178.38491
G1 X53.978 Y73.302 E179.37969
G1 X54.895 Y71.089 E179.48155
G1 X57.700 Y68.284 E179.65020
G1 X57.983 Y68.483 F6000.000
G1 F1800
G1 X58.782 Y67.684 E179.69825
G1 X60.870 Y66.819 E179.79434
G1 X109.130 Y66.819 E181.84636
G1 X111.218 Y67.684 E181.94245
G1 X114.816 Y71.282 E182.15881
G1 X115.681 Y73.370 E182.25491
G1 X115.681 Y96.630 E183.24392
G1 X114.816 Y98.718 E183.34002
G1 X111.218 Y102.316 E183.55638
G1 X109.130 Y103.181 E183.65247
G1 X60.870 Y103.181 E185.70449
G1 X58.782 Y102.316 E185.80058
G1 X55.184 Y98.718 E186.01694
G1 X54.319 Y96.630 E186.11304
G1 X54.319 Y73.370 E187.10205
G1 X55.184 Y71.282 E187.19815
G1 X57.941 Y68.525 E187.36391
G1 X58.224 Y68.724 F6000.000
G1 F1800
G1 X58.975 Y67.973 E187.40907
G1 X60.938 Y67.160 E187.49940
G1 X109.062 Y67.160 E189.54565
G1 X111.025 Y67.973 E189.63598
G1 X114.527 Y71.475 E189.84657
G1 X115.340 Y73.438 E189.93690
G1 X115.340 Y96.562 E190.92015
G1 X114.527 Y98.525 E191.01048
G1 X111.025 Y102.027 E191.22107
G1 X109.062 Y102.840 E191.31140
G1 X60.938 Y102.840 E193.35765
G1 X58.975 Y102.027 E193.44798
G1 X55.473 Y98.525 E193.65857
G1 X54.660 Y96.562 E193.74890
G1 X54.660 Y73.438 E194.73215
G1 X55.473 Y71.475 E194.82248
G1 X58.182 Y68.767 E194.98535
G1 X58.465 Y68.965 F6000.000
G1 F1800
G1 X59.168 Y68.262 E195.02764
G1 X61.006 Y67.501 E195.11220
G1 X108.994 Y67.501 E197.15268
G1 X110.832 Y68.262 E197.23724
G1 X114.238 Y71.668 E197.44207
G1 X114.999 Y73.506 E197.52663
G1 X114.999 Y96.494 E198.50411
G1 X114.238 Y98.332 E198.58867
G1 X110.832 Y101.738 E198.79350
G1 X108.994 Y102.499 E198.87806
