; generated by Slic3r 1.3.0 on 2021-05-04 at 20:35:44

; external perimeters extrusion width = 0.44mm (6.76mm^3/s)
; perimeters extrusion width = 0.48mm (7.54mm^3/s)
; infill extrusion width = 0.48mm (6.28mm^3/s)
; solid infill extrusion width = 0.48mm (3.77mm^3/s)
; top infill extrusion width = 0.40mm (7.05mm^3/s)
; support material extrusion width = 0.44mm (7.89mm^3/s)

M107
M190 S100 ; set bed temperature and wait for it to be reached
M104 S240 ; set temperature
G28 ; home all axes
G1 Z5 F5000 ; lift nozzle

; Filament gcode

M109 S240 ; set temperature and wait for it to be reached
G21 ; set units to millimeters
G90 ; use absolute coordinates
M82 ; use absolute distances for extrusion
G92 E0
G1 E-6.00000 F2400.00000
G92 E0
G1 Z0.300 F6000.000
G1 X33.318 Y55.825 F6000.000
G1 E6.00000 F2400.00000
G1 F1800
G1 X36.665 Y54.688 E6.14798
G1 X40.000 Y54.329 E6.28838
G1 X130.000 Y54.329 E10.05581
G1 X133.513 Y54.727 E10.20379
G1 X136.846 Y55.903 E10.35177
G1 X139.832 Y57.797 E10.49975
G1 X142.317 Y60.311 E10.64773
G1 X144.175 Y63.318 E10.79571
G1 X145.312 Y66.665 E10.94369
G1 X145.671 Y70.000 E11.08409
G1 X145.671 Y100.000 E12.33990
G1 X145.273 Y103.513 E12.48788
G1 X144.097 Y106.846 E12.63586
G1 X142.203 Y109.832 E12.78384
G1 X139.689 Y112.317 E12.93182
G1 X136.682 Y114.175 E13.07981
G1 X133.335 Y115.312 E13.22779
G1 X130.000 Y115.671 E13.36819
G1 X40.000 Y115.671 E17.13561
G1 X36.487 Y115.273 E17.28359
G1 X33.154 Y114.097 E17.43157
G1 X30.168 Y112.203 E17.57956
G1 X27.683 Y109.689 E17.72754
G1 X25.825 Y106.682 E17.87552
G1 X24.688 Y103.335 E18.02350
G1 X24.329 Y100.000 E18.16390
G1 X24.329 Y70.000 E19.41971
G1 X24.727 Y66.487 E19.56769
G1 X25.903 Y63.154 E19.71567
G1 X27.797 Y60.168 E19.86365
G1 X30.311 Y57.683 E20.01163
G1 X33.267 Y55.856 E20.15710
G1 X33.632 Y56.049 F6000.000
G1 F1800
G1 X36.958 Y54.969 E20.30348
G1 X40.000 Y54.664 E20.43144
G1 X130.000 Y54.664 E24.19887
G1 X133.474 Y55.063 E24.34525
G1 X136.768 Y56.238 E24.49163
G1 X139.709 Y58.129 E24.63801
G1 X142.146 Y60.637 E24.78440
G1 X143.951 Y63.632 E24.93078
G1 X145.031 Y66.958 E25.07716
G1 X145.336 Y70.000 E25.20512
G1 X145.336 Y100.000 E26.46093
G1 X144.937 Y103.474 E26.60731
G1 X143.762 Y106.768 E26.75369
G1 X141.871 Y109.709 E26.90007
G1 X139.363 Y112.146 E27.04646
G1 X136.368 Y113.951 E27.19284
G1 X133.042 Y115.031 E27.33922
G1 X130.000 Y115.336 E27.46718
G1 X40.000 Y115.336 E31.23461
G1 X36.526 Y114.937 E31.38099
G1 X33.232 Y113.762 E31.52737
G1 X30.291 Y111.871 E31.67375
G1 X27.854 Y109.363 E31.82014
G1 X26.049 Y106.368 E31.96652
G1 X24.969 Y103.042 E32.11290
G1 X24.664 Y100.000 E32.24086
G1 X24.664 Y70.000 E33.49667
G1 X25.063 Y66.526 E33.64305
G1 X26.238 Y63.232 E33.78943
G1 X28.129 Y60.291 E33.93581
G1 X30.637 Y57.854 E34.08220
G1 X33.581 Y56.080 E34.22607
G1 X34.823 Y57.501 F6000.000
G1 F1800
G1 X135.177 Y57.501 E38.49315
G1 X142.499 Y64.823 E38.93342
G1 X142.499 Y105.177 E40.64930
G1 X135.177 Y112.499 E41.08958
G1 X34.823 Y112.499 E45.35666
G1 X27.501 Y105.177 E45.79693
G1 X27.501 Y64.823 E47.51281
G1 X34.780 Y57.543 E47.95054
G1 X34.964 Y57.842 F6000.000
G1 F1800
G1 X135.036 Y57.842 E52.20561
G1 X142.158 Y64.964 E52.63388
G1 X142.158 Y105.036 E54.33775
G1 X135.036 Y112.158 E54.76601
G1 X34.964 Y112.158 E59.02109
G1 X27.842 Y105.036 E59.44935
G1 X27.842 Y64.964 E61.15322
G1 X34.922 Y57.884 E61.57894
G1 X35.105 Y58.183 F6000.000
G1 F1800
G1 X134.895 Y58.183 E65.82200
G1 X141.817 Y65.105 E66.23826
G1 X141.817 Y104.895 E67.93012
G1 X134.895 Y111.817 E68.34638
G1 X35.105 Y111.817 E72.58944
G1 X28.183 Y104.895 E73.00570
G1 X28.183 Y65.105 E74.69756
G1 X35.063 Y58.225 E75.11127
G1 X35.246 Y58.524 F6000.000
G1 F1800
G1 X134.754 Y58.524 E79.34233
G1 X141.476 Y65.246 E79.74658
G1 X141.476 Y104.754 E81.42643
G1 X134.754 Y111.476 E81.83068
G1 X35.246 Y111.476 E86.06174
G1 X28.524 Y104.754 E86.46599
G1 X28.524 Y65.246 E88.14584
G1 X35.204 Y58.566 E88.54754
G1 X35.388 Y58.865 F6000.000
G1 F1800
G1 X134.612 Y58.865 E92.76658
G1 X141.135 Y65.388 E93.15883
G1 X141.135 Y104.612 E94.82667
G1 X134.612 Y111.135 E95.21891
G1 X35.388 Y111.135 E99.43796
G1 X28.865 Y104.612 E99.83020
G1 X28.865 Y65.388 E101.49804
G1 X35.345 Y58.907 E101.88774
G1 X35.529 Y59.206 F6000.000
G1 F1800
G1 X134.471 Y59.206 E106.09477
G1 X140.794 Y65.529 E106.47501
G1 X140.794 Y104.471 E108.13084
G1 X134.471 Y110.794 E108.51108
G1 X35.529 Y110.794 E112.71812
G1 X29.206 Y104.471 E113.09835
G1 X29.206 Y65.529 E114.75418
G1 X35.486 Y59.248 E115.13187
G1 X35.670 Y59.546 F6000.000
G1 F1800
G1 X134.330 Y59.546 E119.32690
G1 X140.454 Y65.670 E119.69512
G1 X140.454 Y104.330 E121.33895
G1 X134.330 Y110.454 E121.70717
G1 X35.670 Y110.454 E125.90220
G1 X29.546 Y104.330 E126.27043
G1 X29.546 Y65.670 E127.91426
G1 X35.628 Y59.589 E128.27993
G1 X35.811 Y59.887 F6000.000
G1 F1800
G1 X134.189 Y59.887 E132.46295
G1 X140.113 Y65.811 E132.81917
G1 X140.113 Y104.189 E134.45099
G1 X134.189 Y110.113 E134.80720
G1 X35.811 Y110.113 E138.99023
G1 X29.887 Y104.189 E139.34644
G1 X29.887 Y65.811 E140.97826
G1 X35.769 Y59.930 E141.33193
G1 X35.952 Y60.228 F6000.000
G1 F1800
G1 X134.048 Y60.228 E145.50294
G1 X139.772 Y65.952 E145.84715
G1 X139.772 Y104.048 E147.46696
G1 X134.048 Y109.772 E147.81117
G1 X35.952 Y109.772 E151.98218
G1 X30.228 Y104.048 E152.32639
G1 X30.228 Y65.952 E153.94620
G1 X35.910 Y60.271 E154.28785
G1 X36.094 Y60.569 F6000.000
G1 F1800
G1 X133.906 Y60.569 E158.44686
G1 X139.431 Y66.094 E158.77906
G1 X139.431 Y103.906 E160.38686
G1 X133.906 Y109.431 E160.71906
G1 X36.094 Y109.431 E164.87807
G1 X30.569 Y103.906 E165.21027
G1 X30.569 Y66.094 E166.81807
G1 X36.051 Y60.612 E167.14772
G1 X36.235 Y60.910 F6000.000
G1 F1800
G1 X133.765 Y60.910 E171.29471
G1 X139.090 Y66.235 E171.61490
G1 X139.090 Y103.765 E173.21070
G1 X133.765 Y109.090 E173.53089
G1 X36.235 Y109.090 E177.67788
G1 X30.910 Y103.765 E177.99808
G1 X30.910 Y66.235 E179.59387
G1 X36.192 Y60.952 E179.91151
G1 X36.376 Y61.251 F6000.000
G1 F1800
G1 X133.624 Y61.251 E184.04650
G1 X138.749 Y66.376 E184.35468
G1 X138.749 Y103.624 E185.93846
G1 X133.624 Y108.749 E186.24665
G1 X36.376 Y108.749 E190.38163
G1 X31.251 Y103.624 E190.68982
G1 X31.251 Y66.376 E192.27360
G1 X36.334 Y61.293 E192.57923
G1 X36.517 Y61.592 F6000.000
G1 F1800
G1 X133.483 Y61.592 E196.70221
G1 X138.408 Y66.517 E196.99839
G1 X138.408 Y103.483 E198.57016
G1 X133.483 Y108.408 E198.86634
G1 X36.517 Y108.408 E202.98932
G1 X31.592 Y103.483 E203.28549
G1 X31.592 Y66.517 E204.85727
G1 X36.475 Y61.634 E205.15089
G1 X36.658 Y61.933 F6000.000
G1 F1800
G1 X133.342 Y61.933 E209.26186
G1 X138.067 Y66.658 E209.54603
G1 X138.067 Y103.342 E211.10580
G1 X133.342 Y108.067 E211.38996
G1 X36.658 Y108.067 E215.50093
G1 X31.933 Y103.342 E215.78510
G1 X31.933 Y66.658 E217.34487
G1 X36.616 Y61.975 E217.62648
G1 X36.800 Y62.274 F6000.000
G1 F1800
G1 X133.200 Y62.274 E221.72545
G1 X137.726 Y66.800 E221.99760
G1 X137.726 Y103.200 E223.54536
G1 X133.200 Y107.726 E223.81752
G1 X36.800 Y107.726 E227.91648
G1 X32.274 Y103.200 E228.18864
G1 X32.274 Y66.800 E229.73640
G1 X36.757 Y62.316 E230.00601
G1 X36.941 Y62.615 F6000.000
G1 F1800
G1 X133.059 Y62.615 E234.09296
G1 X137.385 Y66.941 E234.35311
G1 X137.385 Y103.059 E235.88886
G1 X133.059 Y107.385 E236.14901
G1 X36.941 Y107.385 E240.23596
G1 X32.615 Y103.059 E240.49611
G1 X32.615 Y66.941 E242.03186
G1 X36.898 Y62.657 E242.28946
G1 X37.082 Y62.956 F6000.000
G1 F1800
G1 X132.918 Y62.956 E246.36441
G1 X137.044 Y67.082 E246.61255
G1 X137.044 Y102.918 E248.13629
G1 X132.918 Y107.044 E248.38443
G1 X37.082 Y107.044 E252.45938
G1 X32.956 Y102.918 E252.70752
G1 X32.956 Y67.082 E254.23126
G1 X37.040 Y62.998 E254.47685
G1 X37.223 Y63.296 F6000.000
G1 F1800
G1 X132.777 Y63.296 E258.53979
G1 X136.704 Y67.223 E258.77592
G1 X136.704 Y102.777 E260.28765
G1 X132.777 Y106.704 E260.52379
G1 X37.223 Y106.704 E264.58672
G1 X33.296 Y102.777 E264.82286
G1 X33.296 Y67.223 E266.33459
G1 X37.181 Y63.339 E266.56817
G1 X37.364 Y63.637 F6000.000
G1 F1800
G1 X132.636 Y63.637 E270.61910
G1 X136.363 Y67.364 E270.84322
G1 X136.363 Y102.636 E272.34295
G1 X132.636 Y106.363 E272.56707
G1 X37.364 Y106.363 E276.61800
G1 X33.637 Y102.636 E276.84213
G1 X33.637 Y67.364 E278.34185
G1 X37.322 Y63.680 E278.56342
G1 X37.506 Y63.978 F6000.000
G1 F1800
G1 X132.494 Y63.978 E282.60234
G1 X136.022 Y67.506 E282.81446
G1 X136.022 Y102.494 E284.30218
G1 X132.494 Y106.022 E284.51429
G1 X37.506 Y106.022 E288.55321
G1 X33.978 Y102.494 E288.76533
G1 X33.978 Y67.506 E290.25304
G1 X37.463 Y64.021 E290.46261
G1 X37.647 Y64.319 F6000.000
G1 F1800
G1 X132.353 Y64.319 E294.48952
G1 X135.681 Y67.647 E294.68963
G1 X135.681 Y102.353 E296.16534
G1 X132.353 Y105.681 E296.36544
G1 X37.647 Y105.681 E300.39236
G1 X34.319 Y102.353 E300.59246
G1 X34.319 Y67.647 E302.06817
G1 X37.604 Y64.362 E302.26573
G1 X37.788 Y64.660 F6000.000
G1 F1800
G1 X132.212 Y64.660 E306.28063
G1 X135.340 Y67.788 E306.46873
G1 X135.340 Y102.212 E307.93243
G1 X132.212 Y105.340 E308.12053
G1 X37.788 Y105.340 E312.13543
G1 X34.660 Y102.212 E312.32353
G1 X34.660 Y67.788 E313.78723
G1 X37.746 Y64.702 E313.97278
G1 X37.929 Y65.001 F6000.000
G1 F1800
G1 X132.071 Y65.001 E317.97567
G1 X134.999 Y67.929 E318.15176
G1 X134.999 Y102.071 E319.60345
G1 X132.071 Y104.999 E319.77954
G1 X37.929 Y104.999 E323.78244
G1 X35.001 Y102.071 E323.95853
G1 X35.001 Y67.929 E325.41022
G1 X37.887 Y65.043 E325.58376
G1 X38.071 Y65.342 F6000.000
G1 F1800
G1 X131.929 Y65.342 E329.57465
G1 X134.658 Y68.071 E329.73873
G1 X134.658 Y101.929 E331.17841
G1 X131.929 Y104.658 E331.34249
G1 X38.071 Y104.658 E335.33338
G1 X35.342 Y101.929 E335.49746
G1 X35.342 Y68.071 E336.93715
G1 X38.028 Y65.384 E337.09868
G1 X38.212 Y65.683 F6000.000
G1 F1800
G1 X131.788 Y65.683 E341.07755
G1 X134.317 Y68.212 E341.22963
G1 X134.317 Y101.788 E342.65730
G1 X131.788 Y104.317 E342.80938
G1 X38.212 Y104.317 E346.78825
G1 X35.683 Y101.788 E346.94033
G1 X35.683 Y68.212 E348.36800
G1 X38.169 Y65.725 E348.51752
G1 X38.353 Y66.024 F6000.000
G1 F1800
G1 X131.647 Y66.024 E352.48439
G1 X133.976 Y68.353 E352.62446
G1 X133.976 Y101.647 E354.04012
G1 X131.647 Y103.976 E354.18019
G1 X38.353 Y103.976 E358.14706
G1 X36.024 Y101.647 E358.28712
G1 X36.024 Y68.353 E359.70279
G1 X38.311 Y66.066 E359.84030
G1 X38.494 Y66.365 F6000.000
G1 F1800
G1 X131.506 Y66.365 E363.79517
G1 X133.635 Y68.494 E363.92322
G1 X133.635 Y101.506 E365.32688
G1 X131.506 Y103.635 E365.45494
G1 X38.494 Y103.635 E369.40980
G1 X36.365 Y101.506 E369.53785
G1 X36.365 Y68.494 E370.94151
G1 X38.452 Y66.407 E371.06702
G1 X38.635 Y66.706 F6000.000
G1 F1800
G1 X131.365 Y66.706 E375.00987
G1 X133.294 Y68.635 E375.12592
G1 X133.294 Y101.365 E376.51757
G1 X131.365 Y103.294 E376.63361
G1 X38.635 Y103.294 E380.57647
G1 X36.706 Y101.365 E380.69252
G1 X36.706 Y68.635 E382.08417
G1 X38.593 Y66.748 E382.19766
G1 X38.777 Y67.046 F6000.000
G1 F1800
G1 X131.223 Y67.046 E386.12851
G1 X132.954 Y68.777 E386.23255
G1 X132.954 Y101.223 E387.61219
G1 X131.223 Y102.954 E387.71623
G1 X38.777 Y102.954 E391.64707
G1 X37.046 Y101.223 E391.75111
G1 X37.046 Y68.777 E393.13075
G1 X38.734 Y67.089 E393.23224
G1 X38.918 Y67.387 F6000.000
G1 F1800
G1 X131.082 Y67.387 E397.15108
G1 X132.613 Y68.918 E397.24311
G1 X132.613 Y101.082 E398.61074
G1 X131.082 Y102.613 E398.70277
G1 X38.918 Y102.613 E402.62161
G1 X37.387 Y101.082 E402.71364
G1 X37.387 Y68.918 E404.08127
G1 X38.875 Y67.430 E404.17075
G1 X39.059 Y67.728 F6000.000
G1 F1800
G1 X130.941 Y67.728 E408.07758
G1 X132.272 Y69.059 E408.15760
G1 X132.272 Y100.941 E409.51322
G1 X130.941 Y102.272 E409.59325
G1 X39.059 Y102.272 E413.50007
G1 X37.728 Y100.941 E413.58010
G1 X37.728 Y69.059 E414.93572
G1 X39.017 Y67.771 E415.01319
G1 X39.200 Y68.069 F6000.000
G1 F1800
G1 X130.800 Y68.069 E418.90801
G1 X131.931 Y69.200 E418.97603
G1 X131.931 Y100.800 E420.31964
G1 X130.800 Y101.931 E420.38766
G1 X39.200 Y101.931 E424.28247
G1 X38.069 Y100.800 E424.35049
G1 X38.069 Y69.200 E425.69410
G1 X39.158 Y68.112 E425.75957
G1 X39.341 Y68.410 F6000.000
G1 F1800
G1 X130.659 Y68.410 E429.64238
G1 X131.590 Y69.341 E429.69838
G1 X131.590 Y100.659 E431.02999
G1 X130.659 Y101.590 E431.08600
G1 X39.341 Y101.590 E434.96881
G1 X38.410 Y100.659 E435.02481
G1 X38.410 Y69.341 E436.35642
G1 X39.299 Y68.452 E436.40987
G1 X39.483 Y68.751 F6000.000
G1 F1800
G1 X130.517 Y68.751 E440.28068
G1 X131.249 Y69.483 E440.32467
G1 X131.249 Y100.517 E441.64427
G1 X130.517 Y101.249 E441.68827
G1 X39.483 Y101.249 E445.55907
G1 X38.751 Y100.517 E445.60307
G1 X38.751 Y69.483 E446.92267
G1 X39.440 Y68.793 E446.96411
G1 X39.624 Y69.092 F6000.000
G1 F1800
G1 X130.376 Y69.092 E450.82291
G1 X130.908 Y69.624 E450.85490
G1 X130.908 Y100.376 E452.16249
G1 X130.376 Y100.908 E452.19448
G1 X39.624 Y100.908 E456.05327
G1 X39.092 Y100.376 E456.08526
G1 X39.092 Y69.624 E457.39285
G1 X39.581 Y69.134 E457.42229
G1 X39.765 Y69.433 F6000.000
G1 F1800
G1 X130.235 Y69.433 E461.26907
G1 X130.567 Y69.765 E461.28905
G1 X130.567 Y100.235 E462.58464
G1 X130.235 Y100.567 E462.60462
G1 X39.765 Y100.567 E466.45140
G1 X39.433 Y100.235 E466.47138
G1 X39.433 Y69.765 E467.76696
G1 X39.723 Y69.475 E467.78439
G1 X39.906 Y69.774 F6000.000
G1 F1800
G1 X130.094 Y69.774 E471.61917
G1 X130.226 Y69.906 E471.62714
G1 X130.226 Y100.094 E472.91071
G1 X130.094 Y100.226 E472.91869
G1 X39.906 Y100.226 E476.75346
G1 X39.774 Y100.094 E476.76144
G1 X39.774 Y69.906 E478.04501
G1 X39.864 Y69.816 E478.05043
G1 F4800
G1 X51.864 Y69.810 E472.35043
G1 E472.05043 F2400.00000
G92 E0
G1 X40.200 Y99.800 F6000.000
G1 E6.00000 F2400.00000
G1 F1800
G1 X40.200 Y70.200 E7.23907
G1 X129.800 Y70.200 E10.98975
G1 X129.800 Y99.800 E12.22881
G1 X40.260 Y99.800 E15.97699
G1 X40.362 Y99.434 F6000.000
G1 X40.536 Y99.464 F6000.000
G1 F1800
G1 X40.536 Y70.536 E17.18795
G1 X129.464 Y70.536 E20.91054
G1 X129.464 Y99.464 E22.12150
G1 X40.596 Y99.464 E25.84158
G1 X40.871 Y99.129 F6000.000
G1 F1800
G1 X40.871 Y70.871 E27.02445
G1 X129.129 Y70.871 E30.71893
G1 X129.129 Y99.129 E31.90180
G1 X40.931 Y99.129 E35.59378
G1 F4800
G1 X40.906 Y87.129 E29.89378
G1 E29.59378 F2400.00000
G92 E0
G1 X48.798 Y91.202 F6000.000
G1 X53.093 Y91.025 F6000.000
G1 X56.137 Y90.400 F6000.000
G1 X58.971 Y89.471 F6000.000
G1 X60.266 Y86.416 F6000.000
G1 X63.241 Y80.768 F6000.000
G1 X68.500 Y80.000 F6000.000
G1 X101.500 Y80.000 F6000.000
G1 X106.741 Y80.763 F6000.000
G1 X108.963 Y78.642 F6000.000
G1 X116.477 Y80.036 F6000.000
G1 X117.380 Y80.655 F6000.000
G1 E6.00000 F2400.00000
G1 F1800
G1 X117.321 Y80.336 E6.01360
G1 X117.300 Y80.004 E6.02752
G1 X117.321 Y79.664 E6.04175
G1 X117.382 Y79.338 E6.05567
G1 X117.481 Y79.028 E6.06928
G1 X117.623 Y78.719 E6.08350
G1 X117.798 Y78.437 E6.09742
G1 X118.002 Y78.184 E6.11103
G1 X118.246 Y77.947 E6.12525
G1 X118.505 Y77.751 E6.13885
G1 X118.793 Y77.584 E6.15277
G1 X119.106 Y77.452 E6.16700
G1 X119.426 Y77.361 E6.18093
G1 X119.755 Y77.311 E6.19484
G1 X120.079 Y77.301 E6.20844
G1 X120.410 Y77.331 E6.22236
G1 X120.743 Y77.404 E6.23659
G1 X121.056 Y77.515 E6.25051
G1 X121.347 Y77.660 E6.26411
G1 X121.624 Y77.843 E6.27802
G1 X121.877 Y78.059 E6.29194
G1 X122.101 Y78.304 E6.30585
G1 X122.294 Y78.575 E6.31978
G1 X122.455 Y78.875 E6.33401
G1 X122.574 Y79.185 E6.34792
G1 X122.654 Y79.500 E6.36153
G1 X122.695 Y79.837 E6.37575
G1 X122.695 Y80.162 E6.38936
G1 X122.655 Y80.492 E6.40328
G1 X122.572 Y80.822 E6.41750
G1 X122.455 Y81.125 E6.43111
G1 X122.298 Y81.418 E6.44503
G1 X122.101 Y81.696 E6.45926
G1 X121.877 Y81.941 E6.47318
G1 X121.624 Y82.157 E6.48710
G1 X121.347 Y82.340 E6.50101
G1 X121.056 Y82.485 E6.51462
