; generated by Slic3r 1.3.0 on 2021-04-23 at 22:39:05

; external perimeters extrusion width = 0.44mm (6.76mm^3/s)
; perimeters extrusion width = 0.48mm (7.54mm^3/s)
; infill extrusion width = 0.48mm (6.28mm^3/s)
; solid infill extrusion width = 0.48mm (3.77mm^3/s)
; top infill extrusion width = 0.40mm (7.05mm^3/s)
; support material extrusion width = 0.44mm (7.89mm^3/s)

M107
M190 S100 ; set bed temperature and wait for it to be reached
M104 S240 ; set temperature
G28 ; home all axes
G1 Z5 F5000 ; lift nozzle

; Filament gcode

M109 S240 ; set temperature and wait for it to be reached
G21 ; set units to millimeters
G90 ; use absolute coordinates
M82 ; use absolute distances for extrusion
G92 E0
G1 E-6.00000 F2400.00000
G92 E0
G1 Z0.300 F4800.000
G1 X9.743 Y29.797 F4800.000
G1 E6.00000 F2400.00000
G1 F1800
G1 X12.000 Y29.329 E6.09648
G1 X158.000 Y29.329 E12.20809
G1 X160.083 Y29.725 E12.29686
G1 X162.010 Y30.990 E12.39334
G1 X164.010 Y32.990 E12.51174
G1 X165.203 Y34.743 E12.60051
G1 X165.671 Y37.000 E12.69699
G1 X165.671 Y133.000 E16.71558
G1 X165.275 Y135.083 E16.80435
G1 X164.010 Y137.010 E16.90083
G1 X162.010 Y139.010 E17.01923
G1 X160.257 Y140.203 E17.10800
G1 X158.000 Y140.671 E17.20448
G1 X12.000 Y140.671 E23.31608
G1 X9.917 Y140.275 E23.40485
G1 X7.990 Y139.010 E23.50134
G1 X5.990 Y137.010 E23.61973
G1 X4.797 Y135.257 E23.70850
G1 X4.329 Y133.000 E23.80499
G1 X4.329 Y37.000 E27.82357
G1 X4.725 Y34.917 E27.91234
G1 X5.990 Y32.990 E28.00883
G1 X7.990 Y30.990 E28.12722
G1 X9.694 Y29.831 E28.21348
G1 X9.934 Y30.081 F4800.000
G1 F1800
G1 X12.000 Y29.664 E28.30170
G1 X158.000 Y29.664 E34.41330
G1 X160.018 Y30.061 E34.49938
G1 X161.773 Y31.227 E34.58760
G1 X163.773 Y33.227 E34.70600
G1 X164.919 Y34.934 E34.79207
G1 X165.336 Y37.000 E34.88029
G1 X165.336 Y133.000 E38.89888
G1 X164.939 Y135.018 E38.98496
G1 X163.773 Y136.773 E39.07317
G1 X161.773 Y138.773 E39.19157
G1 X160.066 Y139.919 E39.27765
G1 X158.000 Y140.336 E39.36586
G1 X12.000 Y140.336 E45.47747
G1 X9.982 Y139.939 E45.56355
G1 X8.227 Y138.773 E45.65176
G1 X6.227 Y136.773 E45.77016
G1 X5.081 Y135.066 E45.85624
G1 X4.664 Y133.000 E45.94446
G1 X4.664 Y37.000 E49.96305
G1 X5.061 Y34.982 E50.04912
G1 X6.227 Y33.227 E50.13734
G1 X8.227 Y31.227 E50.25574
G1 X9.884 Y30.114 E50.33930
G1 X10.383 Y31.164 F4800.000
G1 F1800
G1 X11.172 Y30.837 E50.37735
G1 X158.828 Y30.837 E56.95466
G1 X160.358 Y31.471 E57.02842
G1 X163.529 Y34.642 E57.22818
G1 X164.163 Y36.172 E57.30194
G1 X164.163 Y133.828 E61.65201
G1 X163.529 Y135.358 E61.72578
G1 X160.358 Y138.529 E61.92554
G1 X158.828 Y139.163 E61.99930
G1 X11.172 Y139.163 E68.57661
G1 X9.642 Y138.529 E68.65038
G1 X6.471 Y135.358 E68.85013
G1 X5.837 Y133.828 E68.92390
G1 X5.837 Y36.172 E73.27397
G1 X6.471 Y34.642 E73.34773
G1 X9.642 Y31.471 E73.54749
G1 X10.328 Y31.187 E73.58054
G1 X10.520 Y31.494 F4800.000
G1 F1800
G1 X11.243 Y31.195 E73.61542
G1 X158.757 Y31.195 E80.18640
G1 X160.156 Y31.774 E80.25384
G1 X163.226 Y34.844 E80.44726
G1 X163.805 Y36.243 E80.51470
G1 X163.805 Y133.757 E84.85844
G1 X163.226 Y135.156 E84.92588
G1 X160.156 Y138.226 E85.11931
G1 X158.757 Y138.805 E85.18674
G1 X11.243 Y138.805 E91.75772
G1 X9.844 Y138.226 E91.82516
G1 X6.774 Y135.156 E92.01859
G1 X6.195 Y133.757 E92.08602
G1 X6.195 Y36.243 E96.42976
G1 X6.774 Y34.844 E96.49720
G1 X9.844 Y31.774 E96.69063
G1 X10.464 Y31.517 E96.72052
G1 X10.656 Y31.824 F4800.000
G1 F1800
G1 X11.314 Y31.552 E96.75223
G1 X158.686 Y31.552 E103.31688
G1 X159.953 Y32.077 E103.37799
G1 X162.923 Y35.047 E103.56509
G1 X163.448 Y36.314 E103.62620
G1 X163.448 Y133.686 E107.96361
G1 X162.923 Y134.953 E108.02471
G1 X159.953 Y137.923 E108.21181
G1 X158.686 Y138.448 E108.27292
G1 X11.314 Y138.448 E114.83757
G1 X10.047 Y137.923 E114.89868
G1 X7.077 Y134.953 E115.08578
G1 X6.552 Y133.686 E115.14689
G1 X6.552 Y36.314 E119.48430
G1 X7.077 Y35.047 E119.54541
G1 X10.047 Y32.077 E119.73250
G1 X10.601 Y31.847 E119.75923
G1 X10.793 Y32.154 F4800.000
G1 F1800
G1 X11.385 Y31.909 E119.78778
G1 X158.615 Y31.909 E126.34610
G1 X159.751 Y32.379 E126.40088
G1 X162.621 Y35.249 E126.58165
G1 X163.091 Y36.385 E126.63643
G1 X163.091 Y133.615 E130.96751
G1 X162.621 Y134.751 E131.02229
G1 X159.751 Y137.621 E131.20306
G1 X158.615 Y138.091 E131.25784
G1 X11.385 Y138.091 E137.81616
G1 X10.249 Y137.621 E137.87094
G1 X7.379 Y134.751 E138.05171
G1 X6.909 Y133.615 E138.10649
G1 X6.909 Y36.385 E142.43757
G1 X7.379 Y35.249 E142.49235
G1 X10.249 Y32.379 E142.67312
G1 X10.738 Y32.177 E142.69668
G1 X10.930 Y32.484 F4800.000
G1 F1800
G1 X11.456 Y32.266 E142.72206
G1 X158.544 Y32.266 E149.27405
G1 X159.549 Y32.682 E149.32250
G1 X162.318 Y35.451 E149.49694
G1 X162.734 Y36.456 E149.54539
G1 X162.734 Y133.544 E153.87015
G1 X162.318 Y134.549 E153.91860
G1 X159.549 Y137.318 E154.09304
G1 X158.544 Y137.734 E154.14149
G1 X11.456 Y137.734 E160.69348
G1 X10.451 Y137.318 E160.74193
G1 X7.682 Y134.549 E160.91637
G1 X7.266 Y133.544 E160.96482
G1 X7.266 Y36.456 E165.28958
G1 X7.682 Y35.451 E165.33803
G1 X10.451 Y32.682 E165.51247
G1 X10.874 Y32.507 E165.53286
G1 X11.066 Y32.814 F4800.000
G1 F1800
G1 X11.527 Y32.623 E165.55508
G1 X158.473 Y32.623 E172.10075
G1 X159.346 Y32.985 E172.14287
G1 X162.015 Y35.654 E172.31098
G1 X162.377 Y36.527 E172.35310
G1 X162.377 Y133.473 E176.67152
G1 X162.015 Y134.346 E176.71364
G1 X159.346 Y137.015 E176.88176
G1 X158.473 Y137.377 E176.92388
G1 X11.527 Y137.377 E183.46954
G1 X10.654 Y137.015 E183.51166
G1 X7.985 Y134.346 E183.67978
G1 X7.623 Y133.473 E183.72190
G1 X7.623 Y36.527 E188.04032
G1 X7.985 Y35.654 E188.08244
G1 X10.654 Y32.985 E188.25055
G1 X11.011 Y32.837 E188.26778
G1 X11.203 Y33.144 F4800.000
G1 F1800
G1 X11.598 Y32.980 E188.28684
G1 X158.402 Y32.980 E194.82618
G1 X159.144 Y33.288 E194.86197
G1 X161.712 Y35.856 E195.02375
G1 X162.020 Y36.598 E195.05954
G1 X162.020 Y133.402 E199.37164
G1 X161.712 Y134.144 E199.40743
G1 X159.144 Y136.712 E199.56921
G1 X158.402 Y137.020 E199.60500
G1 X11.598 Y137.020 E206.14434
G1 X10.856 Y136.712 E206.18013
G1 X8.288 Y134.144 E206.34192
G1 X7.980 Y133.402 E206.37771
G1 X7.980 Y36.598 E210.68980
G1 X8.288 Y35.856 E210.72560
G1 X10.856 Y33.288 E210.88738
G1 X11.148 Y33.167 E210.90144
G1 X11.340 Y33.474 F4800.000
G1 F1800
G1 X11.669 Y33.337 E210.91733
G1 X158.331 Y33.337 E217.45034
G1 X158.942 Y33.591 E217.47980
G1 X161.409 Y36.058 E217.63526
G1 X161.663 Y36.669 E217.66472
G1 X161.663 Y133.331 E221.97049
G1 X161.409 Y133.942 E221.99995
G1 X158.942 Y136.409 E222.15541
G1 X158.331 Y136.663 E222.18487
G1 X11.669 Y136.663 E228.71788
G1 X11.058 Y136.409 E228.74734
G1 X8.591 Y133.942 E228.90279
G1 X8.337 Y133.331 E228.93226
G1 X8.337 Y36.669 E233.23802
G1 X8.591 Y36.058 E233.26749
G1 X11.058 Y33.591 E233.42294
G1 X11.284 Y33.497 E233.43384
G1 X11.476 Y33.804 F4800.000
G1 F1800
G1 X11.740 Y33.695 E233.44657
G1 X158.260 Y33.695 E239.97325
G1 X158.739 Y33.893 E239.99638
G1 X161.107 Y36.261 E240.14551
G1 X161.305 Y36.740 E240.16864
G1 X161.305 Y133.260 E244.46808
G1 X161.107 Y133.739 E244.49121
G1 X158.739 Y136.107 E244.64034
G1 X158.260 Y136.305 E244.66347
G1 X11.740 Y136.305 E251.19015
G1 X11.261 Y136.107 E251.21328
G1 X8.893 Y133.739 E251.36241
G1 X8.695 Y133.260 E251.38554
G1 X8.695 Y36.740 E255.68498
G1 X8.893 Y36.261 E255.70811
G1 X11.261 Y33.893 E255.85724
G1 X11.421 Y33.827 E255.86497
G1 X11.613 Y34.134 F4800.000
G1 F1800
G1 X11.811 Y34.052 E255.87454
G1 X158.189 Y34.052 E262.39489
G1 X158.537 Y34.196 E262.41169
G1 X160.804 Y36.463 E262.55449
G1 X160.948 Y36.811 E262.57129
G1 X160.948 Y133.189 E266.86440
G1 X160.804 Y133.537 E266.88121
G1 X158.537 Y135.804 E267.02400
G1 X158.189 Y135.948 E267.04081
G1 X11.811 Y135.948 E273.56116
G1 X11.463 Y135.804 E273.57796
G1 X9.196 Y133.537 E273.72076
G1 X9.052 Y133.189 E273.73757
G1 X9.052 Y36.811 E278.03067
G1 X9.196 Y36.463 E278.04748
G1 X11.463 Y34.196 E278.19028
G1 X11.558 Y34.157 E278.19485
G1 X11.750 Y34.464 F4800.000
G1 F1800
G1 X11.882 Y34.409 E278.20124
G1 X158.118 Y34.409 E284.71526
G1 X158.335 Y34.499 E284.72574
G1 X160.501 Y36.665 E284.86221
G1 X160.591 Y36.882 E284.87268
G1 X160.591 Y133.118 E289.15946
G1 X160.501 Y133.335 E289.16994
G1 X158.335 Y135.501 E289.30641
G1 X158.118 Y135.591 E289.31688
G1 X11.882 Y135.591 E295.83091
G1 X11.665 Y135.501 E295.84138
G1 X9.499 Y133.335 E295.97785
G1 X9.409 Y133.118 E295.98833
G1 X9.409 Y36.882 E300.27511
G1 X9.499 Y36.665 E300.28558
G1 X11.694 Y34.487 E300.42335
G1 X11.886 Y34.794 F4800.000
G1 F1800
G1 X11.953 Y34.766 E300.42658
G1 X158.047 Y34.766 E306.93427
G1 X158.133 Y34.802 E306.93842
G1 X160.198 Y36.867 E307.06856
G1 X160.234 Y36.953 E307.07271
G1 X160.234 Y133.047 E311.35316
G1 X160.198 Y133.133 E311.35730
G1 X158.133 Y135.198 E311.48744
G1 X158.047 Y135.234 E311.49159
G1 X11.953 Y135.234 E317.99928
G1 X11.867 Y135.198 E318.00343
G1 X9.802 Y133.133 E318.13357
G1 X9.766 Y133.047 E318.13772
G1 X9.766 Y36.953 E322.41817
G1 X9.802 Y36.867 E322.42231
G1 X11.840 Y34.830 E322.55070
G1 F3840
G1 X11.953 Y34.766 E322.47325
G1 F3840
G1 X21.423 Y34.766 E316.85070
G1 E316.55070 F2400.00000
G92 E0
G1 X10.200 Y69.794 F4800.000
G1 E6.00000 F2400.00000
G1 F1800
G1 X10.200 Y37.083 E7.36929
G1 X12.083 Y35.200 E7.48075
G1 X157.917 Y35.200 E13.58542
G1 X159.800 Y37.083 E13.69688
G1 X159.800 Y132.917 E17.70854
G1 X157.917 Y134.800 E17.82000
G1 X12.083 Y134.800 E23.92467
G1 X10.200 Y132.917 E24.03613
G1 X10.200 Y69.854 E26.67599
G1 X10.544 Y69.590 F4800.000
G1 X10.536 Y69.794 F4800.000
G1 F1800
G1 X10.536 Y37.222 E28.03946
G1 X12.222 Y35.536 E28.13928
G1 X157.778 Y35.536 E34.23231
G1 X159.464 Y37.222 E34.33214
G1 X159.464 Y132.778 E38.33215
G1 X157.778 Y134.464 E38.43198
G1 X12.222 Y134.464 E44.52501
G1 X10.536 Y132.778 E44.62483
G1 X10.536 Y69.854 E47.25887
G1 X10.871 Y69.794 F4800.000
G1 F1800
G1 X10.871 Y37.361 E48.61652
G1 X12.361 Y35.871 E48.70470
G1 X157.639 Y35.871 E54.78609
G1 X159.129 Y37.361 E54.87428
G1 X159.129 Y132.639 E58.86266
G1 X157.639 Y134.129 E58.95084
G1 X12.361 Y134.129 E65.03223
G1 X10.871 Y132.639 E65.12042
G1 X10.871 Y69.854 E67.74863
G1 F3840
G1 X10.871 Y60.254 E62.04863
G1 E61.74863 F2400.00000
G92 E0
G1 X16.618 Y125.833 F4800.000
G1 E6.00000 F2400.00000
G1 F1800
G1 X16.993 Y125.800 E6.01574
G1 X17.382 Y125.833 E6.03210
G1 X17.753 Y125.932 E6.04817
G1 X18.100 Y126.094 E6.06423
G1 X18.415 Y126.314 E6.08029
G1 X18.686 Y126.585 E6.09635
G1 X18.906 Y126.900 E6.11240
G1 X19.065 Y127.240 E6.12815
G1 X19.167 Y127.617 E6.14450
G1 X19.201 Y128.000 E6.16057
G1 X19.167 Y128.382 E6.17663
G1 X19.068 Y128.753 E6.19269
G1 X18.906 Y129.100 E6.20875
G1 X18.686 Y129.415 E6.22481
G1 X18.415 Y129.686 E6.24087
G1 X18.100 Y129.906 E6.25693
G1 X17.753 Y130.068 E6.27298
G1 X17.382 Y130.167 E6.28904
G1 X17.000 Y130.201 E6.30510
G1 X16.618 Y130.167 E6.32116
G1 X16.247 Y130.068 E6.33722
G1 X15.900 Y129.906 E6.35328
G1 X15.585 Y129.686 E6.36933
G1 X15.319 Y129.420 E6.38508
G1 X15.094 Y129.101 E6.40143
G1 X14.932 Y128.753 E6.41750
G1 X14.833 Y128.382 E6.43356
G1 X14.799 Y128.000 E6.44962
G1 X14.833 Y127.618 E6.46568
G1 X14.932 Y127.247 E6.48174
G1 X15.094 Y126.900 E6.49780
G1 X15.314 Y126.585 E6.51386
G1 X15.585 Y126.314 E6.52991
G1 X15.900 Y126.094 E6.54597
G1 X16.247 Y125.932 E6.56203
G1 X16.560 Y125.848 E6.57558
G1 X16.746 Y125.479 F4800.000
G1 X16.589 Y125.498 F4800.000
G1 F1800
G1 X16.992 Y125.463 E6.59253
G1 X17.440 Y125.501 E6.61134
G1 X17.868 Y125.615 E6.62989
G1 X18.269 Y125.802 E6.64841
G1 X18.631 Y126.056 E6.66693
G1 X18.944 Y126.369 E6.68544
G1 X19.198 Y126.731 E6.70396
G1 X19.381 Y127.125 E6.72214
G1 X19.499 Y127.558 E6.74095
G1 X19.538 Y128.000 E6.75951
G1 X19.499 Y128.441 E6.77802
G1 X19.385 Y128.868 E6.79654
G1 X19.198 Y129.269 E6.81506
G1 X18.944 Y129.631 E6.83357
G1 X18.631 Y129.944 E6.85209
G1 X18.269 Y130.198 E6.87061
G1 X17.868 Y130.385 E6.88912
G1 X17.441 Y130.499 E6.90764
G1 X17.000 Y130.538 E6.92616
G1 X16.559 Y130.499 E6.94467
G1 X16.132 Y130.385 E6.96319
G1 X15.731 Y130.198 E6.98171
G1 X15.369 Y129.944 E7.00022
G1 X15.062 Y129.637 E7.01840
G1 X14.803 Y129.270 E7.03721
G1 X14.615 Y128.868 E7.05577
G1 X14.501 Y128.441 E7.07428
G1 X14.462 Y128.000 E7.09280
G1 X14.501 Y127.559 E7.11132
G1 X14.615 Y127.132 E7.12983
G1 X14.802 Y126.731 E7.14835
G1 X15.056 Y126.369 E7.16687
G1 X15.369 Y126.056 E7.18538
G1 X15.731 Y125.802 E7.20390
G1 X16.132 Y125.615 E7.22242
G1 X16.530 Y125.509 E7.23965
G1 X16.559 Y125.164 F4800.000
G1 F1800
G1 X16.991 Y125.126 E7.25781
G1 X17.498 Y125.169 E7.27907
G1 X17.983 Y125.299 E7.30011
G1 X18.437 Y125.511 E7.32109
G1 X18.848 Y125.798 E7.34206
G1 X19.202 Y126.152 E7.36304
G1 X19.489 Y126.563 E7.38401
G1 X19.698 Y127.009 E7.40463
G1 X19.831 Y127.499 E7.42590
G1 X19.875 Y128.000 E7.44693
G1 X19.831 Y128.499 E7.46791
G1 X19.701 Y128.983 E7.48888
G1 X19.489 Y129.437 E7.50986
G1 X19.202 Y129.848 E7.53083
G1 X18.848 Y130.202 E7.55181
G1 X18.437 Y130.489 E7.57278
G1 X17.983 Y130.701 E7.59376
G1 X17.499 Y130.831 E7.61473
G1 X17.000 Y130.875 E7.63571
G1 X16.501 Y130.831 E7.65668
G1 X16.017 Y130.701 E7.67766
G1 X15.563 Y130.489 E7.69863
G1 X15.152 Y130.202 E7.71961
G1 X14.804 Y129.854 E7.74022
G1 X14.511 Y129.439 E7.76149
G1 X14.299 Y128.983 E7.78253
G1 X14.169 Y128.499 E7.80350
G1 X14.125 Y128.000 E7.82448
G1 X14.169 Y127.501 E7.84545
G1 X14.299 Y127.017 E7.86643
G1 X14.511 Y126.563 E7.88740
G1 X14.798 Y126.152 E7.90838
G1 X15.152 Y125.798 E7.92935
G1 X15.563 Y125.511 E7.95033
G1 X16.017 Y125.299 E7.97130
G1 X16.500 Y125.169 E7.99222
G1 F3840
G1 X16.991 Y125.126 E7.69912
G1 F3840
G1 X17.498 Y125.169 E7.39743
G1 F3840
G1 X17.983 Y125.299 E7.09901
G1 F3840
G1 X18.437 Y125.511 E6.80150
G1 F3840
G1 X18.848 Y125.798 E6.50399
G1 F3840
G1 X19.202 Y126.152 E6.20648
G1 F3840
G1 X19.489 Y126.563 E5.90897
G1 F3840
G1 X19.698 Y127.009 E5.61662
G1 F3840
G1 X19.831 Y127.499 E5.31492
G1 F3840
G1 X19.875 Y128.000 E5.01650
G1 F3840
G1 X19.831 Y128.499 E4.71899
G1 F3840
G1 X19.701 Y128.983 E4.42148
G1 F3840
G1 X19.489 Y129.437 E4.12397
G1 F3840
G1 X19.202 Y129.848 E3.82646
G1 F3840
G1 X18.848 Y130.202 E3.52896
G1 F3840
G1 X18.437 Y130.489 E3.23144
G1 F3840
G1 X17.983 Y130.701 E2.93393
G1 F3840
G1 X17.499 Y130.831 E2.63642
G1 F3840
G1 X17.000 Y130.875 E2.33891
G1 F3840
G1 X16.922 Y130.868 E2.29222
G1 E1.99222 F2400.00000
G92 E0
G1 X17.000 Y44.201 F4800.000
G1 E6.00000 F2400.00000
G1 F1800
G1 X16.618 Y44.167 E6.01606
G1 X16.247 Y44.068 E6.03212
G1 X15.900 Y43.906 E6.04818
G1 X15.585 Y43.686 E6.06423
G1 X15.314 Y43.415 E6.08029
G1 X15.094 Y43.100 E6.09635
G1 X14.932 Y42.753 E6.11241
G1 X14.833 Y42.382 E6.12847
G1 X14.799 Y42.000 E6.14453
G1 X14.833 Y41.618 E6.16058
G1 X14.932 Y41.247 E6.17664
G1 X15.094 Y40.900 E6.19270
G1 X15.314 Y40.585 E6.20876
G1 X15.585 Y40.314 E6.22482
G1 X15.900 Y40.094 E6.24088
G1 X16.247 Y39.932 E6.25693
G1 X16.618 Y39.833 E6.27299
G1 X16.993 Y39.800 E6.28874
G1 X17.382 Y39.833 E6.30509
G1 X17.753 Y39.932 E6.32116
G1 X18.100 Y40.094 E6.33722
G1 X18.415 Y40.314 E6.35328
G1 X18.686 Y40.585 E6.36934
G1 X18.906 Y40.900 E6.38540
G1 X19.068 Y41.247 E6.40146
G1 X19.167 Y41.618 E6.41751
G1 X19.201 Y42.000 E6.43357
G1 X19.167 Y42.382 E6.44963
G1 X19.068 Y42.753 E6.46569
G1 X18.906 Y43.100 E6.48175
G1 X18.686 Y43.415 E6.49781
G1 X18.415 Y43.686 E6.51386
G1 X18.100 Y43.906 E6.52992
G1 X17.753 Y44.068 E6.54598
G1 X17.382 Y44.167 E6.56204
G1 X17.060 Y44.196 E6.57559
G1 X17.000 Y44.201 F4800.000
G1 X17.029 Y44.535 F4800.000
G1 F1800
G1 X16.559 Y44.499 E6.59531
G1 X16.132 Y44.385 E6.61383
G1 X15.731 Y44.198 E6.63235
G1 X15.369 Y43.944 E6.65086
G1 X15.056 Y43.631 E6.66938
