; generated by Slic3r 1.3.0 on 2021-03-26 at 09:12:04

; external perimeters extrusion width = 0.44mm (4.51mm^3/s)
; perimeters extrusion width = 0.48mm (6.28mm^3/s)
; infill extrusion width = 0.48mm (5.03mm^3/s)
; solid infill extrusion width = 0.48mm (3.77mm^3/s)
; top infill extrusion width = 0.40mm (5.03mm^3/s)
; support material extrusion width = 0.44mm (7.89mm^3/s)

M107
M190 S100 ; set bed temperature and wait for it to be reached
M104 S240 ; set temperature
G28 ; home all axes
G1 Z5 F5000 ; lift nozzle

; Filament gcode

M109 S240 ; set temperature and wait for it to be reached
G21 ; set units to millimeters
G90 ; use absolute coordinates
M82 ; use absolute distances for extrusion
G92 E0
G1 E-6.00000 F2400.00000
G92 E0
G1 Z0.300 F4800.000
G1 X50.311 Y59.183 F4800.000
G1 E6.00000 F2400.00000
G1 F1800
G1 X53.318 Y57.325 E6.14798
G1 X56.665 Y56.188 E6.29596
G1 X60.000 Y55.829 E6.43636
G1 X110.000 Y55.829 E8.52938
G1 X113.513 Y56.227 E8.67736
G1 X116.846 Y57.403 E8.82534
G1 X119.832 Y59.297 E8.97332
G1 X122.317 Y61.811 E9.12130
G1 X124.175 Y64.818 E9.26928
G1 X125.312 Y68.165 E9.41726
G1 X125.671 Y71.500 E9.55766
G1 X125.671 Y98.500 E10.68789
G1 X125.273 Y102.013 E10.83587
G1 X124.097 Y105.346 E10.98385
G1 X122.203 Y108.332 E11.13183
G1 X119.689 Y110.817 E11.27981
G1 X116.682 Y112.675 E11.42779
G1 X113.335 Y113.812 E11.57577
G1 X110.000 Y114.171 E11.71617
G1 X60.000 Y114.171 E13.80919
G1 X56.487 Y113.773 E13.95717
G1 X53.154 Y112.597 E14.10515
G1 X50.168 Y110.703 E14.25313
G1 X47.683 Y108.189 E14.40111
G1 X45.825 Y105.182 E14.54909
G1 X44.688 Y101.835 E14.69707
G1 X44.329 Y98.500 E14.83747
G1 X44.329 Y71.500 E15.96770
G1 X44.727 Y67.987 E16.11568
G1 X45.903 Y64.654 E16.26366
G1 X47.797 Y61.668 E16.41164
G1 X50.268 Y59.225 E16.55711
G1 X50.637 Y59.354 F4800.000
G1 F1800
G1 X53.632 Y57.549 E16.70349
G1 X56.958 Y56.469 E16.84988
G1 X60.000 Y56.164 E16.97783
G1 X110.000 Y56.164 E19.07085
G1 X113.474 Y56.563 E19.21723
G1 X116.768 Y57.738 E19.36361
G1 X119.709 Y59.629 E19.51000
G1 X122.146 Y62.137 E19.65638
G1 X123.951 Y65.132 E19.80276
G1 X125.031 Y68.458 E19.94914
G1 X125.336 Y71.500 E20.07710
G1 X125.336 Y98.500 E21.20733
G1 X124.937 Y101.974 E21.35371
G1 X123.762 Y105.268 E21.50009
G1 X121.871 Y108.209 E21.64648
G1 X119.363 Y110.646 E21.79286
G1 X116.368 Y112.451 E21.93924
G1 X113.042 Y113.531 E22.08562
G1 X110.000 Y113.836 E22.21358
G1 X60.000 Y113.836 E24.30660
G1 X56.526 Y113.437 E24.45298
G1 X53.232 Y112.262 E24.59936
G1 X50.291 Y110.371 E24.74574
G1 X47.854 Y107.863 E24.89213
G1 X46.049 Y104.868 E25.03851
G1 X44.969 Y101.542 E25.18489
G1 X44.664 Y98.500 E25.31285
G1 X44.664 Y71.500 E26.44308
G1 X45.063 Y68.026 E26.58946
G1 X46.238 Y64.732 E26.73584
G1 X48.129 Y61.791 E26.88222
G1 X50.594 Y59.396 E27.02609
G1 F3840
G1 X53.632 Y57.549 E24.91508
G1 F3840
G1 X56.958 Y56.469 E22.83878
G1 F3840
G1 X59.493 Y56.215 E21.32609
G1 E21.02609 F2400.00000
G92 E0
G1 X85.058 Y106.381 F4800.000
G1 E6.00000 F2400.00000
G1 F1800
G1 X84.942 Y106.381 E6.00491
G1 X78.535 Y110.999 E6.34074
G1 X54.823 Y110.999 E7.34899
G1 X47.501 Y103.677 E7.78926
G1 X47.501 Y66.323 E9.37758
G1 X54.823 Y59.001 E9.81786
G1 X115.177 Y59.001 E12.38413
G1 X122.499 Y66.323 E12.82441
G1 X122.499 Y103.677 E14.41273
G1 X115.177 Y110.999 E14.85300
G1 X91.465 Y110.999 E15.86125
G1 X85.106 Y106.416 E16.19452
G1 X84.871 Y105.834 F4800.000
G1 F1800
G1 X84.793 Y106.068 E16.20500
G1 X78.425 Y110.658 E16.53878
G1 X54.964 Y110.658 E17.53634
G1 X47.842 Y103.536 E17.96461
G1 X47.842 Y66.464 E19.54092
G1 X54.964 Y59.342 E19.96919
G1 X115.036 Y59.342 E22.52346
G1 X122.158 Y66.464 E22.95172
G1 X122.158 Y103.536 E24.52803
G1 X115.036 Y110.658 E24.95630
G1 X91.575 Y110.658 E25.95386
G1 X85.207 Y106.068 E26.28764
G1 X85.129 Y105.834 E26.29812
G1 X84.931 Y105.834 E26.30654
G1 X84.871 Y104.756 F4800.000
G1 F1800
G1 X84.504 Y105.856 E26.35583
G1 X78.315 Y110.317 E26.68024
G1 X55.105 Y110.317 E27.66712
G1 X48.183 Y103.395 E28.08338
G1 X48.183 Y66.605 E29.64768
G1 X55.105 Y59.683 E30.06394
G1 X114.895 Y59.683 E32.60620
G1 X121.817 Y66.605 E33.02246
G1 X121.817 Y103.395 E34.58676
G1 X114.895 Y110.317 E35.00302
G1 X91.685 Y110.317 E35.98990
G1 X85.496 Y105.856 E36.31432
G1 X85.129 Y104.756 E36.36360
G1 X84.931 Y104.756 E36.37202
G1 X84.871 Y103.678 F4800.000
G1 F1800
G1 X84.216 Y105.644 E36.46012
G1 X78.205 Y109.976 E36.77517
G1 X55.246 Y109.976 E37.75137
G1 X48.524 Y103.254 E38.15562
G1 X48.524 Y66.746 E39.70791
G1 X55.246 Y60.024 E40.11216
G1 X114.754 Y60.024 E42.64242
G1 X121.476 Y66.746 E43.04667
G1 X121.476 Y103.254 E44.59896
G1 X114.754 Y109.976 E45.00321
G1 X91.795 Y109.976 E45.97940
G1 X85.784 Y105.644 E46.29446
G1 X85.129 Y103.678 E46.38256
G1 X84.931 Y103.678 E46.39098
G1 X84.871 Y102.600 F4800.000
G1 F1800
G1 X83.927 Y105.432 E46.51788
G1 X78.095 Y109.635 E46.82358
G1 X55.388 Y109.635 E47.78909
G1 X48.865 Y103.112 E48.18133
G1 X48.865 Y66.888 E49.72161
G1 X55.388 Y60.365 E50.11386
G1 X114.612 Y60.365 E52.63210
G1 X121.135 Y66.888 E53.02434
G1 X121.135 Y103.112 E54.56463
G1 X114.612 Y109.635 E54.95687
G1 X91.905 Y109.635 E55.92238
G1 X86.073 Y105.432 E56.22808
G1 X85.129 Y102.600 E56.35498
G1 X84.931 Y102.600 E56.36340
G1 X84.871 Y101.522 F4800.000
G1 F1800
G1 X83.639 Y105.219 E56.52911
G1 X77.985 Y109.294 E56.82545
G1 X55.529 Y109.294 E57.78028
G1 X49.206 Y102.971 E58.16051
G1 X49.206 Y67.029 E59.68879
G1 X55.529 Y60.706 E60.06902
G1 X114.471 Y60.706 E62.57526
G1 X120.794 Y67.029 E62.95549
G1 X120.794 Y102.971 E64.48377
G1 X114.471 Y109.294 E64.86400
G1 X92.015 Y109.294 E65.81883
G1 X86.361 Y105.219 E66.11517
G1 X85.129 Y101.522 E66.28088
G1 X84.931 Y101.522 E66.28930
G1 X84.871 Y100.444 F4800.000
G1 F1800
G1 X83.350 Y105.007 E66.49381
G1 X77.875 Y108.954 E66.78079
G1 X55.670 Y108.954 E67.72494
G1 X49.546 Y102.830 E68.09316
G1 X49.546 Y67.170 E69.60943
G1 X55.670 Y61.046 E69.97765
G1 X114.330 Y61.046 E72.47188
G1 X120.454 Y67.170 E72.84011
G1 X120.454 Y102.830 E74.35637
G1 X114.330 Y108.954 E74.72460
G1 X92.125 Y108.954 E75.66874
G1 X86.650 Y105.007 E75.95573
G1 X85.129 Y100.444 E76.16024
G1 X84.931 Y100.444 E76.16866
G1 X84.871 Y99.366 F4800.000
G1 F1800
G1 X83.061 Y104.795 E76.41198
G1 X77.765 Y108.613 E76.68961
G1 X55.811 Y108.613 E77.62307
G1 X49.887 Y102.689 E77.97928
G1 X49.887 Y67.311 E79.48354
G1 X55.811 Y61.387 E79.83976
G1 X114.189 Y61.387 E82.32198
G1 X120.113 Y67.311 E82.67819
G1 X120.113 Y102.689 E84.18245
G1 X114.189 Y108.613 E84.53867
G1 X92.235 Y108.613 E85.47213
G1 X86.939 Y104.795 E85.74975
G1 X85.129 Y99.366 E85.99307
G1 X84.931 Y99.366 E86.00149
G1 X84.871 Y98.288 F4800.000
G1 F1800
G1 X82.773 Y104.583 E86.28362
G1 X77.655 Y108.272 E86.55189
G1 X55.952 Y108.272 E87.47466
G1 X50.228 Y102.548 E87.81887
G1 X50.228 Y67.452 E89.31112
G1 X55.952 Y61.728 E89.65533
G1 X114.048 Y61.728 E92.12554
G1 X119.772 Y67.452 E92.46975
G1 X119.772 Y102.548 E93.96200
G1 X114.048 Y108.272 E94.30621
G1 X92.345 Y108.272 E95.22898
G1 X87.227 Y104.583 E95.49725
G1 X85.129 Y98.288 E95.77938
G1 X84.931 Y98.288 E95.78780
G1 X84.848 Y96.773 F4800.000
G1 F1800
G1 X84.687 Y97.761 E95.83038
G1 X82.484 Y104.371 E96.12662
G1 X77.544 Y107.931 E96.38552
G1 X56.094 Y107.931 E97.29762
G1 X50.569 Y102.406 E97.62982
G1 X50.569 Y67.594 E99.11006
G1 X56.094 Y62.069 E99.44226
G1 X113.906 Y62.069 E101.90046
G1 X119.431 Y67.594 E102.23266
G1 X119.431 Y102.406 E103.71290
G1 X113.906 Y107.931 E104.04510
G1 X92.455 Y107.931 E104.95719
G1 X87.516 Y104.371 E105.21610
G1 X85.313 Y97.761 E105.51233
G1 X85.152 Y96.773 E105.55492
G1 X84.908 Y96.773 E105.56532
G1 F3840
G1 X84.687 Y97.761 E104.96394
G1 F3840
G1 X82.484 Y104.371 E100.82728
G1 F3840
G1 X81.170 Y105.318 E99.86532
G1 E99.56532 F2400.00000
G92 E0
G1 X84.175 Y95.825 F4800.000
G1 X85.000 Y95.000 F4800.000
G1 X85.000 Y83.000 F4800.000
G1 X84.590 Y82.695 F4800.000
G1 E6.00000 F2400.00000
G1 F1800
G1 X84.590 Y96.233 E6.57564
G1 X84.355 Y97.679 E6.63795
G1 X82.196 Y104.158 E6.92834
G1 X77.434 Y107.590 E7.17788
G1 X56.235 Y107.590 E8.07929
G1 X50.910 Y102.265 E8.39948
G1 X50.910 Y67.735 E9.86772
G1 X56.235 Y62.410 E10.18791
G1 X113.765 Y62.410 E12.63410
G1 X119.090 Y67.735 E12.95429
G1 X119.090 Y102.265 E14.42253
G1 X113.765 Y107.590 E14.74272
G1 X92.566 Y107.590 E15.64413
G1 X87.804 Y104.158 E15.89367
G1 X85.645 Y97.679 E16.18406
G1 X85.410 Y96.233 E16.24638
G1 X85.410 Y82.695 E16.82201
G1 X85.305 Y82.590 E16.82832
G1 X84.695 Y82.590 E16.85427
G1 X84.632 Y82.652 E16.85802
G1 X84.249 Y82.354 F4800.000
G1 F1800
G1 X84.249 Y96.205 E17.44699
G1 X84.023 Y97.598 E17.50696
G1 X81.907 Y103.946 E17.79150
G1 X77.324 Y107.249 E18.03169
G1 X56.376 Y107.249 E18.92242
G1 X51.251 Y102.124 E19.23060
G1 X51.251 Y67.876 E20.68682
G1 X56.376 Y62.751 E20.99501
G1 X113.624 Y62.751 E23.42919
G1 X118.749 Y67.876 E23.73737
G1 X118.749 Y102.124 E25.19360
G1 X113.624 Y107.249 E25.50178
G1 X92.676 Y107.249 E26.39251
G1 X88.093 Y103.946 E26.63270
G1 X85.977 Y97.598 E26.91724
G1 X85.751 Y96.205 E26.97721
G1 X85.751 Y82.354 E27.56617
G1 X85.646 Y82.249 E27.57248
G1 X84.354 Y82.249 E27.62742
G1 X84.291 Y82.311 E27.63118
G1 X83.908 Y82.013 F4800.000
G1 F1800
G1 X83.908 Y96.178 E28.23347
G1 X83.691 Y97.516 E28.29111
G1 X81.618 Y103.734 E28.56980
G1 X77.214 Y106.908 E28.80063
G1 X56.517 Y106.908 E29.68067
G1 X51.592 Y101.983 E29.97684
G1 X51.592 Y68.017 E31.42106
G1 X56.517 Y63.092 E31.71723
G1 X113.483 Y63.092 E34.13941
G1 X118.408 Y68.017 E34.43559
G1 X118.408 Y101.983 E35.87980
G1 X113.483 Y106.908 E36.17598
G1 X92.786 Y106.908 E37.05602
G1 X88.382 Y103.734 E37.28685
G1 X86.309 Y97.516 E37.56554
G1 X86.092 Y96.178 E37.62318
G1 X86.092 Y82.013 E38.22547
G1 X85.987 Y81.908 E38.23177
G1 X84.013 Y81.908 E38.31571
G1 X83.951 Y81.971 E38.31946
G1 X83.567 Y81.672 F4800.000
G1 F1800
G1 X83.567 Y96.150 E38.93508
G1 X83.359 Y97.434 E38.99038
G1 X81.330 Y103.522 E39.26323
G1 X77.104 Y106.567 E39.48470
G1 X56.658 Y106.567 E40.35405
G1 X51.933 Y101.842 E40.63822
G1 X51.933 Y68.158 E42.07043
G1 X56.658 Y63.433 E42.35459
G1 X113.342 Y63.433 E44.76476
G1 X118.067 Y68.158 E45.04893
G1 X118.067 Y101.842 E46.48114
G1 X113.342 Y106.567 E46.76530
G1 X92.896 Y106.567 E47.63466
G1 X88.670 Y103.522 E47.85613
G1 X86.641 Y97.434 E48.12897
G1 X86.433 Y96.150 E48.18428
G1 X86.433 Y81.672 E48.79989
G1 X86.328 Y81.567 E48.80620
G1 X83.672 Y81.567 E48.91913
G1 X83.610 Y81.630 E48.92288
G1 X83.226 Y81.331 F4800.000
G1 F1800
G1 X83.226 Y96.123 E49.55182
G1 X83.027 Y97.352 E49.60479
G1 X81.041 Y103.310 E49.87178
G1 X76.994 Y106.226 E50.08389
G1 X56.800 Y106.226 E50.94257
G1 X52.274 Y101.700 E51.21473
G1 X52.274 Y68.300 E52.63493
G1 X56.800 Y63.774 E52.90708
G1 X113.200 Y63.774 E55.30524
G1 X117.726 Y68.300 E55.57740
G1 X117.726 Y101.700 E56.99760
G1 X113.200 Y106.226 E57.26976
G1 X93.006 Y106.226 E58.12843
G1 X88.959 Y103.309 E58.34054
G1 X86.973 Y97.352 E58.60754
G1 X86.774 Y96.123 E58.66050
G1 X86.774 Y81.331 E59.28945
G1 X86.669 Y81.226 E59.29575
G1 X83.331 Y81.226 E59.43767
G1 X83.269 Y81.289 E59.44142
G1 X82.885 Y80.990 F4800.000
G1 F1800
G1 X82.885 Y96.095 E60.08369
G1 X82.695 Y97.271 E60.13432
G1 X80.752 Y103.097 E60.39547
G1 X76.884 Y105.885 E60.59822
G1 X56.941 Y105.885 E61.44621
G1 X52.615 Y101.559 E61.70636
G1 X52.615 Y68.441 E63.11455
G1 X56.941 Y64.115 E63.37470
G1 X113.059 Y64.115 E65.76086
G1 X117.385 Y68.441 E66.02100
G1 X117.385 Y101.559 E67.42919
G1 X113.059 Y105.885 E67.68934
G1 X93.116 Y105.885 E68.53734
G1 X89.248 Y103.097 E68.74009
G1 X87.305 Y97.271 E69.00124
G1 X87.115 Y96.095 E69.05186
G1 X87.115 Y80.990 E69.69413
G1 X87.010 Y80.885 E69.70044
G1 X82.990 Y80.885 E69.87135
G1 X82.928 Y80.948 E69.87510
G1 X82.544 Y80.649 F4800.000
G1 F1800
G1 X82.544 Y96.068 E70.53070
G1 X82.363 Y97.189 E70.57899
G1 X80.464 Y102.885 E70.83429
G1 X76.774 Y105.544 E71.02768
G1 X57.082 Y105.544 E71.86499
G1 X52.956 Y101.418 E72.11313
G1 X52.956 Y68.582 E73.50931
G1 X57.082 Y64.456 E73.75745
G1 X112.918 Y64.456 E76.13160
G1 X117.044 Y68.582 E76.37974
G1 X117.044 Y101.418 E77.77592
G1 X112.918 Y105.544 E78.02406
G1 X93.226 Y105.544 E78.86137
G1 X89.536 Y102.885 E79.05476
G1 X87.637 Y97.189 E79.31006
G1 X87.456 Y96.068 E79.35835
G1 X87.456 Y80.649 E80.01395
G1 X87.351 Y80.544 E80.02025
G1 X82.649 Y80.544 E80.22016
G1 X82.587 Y80.607 E80.22391
G1 X82.204 Y80.308 F4800.000
G1 F1800
G1 X82.204 Y96.040 E80.89283
G1 X82.030 Y97.107 E80.93879
G1 X80.175 Y102.673 E81.18824
G1 X76.664 Y105.204 E81.37227
G1 X57.223 Y105.204 E82.19890
G1 X53.296 Y101.277 E82.43503
G1 X53.296 Y68.723 E83.81920
G1 X57.223 Y64.796 E84.05534
G1 X112.777 Y64.796 E86.41747
G1 X116.704 Y68.723 E86.65360
G1 X116.704 Y101.277 E88.03778
G1 X112.777 Y105.204 E88.27391
G1 X93.336 Y105.204 E89.10053
G1 X89.825 Y102.673 E89.28457
G1 X87.970 Y97.107 E89.53402
G1 X87.796 Y96.040 E89.57997
G1 X87.796 Y80.308 E90.24890
G1 X87.692 Y80.204 E90.25520
G1 X82.308 Y80.204 E90.48409
G1 X82.246 Y80.266 E90.48785
G1 X81.863 Y79.968 F4800.000
G1 F1800
G1 X81.863 Y96.013 E91.17010
G1 X81.698 Y97.025 E91.21371
G1 X79.887 Y102.461 E91.45732
G1 X76.554 Y104.863 E91.63199
G1 X57.364 Y104.863 E92.44793
G1 X53.637 Y101.136 E92.67206
G1 X53.637 Y68.864 E94.04422
G1 X57.364 Y65.137 E94.26835
G1 X112.636 Y65.137 E96.61847
G1 X116.363 Y68.864 E96.84260
G1 X116.363 Y101.136 E98.21476
G1 X112.636 Y104.863 E98.43889
G1 X93.446 Y104.863 E99.25483
G1 X90.113 Y102.461 E99.42950
G1 X88.302 Y97.025 E99.67311
G1 X88.137 Y96.013 E99.71672
G1 X88.137 Y79.968 E100.39897
G1 X88.032 Y79.863 E100.40528
G1 X81.968 Y79.863 E100.66316
G1 X81.905 Y79.925 E100.66691
G1 X81.522 Y79.627 F4800.000
G1 F1800
G1 X81.522 Y95.985 E101.36249
G1 X81.366 Y96.944 E101.40377
G1 X79.598 Y102.248 E101.64153
G1 X76.444 Y104.522 E101.80685
G1 X57.506 Y104.522 E102.61210
G1 X53.978 Y100.994 E102.82422
G1 X53.978 Y69.006 E104.18437
G1 X57.506 Y65.478 E104.39649
G1 X112.494 Y65.478 E106.73461
G1 X116.022 Y69.006 E106.94672
G1 X116.022 Y100.994 E108.30688
G1 X112.494 Y104.522 E108.51899
G1 X93.556 Y104.522 E109.32425
G1 X90.402 Y102.248 E109.48957
G1 X88.634 Y96.944 E109.72732
G1 X88.478 Y95.985 E109.76860
G1 X88.478 Y79.627 E110.46418
G1 X88.373 Y79.522 E110.47049
G1 X81.627 Y79.522 E110.75736
G1 X81.564 Y79.584 E110.76111
G1 X81.181 Y79.286 F4800.000
G1 F1800
G1 X81.181 Y95.958 E111.47002
G1 X81.034 Y96.862 E111.50896
G1 X79.309 Y102.036 E111.74087
G1 X76.334 Y104.181 E111.89683
G1 X57.647 Y104.181 E112.69140
G1 X54.319 Y100.853 E112.89151
G1 X54.319 Y69.147 E114.23966
G1 X57.647 Y65.819 E114.43976
G1 X112.353 Y65.819 E116.76587
G1 X115.681 Y69.147 E116.96598
G1 X115.681 Y100.853 E118.31413
G1 X112.353 Y104.181 E118.51423
G1 X93.666 Y104.181 E119.30881
G1 X90.691 Y102.036 E119.46476
G1 X88.966 Y96.862 E119.69667
G1 X88.819 Y95.958 E119.73562
G1 X88.819 Y79.286 E120.44452
G1 X88.714 Y79.181 E120.45083
G1 X81.286 Y79.181 E120.76669
G1 X81.223 Y79.243 E120.77044
G1 X80.840 Y78.945 F4800.000
G1 F1800
G1 X80.840 Y95.930 E121.49267
G1 X80.702 Y96.780 E121.52928
G1 X79.021 Y101.824 E121.75534
G1 X76.224 Y103.840 E121.90194
G1 X57.788 Y103.840 E122.68583
G1 X54.660 Y100.712 E122.87393
G1 X54.660 Y69.288 E124.21007
G1 X57.788 Y66.160 E124.39817
G1 X112.212 Y66.160 E126.71227
G1 X115.340 Y69.288 E126.90037
G1 X115.340 Y100.712 E128.23651
G1 X112.212 Y103.840 E128.42460
G1 X93.776 Y103.840 E129.20849
G1 X90.979 Y101.824 E129.35509
G1 X89.298 Y96.780 E129.58115
G1 X89.160 Y95.930 E129.61776
G1 X89.160 Y78.945 E130.33999
G1 X89.055 Y78.840 E130.34629
G1 X80.945 Y78.840 E130.69115
G1 X80.882 Y78.902 E130.69490
G1 X80.499 Y78.604 F4800.000
G1 F1800
