; generated by Slic3r 1.3.0 on 2021-04-11 at 14:56:24

; external perimeters extrusion width = 0.44mm (6.76mm^3/s)
; perimeters extrusion width = 0.48mm (7.54mm^3/s)
; infill extrusion width = 0.48mm (6.28mm^3/s)
; solid infill extrusion width = 0.48mm (3.77mm^3/s)
; top infill extrusion width = 0.40mm (7.05mm^3/s)
; support material extrusion width = 0.44mm (7.89mm^3/s)

M107
M190 S100 ; set bed temperature and wait for it to be reached
M104 S240 ; set temperature
G28 ; home all axes
G1 Z5 F5000 ; lift nozzle

; Filament gcode

M109 S240 ; set temperature and wait for it to be reached
G21 ; set units to millimeters
G90 ; use absolute coordinates
M82 ; use absolute distances for extrusion
G92 E0
G1 E-6.00000 F2400.00000
G92 E0
G1 Z0.300 F6000.000
G1 X56.914 Y69.164 F6000.000
G1 E6.00000 F2400.00000
G1 F1800
G1 X57.458 Y68.732 E6.02907
G1 X58.104 Y68.255 E6.06266
G1 X58.676 Y67.863 E6.09171
G1 X59.695 Y67.231 E6.14189
G1 X60.373 Y66.851 E6.17444
G1 X60.991 Y66.534 E6.20351
G1 X61.619 Y66.237 E6.23259
G1 X62.353 Y65.921 E6.26604
G1 X63.000 Y65.669 E6.29509
G1 X64.135 Y65.285 E6.34527
G1 X64.885 Y65.069 E6.37795
G1 X65.559 Y64.901 E6.40703
G1 X66.238 Y64.754 E6.43610
G1 X67.022 Y64.615 E6.46942
G1 X68.211 Y64.460 E6.51960
G1 X68.991 Y64.394 E6.55239
G1 X103.501 Y63.317 E7.99768
G1 X104.269 Y63.308 E8.02983
G1 X105.534 Y63.353 E8.08283
G1 X106.347 Y63.423 E8.11699
G1 X107.661 Y63.601 E8.17251
G1 X108.897 Y63.849 E8.22528
G1 X109.754 Y64.064 E8.26226
G1 X111.021 Y64.455 E8.31777
G1 X111.732 Y64.714 E8.34942
G1 X112.899 Y65.202 E8.40240
G1 X113.581 Y65.526 E8.43398
G1 X114.251 Y65.876 E8.46564
G1 X114.856 Y66.217 E8.49469
G1 X115.872 Y66.853 E8.54487
G1 X116.547 Y67.320 E8.57924
G1 X117.103 Y67.736 E8.60830
G1 X117.645 Y68.170 E8.63735
G1 X118.219 Y68.663 E8.66902
G1 X119.237 Y69.632 E8.72788
G1 X119.537 Y69.970 E8.74680
G1 X119.848 Y70.390 E8.76867
G1 X120.123 Y70.842 E8.79081
G1 X120.354 Y71.318 E8.81295
G1 X120.529 Y71.779 E8.83358
G1 X120.663 Y72.253 E8.85423
G1 X120.777 Y72.903 E8.88186
G1 X120.816 Y73.558 E8.90933
G1 X120.816 Y95.399 E9.82357
G1 X120.790 Y95.939 E9.84621
G1 X120.714 Y96.471 E9.86871
G1 X120.589 Y96.985 E9.89087
G1 X120.354 Y97.639 E9.91997
G1 X120.122 Y98.116 E9.94214
G1 X119.892 Y98.500 E9.96090
G1 X119.705 Y98.769 E9.97461
G1 X119.240 Y99.322 E10.00482
G1 X118.640 Y99.909 E10.03997
G1 X117.645 Y100.788 E10.09555
G1 X116.597 Y101.600 E10.15104
G1 X115.884 Y102.096 E10.18742
G1 X114.802 Y102.772 E10.24080
G1 X114.084 Y103.171 E10.27518
G1 X112.954 Y103.730 E10.32796
G1 X112.201 Y104.056 E10.36234
G1 X111.021 Y104.502 E10.41512
G1 X110.239 Y104.753 E10.44950
G1 X109.022 Y105.081 E10.50228
G1 X107.722 Y105.345 E10.55778
G1 X106.915 Y105.468 E10.59195
G1 X105.656 Y105.595 E10.64495
G1 X104.874 Y105.637 E10.67771
G1 X71.084 Y106.680 E12.09285
G1 X70.289 Y106.692 E12.12613
G1 X68.991 Y106.648 E12.18049
G1 X67.709 Y106.526 E12.23441
G1 X66.854 Y106.400 E12.27061
G1 X65.659 Y106.165 E12.32157
G1 X64.819 Y105.955 E12.35781
G1 X63.654 Y105.604 E12.40873
G1 X62.838 Y105.312 E12.44503
G1 X61.715 Y104.849 E12.49589
G1 X60.467 Y104.241 E12.55399
G1 X59.261 Y103.553 E12.61210
G1 X58.104 Y102.787 E12.67020
G1 X57.394 Y102.261 E12.70718
G1 X56.385 Y101.429 E12.76192
G1 X55.372 Y100.479 E12.82006
G1 X54.424 Y99.464 E12.87820
G1 X53.544 Y98.390 E12.93634
G1 X52.736 Y97.260 E12.99448
G1 X52.004 Y96.079 E13.05262
G1 X51.352 Y94.853 E13.11076
G1 X50.781 Y93.587 E13.16891
G1 X50.294 Y92.286 E13.22705
G1 X49.893 Y90.956 E13.28518
G1 X49.581 Y89.603 E13.34333
G1 X49.374 Y88.350 E13.39650
G1 X49.234 Y86.968 E13.45462
G1 X49.184 Y85.582 E13.51270
G1 X49.226 Y84.195 E13.57079
G1 X49.350 Y82.879 E13.62609
G1 X49.478 Y82.007 E13.66300
G1 X49.753 Y80.646 E13.72110
G1 X50.117 Y79.307 E13.77921
G1 X50.567 Y77.994 E13.83731
G1 X51.056 Y76.818 E13.89061
G1 X51.668 Y75.571 E13.94875
G1 X52.361 Y74.367 E14.00689
G1 X53.131 Y73.212 E14.06503
G1 X53.975 Y72.109 E14.12318
G1 X54.890 Y71.063 E14.18132
G1 X55.871 Y70.080 E14.23946
G1 X56.868 Y69.203 E14.29508
G1 X57.130 Y69.421 F6000.000
G1 F1800
G1 X57.666 Y68.996 E14.32370
G1 X58.294 Y68.532 E14.35640
G1 X58.858 Y68.146 E14.38500
G1 X59.867 Y67.519 E14.43472
G1 X60.535 Y67.145 E14.46675
G1 X61.143 Y66.833 E14.49536
G1 X61.761 Y66.541 E14.52398
G1 X62.476 Y66.233 E14.55656
G1 X63.112 Y65.985 E14.58516
G1 X64.237 Y65.605 E14.63488
G1 X64.975 Y65.392 E14.66703
G1 X65.639 Y65.227 E14.69564
G1 X66.307 Y65.083 E14.72425
G1 X67.070 Y64.947 E14.75672
G1 X68.248 Y64.793 E14.80644
G1 X69.016 Y64.729 E14.83869
G1 X103.511 Y63.653 E16.28338
G1 X104.263 Y63.644 E16.31483
G1 X105.516 Y63.688 E16.36733
G1 X106.308 Y63.756 E16.40061
G1 X107.605 Y63.932 E16.45539
G1 X108.826 Y64.176 E16.50751
G1 X109.661 Y64.387 E16.54358
G1 X110.912 Y64.772 E16.59835
G1 X111.608 Y65.026 E16.62935
G1 X112.764 Y65.509 E16.68182
G1 X114.037 Y66.141 E16.74130
G1 X115.266 Y66.859 E16.80090
G1 X115.837 Y67.233 E16.82950
G1 X116.812 Y67.936 E16.87978
G1 X117.430 Y68.428 E16.91284
G1 X117.962 Y68.884 E16.94218
G1 X118.453 Y69.333 E16.97002
G1 X118.993 Y69.862 E17.00169
G1 X119.276 Y70.182 E17.01955
G1 X119.568 Y70.575 E17.04006
G1 X119.826 Y70.999 E17.06085
G1 X120.043 Y71.446 E17.08163
G1 X120.208 Y71.879 E17.10105
G1 X120.335 Y72.326 E17.12047
G1 X120.444 Y72.947 E17.14688
G1 X120.481 Y73.558 E17.17252
G1 X120.481 Y95.399 E18.08677
G1 X120.456 Y95.905 E18.10799
G1 X120.384 Y96.405 E18.12914
G1 X120.258 Y96.920 E18.15131
G1 X120.043 Y97.512 E18.17767
G1 X119.845 Y97.922 E18.19674
G1 X119.697 Y98.180 E18.20922
G1 X119.337 Y98.698 E18.23558
G1 X118.993 Y99.095 E18.25760
G1 X118.375 Y99.697 E18.29369
G1 X117.430 Y100.530 E18.34644
G1 X116.397 Y101.331 E18.40118
G1 X115.700 Y101.816 E18.43669
G1 X114.632 Y102.482 E18.48939
G1 X113.930 Y102.873 E18.52302
G1 X112.814 Y103.425 E18.57516
G1 X112.076 Y103.745 E18.60880
G1 X110.911 Y104.185 E18.66094
G1 X110.146 Y104.430 E18.69458
G1 X108.943 Y104.754 E18.74671
G1 X107.661 Y105.015 E18.80148
G1 X106.820 Y105.141 E18.83711
G1 X105.628 Y105.261 E18.88726
G1 X104.864 Y105.302 E18.91927
G1 X70.294 Y106.356 E20.36706
G1 X69.016 Y106.314 E20.42058
G1 X67.747 Y106.193 E20.47396
G1 X66.911 Y106.070 E20.50931
G1 X65.729 Y105.837 E20.55973
G1 X64.909 Y105.632 E20.59513
G1 X63.757 Y105.284 E20.64551
G1 X62.959 Y104.999 E20.68096
G1 X61.848 Y104.541 E20.73129
G1 X60.620 Y103.942 E20.78848
G1 X59.433 Y103.265 E20.84566
G1 X58.294 Y102.511 E20.90284
G1 X57.603 Y101.997 E20.93890
G1 X56.609 Y101.179 E20.99276
G1 X55.612 Y100.244 E21.04998
G1 X54.679 Y99.246 E21.10720
G1 X53.813 Y98.189 E21.16441
G1 X53.018 Y97.077 E21.22163
G1 X52.297 Y95.915 E21.27885
G1 X51.655 Y94.709 E21.33606
G1 X51.092 Y93.463 E21.39328
G1 X50.613 Y92.183 E21.45050
G1 X50.219 Y90.874 E21.50771
G1 X49.911 Y89.542 E21.56493
G1 X49.706 Y88.300 E21.61763
G1 X49.568 Y86.941 E21.67483
G1 X49.520 Y85.576 E21.73200
G1 X49.561 Y84.211 E21.78916
G1 X49.684 Y82.918 E21.84353
G1 X49.808 Y82.067 E21.87953
G1 X50.079 Y80.728 E21.93671
G1 X50.436 Y79.410 E21.99390
G1 X50.879 Y78.118 E22.05108
G1 X51.363 Y76.952 E22.10390
G1 X51.966 Y75.725 E22.16111
G1 X52.648 Y74.541 E22.21833
G1 X53.406 Y73.403 E22.27555
G1 X54.237 Y72.318 E22.33277
G1 X55.137 Y71.290 E22.38998
G1 X56.103 Y70.323 E22.44720
G1 X57.084 Y69.460 E22.50190
G1 F4800
G1 X57.207 Y69.359 E22.42654
G1 F4800
G1 X57.603 Y69.045 E22.18680
G1 F4800
G1 X57.611 Y69.039 E22.18155
G1 F4800
G1 X57.666 Y68.996 E22.14874
G1 F4800
G1 X57.744 Y68.936 E22.10205
G1 F4800
G1 X58.150 Y68.636 E21.86231
G1 F4800
G1 X58.159 Y68.629 E21.85686
G1 F4800
G1 X58.214 Y68.588 E21.82405
G1 F4800
G1 X58.294 Y68.532 E21.77757
G1 F4800
G1 X58.710 Y68.245 E21.53783
G1 F4800
G1 X58.719 Y68.238 E21.53220
G1 F4800
G1 X58.776 Y68.199 E21.49939
G1 F4800
G1 X58.858 Y68.146 E21.45309
G1 F4800
G1 X59.282 Y67.873 E21.21335
G1 F4800
G1 X59.293 Y67.866 E21.20751
G1 F4800
G1 X59.351 Y67.829 E21.17470
G1 F4800
G1 X59.433 Y67.778 E21.12860
G1 F4800
G1 X59.867 Y67.519 E20.88886
G1 F4800
G1 X59.878 Y67.513 E20.88282
G1 F4800
G1 X59.937 Y67.477 E20.85001
G1 F4800
G1 X60.021 Y67.429 E20.80413
G1 F4800
G1 X60.463 Y67.185 E20.56439
G1 F4800
G1 X60.474 Y67.179 E20.55815
G1 F4800
G1 X60.535 Y67.145 E20.52534
G1 F4800
G1 X60.620 Y67.100 E20.47964
G1 F4800
G1 X61.069 Y66.871 E20.23990
G1 F4800
G1 X61.081 Y66.864 E20.23348
G1 F4800
G1 X61.143 Y66.833 E20.20067
G1 F4800
G1 X61.229 Y66.791 E20.15515
G1 F4800
G1 X61.685 Y66.576 E19.91541
G1 F4800
G1 X61.698 Y66.570 E19.90881
G1 F4800
G1 X61.761 Y66.541 E19.87599
G1 F4800
G1 X61.848 Y66.502 E19.83068
G1 F4800
G1 X62.311 Y66.302 E19.59094
G1 F4800
G1 X62.324 Y66.297 E19.58412
G1 F4800
G1 X62.388 Y66.269 E19.55131
G1 F4800
G1 X62.476 Y66.233 E19.50619
G1 F4800
G1 X62.945 Y66.049 E19.26644
G1 F4800
G1 X62.959 Y66.043 E19.25947
G1 F4800
G1 X63.023 Y66.018 E19.22665
G1 F4800
G1 X63.112 Y65.985 E19.18171
G1 F4800
G1 X63.588 Y65.816 E18.94197
G1 F4800
G1 X63.602 Y65.811 E18.93478
G1 F4800
G1 X63.667 Y65.788 E18.90196
G1 F4800
G1 X63.757 Y65.759 E18.85722
G1 F4800
G1 X64.237 Y65.605 E18.61748
G1 F4800
G1 X64.252 Y65.600 E18.61013
G1 F4800
G1 X64.318 Y65.580 E18.57732
G1 F4800
G1 X64.408 Y65.553 E18.53274
G1 F4800
G1 X64.894 Y65.415 E18.29300
G1 F4800
G1 X64.909 Y65.411 E18.28541
G1 F4800
G1 X64.975 Y65.392 E18.25260
G1 F4800
G1 X65.066 Y65.369 E18.20826
G1 F4800
G1 X65.556 Y65.247 E17.96852
G1 F4800
G1 X65.571 Y65.243 E17.96075
G1 F4800
G1 X65.639 Y65.227 E17.92794
G1 F4800
G1 X65.729 Y65.206 E17.88378
G1 F4800
G1 X66.223 Y65.101 E17.64403
G1 F4800
G1 X66.239 Y65.097 E17.63611
G1 F4800
G1 X66.307 Y65.083 E17.60330
G1 F4800
G1 X66.398 Y65.065 E17.55929
G1 F4800
G1 X66.894 Y64.976 E17.31955
G1 F4800
G1 X66.911 Y64.973 E17.31142
G1 F4800
G1 X66.979 Y64.961 E17.27860
G1 F4800
G1 X67.070 Y64.947 E17.23480
G1 F4800
G1 X67.570 Y64.874 E16.99506
G1 F4800
G1 X67.587 Y64.871 E16.98673
G1 F4800
G1 X67.656 Y64.862 E16.95392
G1 F4800
G1 X67.747 Y64.850 E16.91032
G1 F4800
G1 X67.973 Y64.824 E16.80190
G1 E16.50190 F2400.00000
G92 E0
G1 X83.456 Y85.080 F6000.000
G1 E6.00000 F2400.00000
G1 F1800
G1 X86.553 Y84.985 E6.12971
G1 X86.567 Y85.316 E6.14360
G1 X83.456 Y85.412 E6.27389
G1 X83.456 Y85.080 E6.28778
G1 F4800
G1 X83.456 Y85.412 E6.13014
G1 F4800
G1 X86.567 Y85.316 E4.65165
G1 F4800
G1 X86.553 Y84.985 E4.49408
G1 F4800
G1 X83.456 Y85.080 E3.02224
G1 E0.28778 F2400.00000
G92 E0
G1 X106.553 Y99.842 F6000.000
G1 E6.00000 F2400.00000
G1 F1800
G1 X106.126 Y100.208 E6.02354
G1 X105.853 Y100.387 E6.03721
G1 X105.376 Y100.620 E6.05945
G1 X104.789 Y100.791 E6.08502
G1 X104.208 Y100.852 E6.10948
G1 X103.647 Y100.815 E6.13301
G1 X103.327 Y100.751 E6.14667
G1 X102.823 Y100.583 E6.16892
G1 X102.284 Y100.294 E6.19450
G1 X101.827 Y99.931 E6.21895
G1 X101.453 Y99.511 E6.24249
G1 X101.270 Y99.241 E6.25614
G1 X101.028 Y98.770 E6.27833
G1 X100.849 Y98.203 E6.30320
G1 X100.774 Y97.609 E6.32827
G1 X100.796 Y97.079 E6.35048
G1 X100.850 Y96.757 E6.36412
G1 X101.015 Y96.220 E6.38766
G1 X101.277 Y95.701 E6.41199
G1 X101.626 Y95.233 E6.43643
G1 X102.073 Y94.816 E6.46202
G1 X102.518 Y94.525 E6.48427
G1 X102.811 Y94.381 E6.49792
G1 X103.346 Y94.200 E6.52159
G1 X103.950 Y94.110 E6.54716
G1 X104.482 Y94.123 E6.56941
G1 X104.805 Y94.171 E6.58307
G1 X105.348 Y94.326 E6.60674
G1 X105.896 Y94.595 E6.63231
G1 X106.327 Y94.906 E6.65454
G1 X106.565 Y95.130 E6.66822
G1 X106.925 Y95.566 E6.69189
G1 X107.223 Y96.099 E6.71745
G1 X107.401 Y96.599 E6.73968
G1 X107.471 Y96.918 E6.75336
G1 X107.520 Y97.479 E6.77690
G1 X107.471 Y98.039 E6.80044
G1 X107.401 Y98.358 E6.81412
G1 X107.223 Y98.858 E6.83635
G1 X106.925 Y99.391 E6.86191
G1 X106.592 Y99.796 E6.88386
G1 X106.313 Y99.606 F6000.000
G1 F1800
G1 X105.925 Y99.939 E6.90528
G1 X105.687 Y100.095 E6.91716
G1 X105.254 Y100.306 E6.93732
G1 X104.724 Y100.461 E6.96043
G1 X104.202 Y100.516 E6.98241
G1 X103.692 Y100.481 E7.00383
G1 X103.414 Y100.426 E7.01570
G1 X102.956 Y100.273 E7.03587
G1 X102.470 Y100.012 E7.05899
G1 X102.059 Y99.686 E7.08096
G1 X101.718 Y99.304 E7.10238
G1 X101.559 Y99.070 E7.11424
G1 X101.339 Y98.642 E7.13438
G1 X101.178 Y98.131 E7.15680
G1 X101.110 Y97.595 E7.17941
G1 X101.131 Y97.114 E7.19956
G1 X101.178 Y96.835 E7.21142
G1 X101.327 Y96.345 E7.23284
G1 X101.563 Y95.878 E7.25474
G1 X101.877 Y95.458 E7.27671
G1 X102.281 Y95.081 E7.29983
G1 X102.684 Y94.817 E7.32000
G1 X102.939 Y94.692 E7.33187
G1 X103.425 Y94.528 E7.35336
G1 X103.971 Y94.447 E7.37648
G1 X104.453 Y94.458 E7.39664
G1 X104.734 Y94.500 E7.40852
G1 X105.227 Y94.640 E7.43002
G1 X105.723 Y94.884 E7.45312
G1 X106.113 Y95.166 E7.47329
G1 X106.320 Y95.360 E7.48517
G1 X106.647 Y95.756 E7.50667
G1 X106.917 Y96.238 E7.52977
G1 X107.078 Y96.692 E7.54993
G1 X107.139 Y96.969 E7.56182
G1 X107.183 Y97.479 E7.58323
G1 X107.139 Y97.988 E7.60465
G1 X107.078 Y98.266 E7.61653
G1 X106.917 Y98.719 E7.63669
G1 X106.647 Y99.201 E7.65979
G1 X106.351 Y99.560 E7.67927
G1 X106.073 Y99.370 F6000.000
G1 F1800
G1 X105.723 Y99.670 E7.69856
G1 X105.521 Y99.802 E7.70865
G1 X105.133 Y99.992 E7.72674
G1 X104.659 Y100.130 E7.74739
G1 X104.196 Y100.179 E7.76689
G1 X103.736 Y100.148 E7.78618
G1 X103.500 Y100.101 E7.79627
G1 X103.090 Y99.964 E7.81436
G1 X102.655 Y99.731 E7.83502
G1 X102.290 Y99.441 E7.85452
G1 X101.984 Y99.097 E7.87380
G1 X101.848 Y98.898 E7.88389
G1 X101.651 Y98.514 E7.90197
G1 X101.507 Y98.059 E7.92194
G1 X101.447 Y97.581 E7.94210
G1 X101.465 Y97.149 E7.96019
G1 X101.505 Y96.912 E7.97027
G1 X101.640 Y96.471 E7.98956
G1 X101.850 Y96.056 E8.00903
G1 X102.128 Y95.683 E8.02852
G1 X102.489 Y95.346 E8.04918
G1 X102.851 Y95.109 E8.06727
G1 X103.067 Y95.003 E8.07736
G1 X103.504 Y94.855 E8.09668
G1 X103.992 Y94.783 E8.11733
G1 X104.424 Y94.793 E8.13542
G1 X104.663 Y94.828 E8.14551
G1 X105.106 Y94.955 E8.16483
G1 X105.549 Y95.172 E8.18549
G1 X105.899 Y95.426 E8.20357
G1 X106.075 Y95.590 E8.21366
G1 X106.369 Y95.946 E8.23299
G1 X106.610 Y96.377 E8.25364
G1 X106.755 Y96.784 E8.27172
G1 X106.806 Y97.020 E8.28181
G1 X106.846 Y97.479 E8.30110
G1 X106.806 Y97.938 E8.32039
G1 X106.755 Y98.173 E8.33049
G1 X106.610 Y98.580 E8.34857
G1 X106.369 Y99.011 E8.36922
G1 X106.111 Y99.324 E8.38622
G1 X106.073 Y99.370 F6000.000
G1 F4800
G1 X106.073 Y99.370 E8.35771
G1 F4800
G1 X105.723 Y99.670 E8.13882
G1 F4800
G1 X105.521 Y99.802 E8.02435
G1 F4800
G1 X105.133 Y99.992 E7.81909
G1 F4800
G1 X104.659 Y100.130 E7.58471
G1 F4800
G1 X104.196 Y100.179 E7.36343
G1 F4800
G1 X103.736 Y100.148 E7.14454
G1 F4800
G1 X103.500 Y100.101 E7.03010
G1 F4800
G1 X103.090 Y99.964 E6.82480
G1 F4800
G1 X102.655 Y99.731 E6.59039
G1 F4800
G1 X102.290 Y99.441 E6.36914
G1 F4800
G1 X101.984 Y99.097 E6.15026
G1 F4800
G1 X101.848 Y98.898 E6.03586
G1 F4800
G1 X101.651 Y98.514 E5.83071
G1 F4800
G1 X101.507 Y98.059 E5.60405
G1 F4800
G1 X101.447 Y97.581 E5.37527
G1 F4800
G1 X101.465 Y97.149 E5.17007
G1 F4800
G1 X101.505 Y96.912 E5.05568
G1 F4800
G1 X101.640 Y96.471 E4.83681
G1 F4800
G1 X101.850 Y96.056 E4.61587
G1 F4800
G1 X102.128 Y95.683 E4.39463
G1 F4800
G1 X102.489 Y95.346 E4.16021
G1 F4800
G1 X102.851 Y95.109 E3.95490
G1 F4800
G1 X103.067 Y95.003 E3.84047
G1 F4800
G1 X103.504 Y94.855 E3.62127
G1 F4800
G1 X103.992 Y94.783 E3.38687
G1 F4800
G1 X104.424 Y94.793 E3.18159
G1 F4800
G1 X104.663 Y94.828 E3.06714
G1 F4800
G1 X105.106 Y94.955 E2.84790
G1 F4800
G1 X105.412 Y95.105 E2.68622
G1 E2.38622 F2400.00000
G92 E0
G1 X107.036 Y100.220 F6000.000
G1 X108.505 Y99.142 F6000.000
G1 X109.615 Y97.895 F6000.000
G1 X110.239 Y96.928 F6000.000
G1 X111.140 Y94.877 F6000.000
G1 X111.437 Y93.698 F6000.000
