; generated by Slic3r 1.3.0 on 2021-04-23 at 21:09:31

; external perimeters extrusion width = 0.44mm (6.76mm^3/s)
; perimeters extrusion width = 0.48mm (7.54mm^3/s)
; infill extrusion width = 0.48mm (6.28mm^3/s)
; solid infill extrusion width = 0.48mm (3.77mm^3/s)
; top infill extrusion width = 0.40mm (7.05mm^3/s)
; support material extrusion width = 0.44mm (7.89mm^3/s)

M107
M190 S100 ; set bed temperature and wait for it to be reached
M104 S240 ; set temperature
G28 ; home all axes
G1 Z5 F5000 ; lift nozzle

; Filament gcode

M109 S240 ; set temperature and wait for it to be reached
G21 ; set units to millimeters
G90 ; use absolute coordinates
M82 ; use absolute distances for extrusion
G92 E0
G1 E-6.00000 F2400.00000
G92 E0
G1 Z0.300 F4800.000
G1 X73.359 Y76.125 F4800.000
G1 E6.00000 F2400.00000
G1 F1800
G1 X75.072 Y74.875 E6.08877
G1 X77.500 Y74.329 E6.19294
G1 X92.500 Y74.329 E6.82084
G1 X94.583 Y74.725 E6.90961
G1 X96.375 Y75.859 E6.99838
G1 X97.625 Y77.572 E7.08715
G1 X98.171 Y80.000 E7.19132
G1 X98.171 Y90.000 E7.60992
G1 X97.775 Y92.083 E7.69869
G1 X96.641 Y93.875 E7.78746
G1 X94.928 Y95.125 E7.87623
G1 X92.500 Y95.671 E7.98040
G1 X77.500 Y95.671 E8.60830
G1 X75.417 Y95.275 E8.69707
G1 X73.625 Y94.141 E8.78584
G1 X72.375 Y92.428 E8.87461
G1 X71.829 Y90.000 E8.97878
G1 X71.829 Y80.000 E9.39738
G1 X72.225 Y77.917 E9.48615
G1 X73.327 Y76.176 E9.57241
G1 X73.691 Y76.264 F4800.000
G1 F1800
G1 X75.386 Y75.101 E9.65849
G1 X77.500 Y74.664 E9.74884
G1 X92.500 Y74.664 E10.37674
G1 X94.518 Y75.061 E10.46282
G1 X96.236 Y76.191 E10.54890
G1 X97.399 Y77.886 E10.63498
G1 X97.836 Y80.000 E10.72533
G1 X97.836 Y90.000 E11.14393
G1 X97.439 Y92.018 E11.23001
G1 X96.309 Y93.736 E11.31609
G1 X94.614 Y94.899 E11.40217
G1 X92.500 Y95.336 E11.49251
G1 X77.500 Y95.336 E12.12042
G1 X75.482 Y94.939 E12.20650
G1 X73.764 Y93.809 E12.29258
G1 X72.601 Y92.114 E12.37866
G1 X72.164 Y90.000 E12.46900
G1 X72.164 Y80.000 E12.88761
G1 X72.561 Y77.982 E12.97369
G1 X73.658 Y76.314 E13.05725
G1 X74.520 Y77.093 F4800.000
G1 F1800
G1 X75.776 Y75.837 E13.13638
G1 X94.224 Y75.837 E13.95816
G1 X96.663 Y78.276 E14.11176
G1 X96.663 Y91.724 E14.71082
G1 X94.224 Y94.163 E14.86443
G1 X75.776 Y94.163 E15.68621
G1 X73.337 Y91.724 E15.83982
G1 X73.337 Y78.276 E16.43888
G1 X74.477 Y77.136 E16.51069
G1 X74.772 Y77.346 F4800.000
G1 F1800
G1 X75.924 Y76.195 E16.58322
G1 X94.076 Y76.195 E17.39182
G1 X96.305 Y78.424 E17.53225
G1 X96.305 Y91.576 E18.11813
G1 X94.076 Y93.805 E18.25856
G1 X75.924 Y93.805 E19.06716
G1 X73.695 Y91.576 E19.20759
G1 X73.695 Y78.424 E19.79347
G1 X74.730 Y77.388 E19.85869
G1 X75.025 Y77.598 F4800.000
G1 F1800
G1 X76.072 Y76.552 E19.92463
G1 X93.928 Y76.552 E20.72005
G1 X95.948 Y78.572 E20.84730
G1 X95.948 Y91.428 E21.42000
G1 X93.928 Y93.448 E21.54725
G1 X76.072 Y93.448 E22.34267
G1 X74.052 Y91.428 E22.46992
G1 X74.052 Y78.572 E23.04262
G1 X74.982 Y77.641 E23.10126
G1 X75.277 Y77.851 F4800.000
G1 F1800
G1 X76.220 Y76.909 E23.16061
G1 X93.780 Y76.909 E23.94285
G1 X95.591 Y78.720 E24.05692
G1 X95.591 Y91.280 E24.61644
G1 X93.780 Y93.091 E24.73051
G1 X76.220 Y93.091 E25.51275
G1 X74.409 Y91.280 E25.62682
G1 X74.409 Y78.720 E26.18634
G1 X75.235 Y77.893 E26.23839
G1 X75.530 Y78.104 F4800.000
G1 F1800
G1 X76.368 Y77.266 E26.29115
G1 X93.632 Y77.266 E27.06022
G1 X95.234 Y78.868 E27.16111
G1 X95.234 Y91.132 E27.70745
G1 X93.632 Y92.734 E27.80834
G1 X76.368 Y92.734 E28.57740
G1 X74.766 Y91.132 E28.67829
G1 X74.766 Y78.868 E29.22463
G1 X75.488 Y78.146 E29.27009
G1 X75.782 Y78.356 F4800.000
G1 F1800
G1 X76.515 Y77.623 E29.31626
G1 X93.485 Y77.623 E30.07214
G1 X94.877 Y79.015 E30.15986
G1 X94.877 Y90.985 E30.69302
G1 X93.485 Y92.377 E30.78073
G1 X76.515 Y92.377 E31.53661
G1 X75.123 Y90.985 E31.62432
G1 X75.123 Y79.015 E32.15748
G1 X75.740 Y78.399 E32.19635
G1 X76.035 Y78.609 F4800.000
G1 F1800
G1 X76.663 Y77.980 E32.23593
G1 X93.337 Y77.980 E32.97864
G1 X94.520 Y79.163 E33.05317
G1 X94.520 Y90.837 E33.57315
G1 X93.337 Y92.020 E33.64768
G1 X76.663 Y92.020 E34.39039
G1 X75.480 Y90.837 E34.46492
G1 X75.480 Y79.163 E34.98490
G1 X75.993 Y78.651 E35.01718
G1 X76.288 Y78.861 F4800.000
G1 F1800
G1 X76.811 Y78.337 E35.05017
G1 X93.189 Y78.337 E35.77970
G1 X94.163 Y79.311 E35.84105
G1 X94.163 Y90.689 E36.34785
G1 X93.189 Y91.663 E36.40921
G1 X76.811 Y91.663 E37.13873
G1 X75.837 Y90.689 E37.20008
G1 X75.837 Y79.311 E37.70689
G1 X76.245 Y78.904 E37.73257
G1 X76.540 Y79.114 F4800.000
G1 F1800
G1 X76.959 Y78.695 E37.75898
G1 X93.041 Y78.695 E38.47532
G1 X93.805 Y79.459 E38.52350
G1 X93.805 Y90.541 E39.01712
G1 X93.041 Y91.305 E39.06529
G1 X76.959 Y91.305 E39.78164
G1 X76.195 Y90.541 E39.82981
G1 X76.195 Y79.459 E40.32344
G1 X76.498 Y79.156 E40.34253
G1 X76.793 Y79.366 F4800.000
G1 F1800
G1 X77.107 Y79.052 E40.36235
G1 X92.893 Y79.052 E41.06551
G1 X93.448 Y79.607 E41.10051
G1 X93.448 Y90.393 E41.58095
G1 X92.893 Y90.948 E41.61595
G1 X77.107 Y90.948 E42.31911
G1 X76.552 Y90.393 E42.35411
G1 X76.552 Y79.607 E42.83455
G1 X76.750 Y79.409 E42.84706
G1 X77.045 Y79.619 F4800.000
G1 F1800
G1 X77.255 Y79.409 E42.86028
G1 X92.745 Y79.409 E43.55027
G1 X93.091 Y79.755 E43.57209
G1 X93.091 Y90.245 E44.03935
G1 X92.745 Y90.591 E44.06116
G1 X77.255 Y90.591 E44.75115
G1 X76.909 Y90.245 E44.77297
G1 X76.909 Y79.755 E45.24023
G1 X77.003 Y79.661 E45.24615
G1 X77.403 Y79.766 F4800.000
G1 F1800
G1 X92.597 Y79.766 E45.92296
G1 X92.734 Y79.903 E45.93159
G1 X92.734 Y90.097 E46.38568
G1 X92.597 Y90.234 E46.39431
G1 X77.403 Y90.234 E47.07112
G1 X77.266 Y90.097 E47.07976
G1 X77.266 Y79.903 E47.53384
G1 X77.361 Y79.808 E47.53980
G1 F3840
G1 X86.961 Y79.782 E41.83980
G1 E41.53980 F2400.00000
G92 E0
G1 X92.300 Y89.800 F4800.000
G1 E6.00000 F2400.00000
G1 F1800
G1 X77.700 Y89.800 E6.61116
G1 X77.700 Y80.200 E7.01302
G1 X92.300 Y80.200 E7.62418
G1 X92.300 Y89.740 E8.02353
G1 X91.907 Y89.723 F4800.000
G1 X91.964 Y89.464 F4800.000
G1 F1800
G1 X78.036 Y89.464 E8.60659
G1 X78.036 Y80.536 E8.98035
G1 X91.964 Y80.536 E9.56341
G1 X91.964 Y89.404 E9.93466
G1 X91.629 Y89.129 F4800.000
G1 F1800
G1 X78.371 Y89.129 E10.48963
G1 X78.371 Y80.871 E10.83529
G1 X91.629 Y80.871 E11.39025
G1 X91.629 Y89.069 E11.73340
G1 X91.139 Y88.947 F4800.000
G1 F1800
G1 X91.447 Y88.639 E11.75189
G1 X91.447 Y88.158 E11.77224
G1 X90.658 Y88.947 E11.81950
G1 X90.178 Y88.947 E11.83984
G1 X91.447 Y87.678 E11.91588
G1 X91.447 Y87.198 E11.93622
G1 X89.698 Y88.947 E12.04103
G1 X89.218 Y88.947 E12.06137
G1 X91.447 Y86.718 E12.19495
G1 X91.447 Y86.237 E12.21530
G1 X88.737 Y88.947 E12.37765
G1 X88.257 Y88.947 E12.39799
G1 X91.447 Y85.757 E12.58911
G1 X91.447 Y85.277 E12.60946
G1 X87.777 Y88.947 E12.82935
G1 X87.296 Y88.947 E12.84970
G1 X91.447 Y84.796 E13.09836
G1 X91.447 Y84.316 E13.11871
G1 X86.816 Y88.947 E13.39614
G1 X86.336 Y88.947 E13.41649
G1 X91.447 Y83.836 E13.72270
G1 X91.447 Y83.356 E13.74304
G1 X85.856 Y88.947 E14.07802
G1 X85.375 Y88.947 E14.09837
G1 X91.447 Y82.875 E14.46212
G1 X91.447 Y82.395 E14.48247
G1 X84.895 Y88.947 E14.87499
G1 X84.415 Y88.947 E14.89534
G1 X91.447 Y81.915 E15.31663
G1 X91.447 Y81.434 E15.33698
G1 X83.934 Y88.947 E15.78705
G1 X83.454 Y88.947 E15.80739
G1 X91.349 Y81.053 E16.28033
G1 X90.869 Y81.053 E16.30068
G1 X82.974 Y88.947 E16.77362
G1 X82.493 Y88.947 E16.79396
G1 X90.388 Y81.053 E17.26690
G1 X89.908 Y81.053 E17.28725
G1 X82.013 Y88.947 E17.76019
G1 X81.533 Y88.947 E17.78053
G1 X89.428 Y81.053 E18.25347
G1 X88.947 Y81.053 E18.27382
G1 X81.053 Y88.947 E18.74676
G1 X80.572 Y88.947 E18.76710
G1 X88.467 Y81.053 E19.24004
G1 X87.987 Y81.053 E19.26039
G1 X80.092 Y88.947 E19.73333
G1 X79.612 Y88.947 E19.75367
G1 X87.507 Y81.053 E20.22661
G1 X87.026 Y81.053 E20.24695
G1 X79.131 Y88.947 E20.71989
G1 X78.651 Y88.947 E20.74024
G1 X86.546 Y81.053 E21.21318
G1 X86.066 Y81.053 E21.23352
G1 X78.553 Y88.566 E21.68359
G1 X78.553 Y88.085 E21.70394
G1 X85.585 Y81.053 E22.12524
G1 X85.105 Y81.053 E22.14558
G1 X78.553 Y87.605 E22.53811
G1 X78.553 Y87.125 E22.55846
G1 X84.625 Y81.053 E22.92221
G1 X84.144 Y81.053 E22.94256
G1 X78.553 Y86.644 E23.27754
G1 X78.553 Y86.164 E23.29788
G1 X83.664 Y81.053 E23.60410
G1 X83.184 Y81.053 E23.62444
G1 X78.553 Y85.684 E23.90188
G1 X78.553 Y85.204 E23.92222
G1 X82.704 Y81.053 E24.17089
G1 X82.223 Y81.053 E24.19124
G1 X78.553 Y84.723 E24.41113
G1 X78.553 Y84.243 E24.43148
G1 X81.743 Y81.053 E24.62260
G1 X81.263 Y81.053 E24.64295
G1 X78.553 Y83.763 E24.80530
G1 X78.553 Y83.282 E24.82564
G1 X80.782 Y81.053 E24.95922
G1 X80.302 Y81.053 E24.97957
G1 X78.553 Y82.802 E25.08437
G1 X78.553 Y82.322 E25.10472
G1 X79.822 Y81.053 E25.18075
G1 X79.342 Y81.053 E25.20110
G1 X78.553 Y81.842 E25.24836
G1 X78.553 Y81.361 E25.26871
G1 X78.861 Y81.053 E25.28720
G1 F3840
G1 X78.553 Y81.361 E25.02800
G1 F3840
G1 X78.553 Y81.842 E24.74282
G1 F3840
G1 X79.342 Y81.053 E24.08033
G1 F3840
G1 X79.822 Y81.053 E23.79515
G1 F3840
G1 X78.553 Y82.322 E22.72936
G1 F3840
G1 X78.553 Y82.802 E22.44418
G1 F3840
G1 X80.302 Y81.053 E20.97509
G1 F3840
G1 X80.782 Y81.053 E20.68991
G1 F3840
G1 X79.469 Y82.366 E19.58720
G1 E19.28720 F2400.00000
G92 E0
G1 Z0.300 F4800.000
G1 Z0.600 F4800.000
G1 X91.464 Y88.964 F4800.000
G1 E6.00000 F2400.00000
G1 F3600
G1 X78.536 Y88.964 E6.67541
G1 X78.536 Y81.036 E7.08959
G1 X91.464 Y81.036 E7.76500
G1 X91.464 Y88.904 E8.17605
G1 X91.883 Y89.383 F4800.000
G1 F3600
G1 X78.117 Y89.383 E8.89523
G1 X78.117 Y80.617 E9.35318
G1 X91.883 Y80.617 E10.07236
G1 X91.883 Y89.323 E10.52718
G1 X92.280 Y89.780 F4800.000
G1 F3600
G1 X77.720 Y89.780 E11.20930
G1 X77.720 Y80.220 E11.65718
G1 X92.280 Y80.220 E12.33931
G1 X92.280 Y89.720 E12.78438
G1 X91.887 Y89.703 F4800.000
G1 X91.238 Y81.648 F4800.000
G1 F1800
G1 X90.852 Y81.262 E12.81317
G1 X90.253 Y81.262 E12.84486
G1 X91.238 Y82.247 E12.91846
G1 X91.238 Y82.846 E12.95014
G1 X89.654 Y81.262 E13.06855
G1 X89.054 Y81.262 E13.10023
G1 X91.238 Y83.446 E13.26345
G1 X91.238 Y84.045 E13.29513
G1 X88.455 Y81.262 E13.50315
G1 X87.856 Y81.262 E13.53484
G1 X91.238 Y84.644 E13.78767
G1 X91.238 Y85.244 E13.81935
G1 X87.256 Y81.262 E14.11698
G1 X86.657 Y81.262 E14.14867
G1 X91.238 Y85.843 E14.49111
G1 X91.238 Y86.443 E14.52279
G1 X86.057 Y81.262 E14.91004
G1 X85.458 Y81.262 E14.94172
G1 X91.238 Y87.042 E15.37378
G1 X91.238 Y87.641 E15.40546
G1 X84.859 Y81.262 E15.88232
G1 X84.259 Y81.262 E15.91401
G1 X91.238 Y88.241 E16.43567
G1 X91.238 Y88.738 E16.46194
G1 X91.135 Y88.738 E16.46736
G1 X83.660 Y81.262 E17.02617
G1 X83.061 Y81.262 E17.05785
G1 X90.536 Y88.738 E17.61666
G1 X89.936 Y88.738 E17.64834
G1 X82.461 Y81.262 E18.20716
G1 X81.862 Y81.262 E18.23884
G1 X89.337 Y88.738 E18.79765
G1 X88.738 Y88.738 E18.82933
G1 X81.262 Y81.262 E19.38814
G1 X80.663 Y81.262 E19.41983
G1 X88.138 Y88.738 E19.97864
G1 X87.539 Y88.738 E20.01032
G1 X80.064 Y81.262 E20.56913
G1 X79.464 Y81.262 E20.60081
G1 X86.939 Y88.738 E21.15962
G1 X86.340 Y88.738 E21.19131
G1 X78.865 Y81.262 E21.75012
G1 X78.762 Y81.262 E21.75554
G1 X78.762 Y81.759 E21.78180
G1 X85.741 Y88.738 E22.30347
G1 X85.141 Y88.738 E22.33515
G1 X78.762 Y82.359 E22.81201
G1 X78.762 Y82.958 E22.84370
G1 X84.542 Y88.738 E23.27575
G1 X83.943 Y88.738 E23.30744
G1 X78.762 Y83.557 E23.69468
G1 X78.762 Y84.157 E23.72637
G1 X83.343 Y88.738 E24.06881
G1 X82.744 Y88.738 E24.10049
G1 X78.762 Y84.756 E24.39813
G1 X78.762 Y85.356 E24.42981
G1 X82.144 Y88.738 E24.68264
G1 X81.545 Y88.738 E24.71432
G1 X78.762 Y85.955 E24.92235
G1 X78.762 Y86.554 E24.95403
G1 X80.946 Y88.738 E25.11725
G1 X80.346 Y88.738 E25.14893
G1 X78.762 Y87.154 E25.26734
G1 X78.762 Y87.753 E25.29902
G1 X79.747 Y88.738 E25.37262
G1 X79.148 Y88.738 E25.40431
G1 X78.762 Y88.352 E25.43310
G1 F3840
G1 X79.148 Y88.738 E25.10966
G1 F3840
G1 X79.747 Y88.738 E24.75378
G1 F3840
G1 X78.762 Y87.753 E23.92705
G1 F3840
G1 X78.762 Y87.154 E23.57117
G1 F3840
G1 X80.346 Y88.738 E22.24116
G1 F3840
G1 X80.946 Y88.738 E21.88529
G1 F3840
G1 X78.762 Y86.554 E20.05199
G1 F3840
G1 X78.762 Y86.017 E19.73310
G1 E19.43310 F2400.00000
G92 E0
G1 Z0.900 F4800.000
G1 X91.464 Y88.964 F4800.000
G1 E6.00000 F2400.00000
G1 F3600
G1 X78.536 Y88.964 E6.67541
G1 X78.536 Y81.036 E7.08959
G1 X91.464 Y81.036 E7.76500
G1 X91.464 Y88.904 E8.17605
G1 X91.883 Y89.383 F4800.000
G1 F3600
G1 X78.117 Y89.383 E8.89523
G1 X78.117 Y80.617 E9.35318
G1 X91.883 Y80.617 E10.07236
G1 X91.883 Y89.323 E10.52718
G1 X92.280 Y89.780 F4800.000
G1 F3600
G1 X77.720 Y89.780 E11.20930
G1 X77.720 Y80.220 E11.65718
G1 X92.280 Y80.220 E12.33931
G1 X92.280 Y89.720 E12.78438
G1 X91.887 Y89.703 F4800.000
G1 X90.852 Y88.738 F4800.000
G1 F1800
G1 X91.238 Y88.352 E12.81317
G1 X91.238 Y87.753 E12.84486
G1 X90.253 Y88.738 E12.91846
G1 X89.654 Y88.738 E12.95014
G1 X91.238 Y87.154 E13.06855
G1 X91.238 Y86.554 E13.10023
G1 X89.054 Y88.738 E13.26345
G1 X88.455 Y88.738 E13.29513
G1 X91.238 Y85.955 E13.50315
G1 X91.238 Y85.356 E13.53484
G1 X87.856 Y88.738 E13.78767
G1 X87.256 Y88.738 E13.81935
G1 X91.238 Y84.756 E14.11698
G1 X91.238 Y84.157 E14.14867
G1 X86.657 Y88.738 E14.49111
G1 X86.057 Y88.738 E14.52279
G1 X91.238 Y83.557 E14.91004
G1 X91.238 Y82.958 E14.94172
G1 X85.458 Y88.738 E15.37378
G1 X84.859 Y88.738 E15.40546
G1 X91.238 Y82.359 E15.88232
G1 X91.238 Y81.759 E15.91401
G1 X84.259 Y88.738 E16.43567
G1 X83.660 Y88.738 E16.46736
G1 X91.135 Y81.262 E17.02617
G1 X90.536 Y81.262 E17.05785
G1 X83.061 Y88.738 E17.61666
G1 X82.461 Y88.738 E17.64834
G1 X89.936 Y81.262 E18.20716
G1 X89.337 Y81.262 E18.23884
G1 X81.862 Y88.738 E18.79765
G1 X81.262 Y88.738 E18.82933
G1 X88.738 Y81.262 E19.38814
G1 X88.138 Y81.262 E19.41983
G1 X80.663 Y88.738 E19.97864
G1 X80.064 Y88.738 E20.01032
G1 X87.539 Y81.262 E20.56913
G1 X86.939 Y81.262 E20.60081
G1 X79.464 Y88.738 E21.15962
G1 X78.865 Y88.738 E21.19131
G1 X86.340 Y81.262 E21.75012
G1 X85.741 Y81.262 E21.78180
G1 X78.762 Y88.241 E22.30347
G1 X78.762 Y87.641 E22.33515
G1 X85.141 Y81.262 E22.81201
G1 X84.542 Y81.262 E22.84370
G1 X78.762 Y87.042 E23.27575
G1 X78.762 Y86.443 E23.30743
G1 X83.943 Y81.262 E23.69468
G1 X83.343 Y81.262 E23.72637
G1 X78.762 Y85.843 E24.06881
G1 X78.762 Y85.244 E24.10049
G1 X82.744 Y81.262 E24.39813
G1 X82.144 Y81.262 E24.42981
G1 X78.762 Y84.644 E24.68264
G1 X78.762 Y84.045 E24.71432
G1 X81.545 Y81.262 E24.92235
G1 X80.946 Y81.262 E24.95403
G1 X78.762 Y83.446 E25.11724
G1 X78.762 Y82.846 E25.14893
G1 X80.346 Y81.262 E25.26734
G1 X79.747 Y81.262 E25.29902
G1 X78.762 Y82.247 E25.37262
G1 X78.762 Y81.648 E25.40430
G1 X79.148 Y81.262 E25.43310
M106 S255
G1 F3840
G1 X78.762 Y81.648 E25.10965
G1 F3840
G1 X78.762 Y82.247 E24.75378
G1 F3840
G1 X79.747 Y81.262 E23.92705
G1 F3840
G1 X80.346 Y81.262 E23.57118
G1 F3840
G1 X78.762 Y82.846 E22.24117
G1 F3840
G1 X78.762 Y83.446 E21.88529
G1 F3840
G1 X80.946 Y81.262 E20.05200
G1 F3840
G1 X81.483 Y81.262 E19.73310
G1 E19.43310 F2400.00000
G92 E0
G1 Z1.200 F4800.000
G1 X91.464 Y88.964 F4800.000
G1 E6.00000 F2400.00000
G1 F2162.62
G1 X78.536 Y88.964 E6.67541
G1 X78.536 Y81.036 E7.08959
G1 X91.464 Y81.036 E7.76500
G1 X91.464 Y88.904 E8.17605
G1 X91.883 Y89.383 F4800.000
G1 F2162.62
G1 X78.117 Y89.383 E8.89523
G1 X78.117 Y80.617 E9.35318
G1 X91.883 Y80.617 E10.07236
G1 X91.883 Y89.323 E10.52718
G1 X92.280 Y89.780 F4800.000
G1 F3600
G1 X77.720 Y89.780 E11.20930
G1 X77.720 Y80.220 E11.65718
G1 X92.280 Y80.220 E12.33931
G1 X92.280 Y89.720 E12.78438
G1 X91.887 Y89.703 F4800.000
G1 X91.045 Y88.545 F4800.000
G1 F1802.18
G1 X91.045 Y87.973 E12.81427
G1 X90.473 Y88.545 E12.85655
G1 X91.045 Y88.545 E12.88645
G1 X89.359 Y88.545 F4800.000
G1 F1802.18
G1 X87.590 Y88.071 E12.98215
