; generated by Slic3r 1.3.0 on 2021-04-19 at 20:51:52

; external perimeters extrusion width = 0.44mm (6.76mm^3/s)
; perimeters extrusion width = 0.48mm (7.54mm^3/s)
; infill extrusion width = 0.48mm (6.28mm^3/s)
; solid infill extrusion width = 0.48mm (3.77mm^3/s)
; top infill extrusion width = 0.40mm (7.05mm^3/s)
; support material extrusion width = 0.44mm (7.89mm^3/s)

M107
M190 S100 ; set bed temperature and wait for it to be reached
M104 S240 ; set temperature
G28 ; home all axes
G1 Z5 F5000 ; lift nozzle

; Filament gcode

M109 S240 ; set temperature and wait for it to be reached
G21 ; set units to millimeters
G90 ; use absolute coordinates
M82 ; use absolute distances for extrusion
G92 E0
G1 E-6.00000 F2400.00000
G92 E0
G1 Z0.300 F6000.000
G1 X47.311 Y55.183 F6000.000
G1 E6.00000 F2400.00000
G1 F1800
G1 X50.318 Y53.325 E6.14798
G1 X53.665 Y52.188 E6.29596
G1 X57.000 Y51.829 E6.43636
G1 X113.000 Y51.829 E8.78054
G1 X116.513 Y52.227 E8.92852
G1 X119.846 Y53.403 E9.07650
G1 X122.832 Y55.297 E9.22448
G1 X125.317 Y57.811 E9.37246
G1 X127.175 Y60.818 E9.52044
G1 X128.312 Y64.165 E9.66842
G1 X128.671 Y67.500 E9.80882
G1 X128.671 Y77.500 E10.22743
G1 X128.273 Y81.013 E10.37541
G1 X127.097 Y84.346 E10.52339
G1 X125.718 Y86.657 E10.63602
G1 X107.718 Y111.657 E11.92556
G1 X105.342 Y114.274 E12.07354
G1 X102.440 Y116.293 E12.22152
G1 X99.159 Y117.609 E12.36950
G1 X95.000 Y118.171 E12.54517
G1 X75.000 Y118.171 E13.38238
G1 X71.487 Y117.773 E13.53036
G1 X68.154 Y116.597 E13.67834
G1 X65.168 Y114.703 E13.82632
G1 X62.282 Y111.657 E14.00199
G1 X44.282 Y86.657 E15.29153
G1 X42.553 Y83.573 E15.43951
G1 X41.560 Y80.181 E15.58749
G1 X41.329 Y77.500 E15.70012
G1 X41.329 Y67.500 E16.11872
G1 X41.727 Y63.987 E16.26670
G1 X42.903 Y60.654 E16.41468
G1 X44.797 Y57.668 E16.56266
G1 X47.268 Y55.225 E16.70813
G1 X47.637 Y55.354 F6000.000
G1 F1800
G1 X50.632 Y53.549 E16.85452
G1 X53.958 Y52.469 E17.00090
G1 X57.000 Y52.164 E17.12885
G1 X113.000 Y52.164 E19.47303
G1 X116.474 Y52.563 E19.61941
G1 X119.768 Y53.738 E19.76580
G1 X122.709 Y55.629 E19.91218
G1 X125.146 Y58.137 E20.05856
G1 X126.951 Y61.132 E20.20494
G1 X128.031 Y64.458 E20.35133
G1 X128.336 Y67.500 E20.47928
G1 X128.336 Y77.500 E20.89789
G1 X127.937 Y80.974 E21.04427
G1 X126.762 Y84.268 E21.19065
G1 X125.445 Y86.461 E21.29772
G1 X107.445 Y111.461 E22.58726
G1 X105.092 Y114.047 E22.73364
G1 X102.214 Y116.033 E22.88003
G1 X98.960 Y117.315 E23.02641
G1 X95.000 Y117.836 E23.19361
G1 X75.000 Y117.836 E24.03082
G1 X71.526 Y117.437 E24.17720
G1 X68.232 Y116.262 E24.32358
G1 X65.291 Y114.371 E24.46996
G1 X62.555 Y111.461 E24.63717
G1 X44.555 Y86.461 E25.92671
G1 X42.848 Y83.408 E26.07309
G1 X41.878 Y80.049 E26.21948
G1 X41.664 Y77.500 E26.32654
G1 X41.664 Y67.500 E26.74515
G1 X42.063 Y64.026 E26.89153
G1 X43.238 Y60.732 E27.03791
G1 X45.129 Y57.791 E27.18429
G1 X47.594 Y55.396 E27.32816
G1 F4800
G1 X50.632 Y53.549 E25.63935
G1 F4800
G1 X53.958 Y52.469 E23.97831
G1 F4800
G1 X57.000 Y52.164 E22.52635
G1 F4800
G1 X58.891 Y52.164 E21.62816
G1 E21.32816 F2400.00000
G92 E0
G1 X62.501 Y90.104 F6000.000
G1 E6.00000 F2400.00000
G1 F1800
G1 X62.396 Y89.999 E6.00630
G1 X51.823 Y89.999 E6.45589
G1 X44.501 Y82.677 E6.89616
G1 X44.501 Y62.323 E7.76164
G1 X51.823 Y55.001 E8.20191
G1 X118.177 Y55.001 E11.02331
G1 X125.499 Y62.323 E11.46359
G1 X125.499 Y82.677 E12.32906
G1 X118.177 Y89.999 E12.76934
G1 X107.604 Y89.999 E13.21892
G1 X107.499 Y90.104 E13.22523
G1 X107.499 Y107.677 E13.97245
G1 X100.177 Y114.999 E14.41272
G1 X69.823 Y114.999 E15.70340
G1 X62.501 Y107.677 E16.14368
G1 X62.501 Y90.164 E16.88835
G1 X62.842 Y89.763 F6000.000
G1 F1800
G1 X62.737 Y89.658 E16.89465
G1 X51.964 Y89.658 E17.35272
G1 X44.842 Y82.536 E17.78099
G1 X44.842 Y62.464 E18.63446
G1 X51.964 Y55.342 E19.06273
G1 X118.036 Y55.342 E21.87212
G1 X125.158 Y62.464 E22.30038
G1 X125.158 Y82.536 E23.15385
G1 X118.036 Y89.658 E23.58212
G1 X107.263 Y89.658 E24.04019
G1 X107.158 Y89.763 E24.04650
G1 X107.158 Y107.536 E24.80221
G1 X100.036 Y114.658 E25.23048
G1 X69.964 Y114.658 E26.50914
G1 X62.842 Y107.536 E26.93741
G1 X62.842 Y89.823 E27.69057
G1 X63.183 Y89.422 F6000.000
G1 F1800
G1 X63.078 Y89.317 E27.69688
G1 X52.105 Y89.317 E28.16344
G1 X45.183 Y82.395 E28.57970
G1 X45.183 Y62.605 E29.42116
G1 X52.105 Y55.683 E29.83742
G1 X117.895 Y55.683 E32.63480
G1 X124.817 Y62.605 E33.05106
G1 X124.817 Y82.395 E33.89252
G1 X117.895 Y89.317 E34.30878
G1 X106.922 Y89.317 E34.77534
G1 X106.817 Y89.422 E34.78165
G1 X106.817 Y107.395 E35.54585
G1 X99.895 Y114.317 E35.96211
G1 X70.105 Y114.317 E37.22877
G1 X63.183 Y107.395 E37.64503
G1 X63.183 Y89.482 E38.40668
G1 X63.524 Y89.081 F6000.000
G1 F1800
G1 X63.419 Y88.976 E38.41298
G1 X52.246 Y88.976 E38.88804
G1 X45.524 Y82.254 E39.29229
G1 X45.524 Y62.746 E40.12174
G1 X52.246 Y56.024 E40.52599
G1 X117.754 Y56.024 E43.31136
G1 X124.476 Y62.746 E43.71562
G1 X124.476 Y82.254 E44.54507
G1 X117.754 Y88.976 E44.94932
G1 X106.581 Y88.976 E45.42437
G1 X106.476 Y89.081 E45.43068
G1 X106.476 Y107.254 E46.20337
G1 X99.754 Y113.976 E46.60762
G1 X70.246 Y113.976 E47.86227
G1 X63.524 Y107.254 E48.26652
G1 X63.524 Y89.141 E49.03667
G1 X63.865 Y88.740 F6000.000
G1 F1800
G1 X63.760 Y88.635 E49.04297
G1 X52.388 Y88.635 E49.52652
G1 X45.865 Y82.112 E49.91876
G1 X45.865 Y62.888 E50.73620
G1 X52.388 Y56.365 E51.12844
G1 X117.612 Y56.365 E53.90181
G1 X124.135 Y62.888 E54.29405
G1 X124.135 Y82.112 E55.11149
G1 X117.612 Y88.635 E55.50374
G1 X106.240 Y88.635 E55.98728
G1 X106.135 Y88.740 E55.99359
G1 X106.135 Y107.112 E56.77477
G1 X99.612 Y113.635 E57.16702
G1 X70.388 Y113.635 E58.40966
G1 X63.865 Y107.112 E58.80190
G1 X63.865 Y88.800 E59.58054
G1 X64.206 Y88.399 F6000.000
G1 F1800
G1 X64.101 Y88.294 E59.58684
G1 X52.529 Y88.294 E60.07888
G1 X46.206 Y81.971 E60.45911
G1 X46.206 Y63.029 E61.26455
G1 X52.529 Y56.706 E61.64478
G1 X117.471 Y56.706 E64.40614
G1 X123.794 Y63.029 E64.78637
G1 X123.794 Y81.971 E65.59180
G1 X117.471 Y88.294 E65.97204
G1 X105.899 Y88.294 E66.46407
G1 X105.794 Y88.399 E66.47038
G1 X105.794 Y106.971 E67.26006
G1 X99.471 Y113.294 E67.64029
G1 X70.529 Y113.294 E68.87092
G1 X64.206 Y106.971 E69.25116
G1 X64.206 Y88.459 E70.03829
G1 X64.546 Y88.058 F6000.000
G1 F1800
G1 X64.442 Y87.954 E70.04459
G1 X52.670 Y87.954 E70.54512
G1 X46.546 Y81.830 E70.91334
G1 X46.546 Y63.170 E71.70677
G1 X52.670 Y57.046 E72.07499
G1 X117.330 Y57.046 E74.82434
G1 X123.454 Y63.170 E75.19257
G1 X123.454 Y81.830 E75.98599
G1 X117.330 Y87.954 E76.35422
G1 X105.558 Y87.954 E76.85475
G1 X105.454 Y88.058 E76.86105
G1 X105.454 Y106.830 E77.65922
G1 X99.330 Y112.954 E78.02745
G1 X70.670 Y112.954 E79.24607
G1 X64.546 Y106.830 E79.61430
G1 X64.546 Y88.118 E80.40991
G1 X64.887 Y87.718 F6000.000
G1 F1800
G1 X64.782 Y87.613 E80.41622
G1 X52.811 Y87.613 E80.92524
G1 X46.887 Y81.689 E81.28146
G1 X46.887 Y63.311 E82.06287
G1 X52.811 Y57.387 E82.41909
G1 X117.189 Y57.387 E85.15643
G1 X123.113 Y63.311 E85.51265
G1 X123.113 Y81.689 E86.29406
G1 X117.189 Y87.613 E86.65028
G1 X105.218 Y87.613 E87.15930
G1 X105.113 Y87.718 E87.16560
G1 X105.113 Y106.689 E87.97226
G1 X99.189 Y112.613 E88.32848
G1 X70.811 Y112.613 E89.53510
G1 X64.887 Y106.689 E89.89132
G1 X64.887 Y87.778 E90.69542
G1 X65.228 Y87.377 F6000.000
G1 F1800
G1 X65.123 Y87.272 E90.70173
G1 X52.952 Y87.272 E91.21924
G1 X47.228 Y81.548 E91.56345
G1 X47.228 Y63.452 E92.33286
G1 X52.952 Y57.728 E92.67707
G1 X117.048 Y57.728 E95.40240
G1 X122.772 Y63.452 E95.74661
G1 X122.772 Y81.548 E96.51601
G1 X117.048 Y87.272 E96.86022
G1 X104.877 Y87.272 E97.37773
G1 X104.772 Y87.377 E97.38404
G1 X104.772 Y106.548 E98.19919
G1 X99.048 Y112.272 E98.54340
G1 X70.952 Y112.272 E99.73801
G1 X65.228 Y106.548 E100.08222
G1 X65.228 Y87.437 E100.89482
G1 X65.569 Y87.036 F6000.000
G1 F1800
G1 X65.464 Y86.931 E100.90112
G1 X53.094 Y86.931 E101.42712
G1 X47.569 Y81.406 E101.75932
G1 X47.569 Y63.594 E102.51672
G1 X53.094 Y58.069 E102.84892
G1 X116.906 Y58.069 E105.56225
G1 X122.431 Y63.594 E105.89444
G1 X122.431 Y81.406 E106.65185
G1 X116.906 Y86.931 E106.98404
G1 X104.536 Y86.931 E107.51005
G1 X104.431 Y87.036 E107.51635
G1 X104.431 Y106.406 E108.33999
G1 X98.906 Y111.931 E108.67219
G1 X71.094 Y111.931 E109.85480
G1 X65.569 Y106.406 E110.18700
G1 X65.569 Y87.096 E111.00809
G1 X65.910 Y86.695 F6000.000
G1 F1800
G1 X65.805 Y86.590 E111.01439
G1 X53.235 Y86.590 E111.54888
G1 X47.910 Y81.265 E111.86908
G1 X47.910 Y63.735 E112.61447
G1 X53.235 Y58.410 E112.93466
G1 X116.765 Y58.410 E115.63597
G1 X122.090 Y63.735 E115.95617
G1 X122.090 Y81.265 E116.70156
G1 X116.765 Y86.590 E117.02175
G1 X104.195 Y86.590 E117.55624
G1 X104.090 Y86.695 E117.56255
G1 X104.090 Y106.265 E118.39468
G1 X98.765 Y111.590 E118.71487
G1 X71.235 Y111.590 E119.88546
G1 X65.910 Y106.265 E120.20566
G1 X65.910 Y86.755 E121.03524
G1 X66.251 Y86.354 F6000.000
G1 F1800
G1 X66.146 Y86.249 E121.04154
G1 X53.376 Y86.249 E121.58453
G1 X48.251 Y81.124 E121.89271
G1 X48.251 Y63.876 E122.62609
G1 X53.376 Y58.751 E122.93428
G1 X116.624 Y58.751 E125.62358
G1 X121.749 Y63.876 E125.93177
G1 X121.749 Y81.124 E126.66515
G1 X116.624 Y86.249 E126.97333
G1 X103.854 Y86.249 E127.51632
G1 X103.749 Y86.354 E127.52262
G1 X103.749 Y106.124 E128.36325
G1 X98.624 Y111.249 E128.67143
G1 X71.376 Y111.249 E129.83001
G1 X66.251 Y106.124 E130.13820
G1 X66.251 Y86.414 E130.97627
G1 X66.592 Y86.013 F6000.000
G1 F1800
G1 X66.487 Y85.908 E130.98258
G1 X53.517 Y85.908 E131.53405
G1 X48.592 Y80.983 E131.83023
G1 X48.592 Y64.017 E132.55160
G1 X53.517 Y59.092 E132.84778
G1 X116.483 Y59.092 E135.52507
G1 X121.408 Y64.017 E135.82125
G1 X121.408 Y80.983 E136.54262
G1 X116.483 Y85.908 E136.83880
G1 X103.513 Y85.908 E137.39027
G1 X103.408 Y86.013 E137.39658
G1 X103.408 Y105.983 E138.24569
G1 X98.483 Y110.908 E138.54187
G1 X71.517 Y110.908 E139.68844
G1 X66.592 Y105.983 E139.98462
G1 X66.592 Y86.073 E140.83118
G1 X66.933 Y85.672 F6000.000
G1 F1800
G1 X66.828 Y85.567 E140.83749
G1 X53.658 Y85.567 E141.39746
G1 X48.933 Y80.842 E141.68162
G1 X48.933 Y64.158 E142.39099
G1 X53.658 Y59.433 E142.67515
G1 X116.342 Y59.433 E145.34044
G1 X121.067 Y64.158 E145.62461
G1 X121.067 Y80.842 E146.33398
G1 X116.342 Y85.567 E146.61814
G1 X103.172 Y85.567 E147.17811
G1 X103.067 Y85.672 E147.18441
G1 X103.067 Y105.842 E148.04202
G1 X98.342 Y110.567 E148.32619
G1 X71.658 Y110.567 E149.46076
G1 X66.933 Y105.842 E149.74492
G1 X66.933 Y85.732 E150.59998
G1 X67.274 Y85.331 F6000.000
G1 F1800
G1 X67.169 Y85.226 E150.60628
G1 X53.800 Y85.226 E151.17474
G1 X49.274 Y80.700 E151.44690
G1 X49.274 Y64.300 E152.14426
G1 X53.800 Y59.774 E152.41641
G1 X116.200 Y59.774 E155.06969
G1 X120.726 Y64.300 E155.34185
G1 X120.726 Y80.700 E156.03921
G1 X116.200 Y85.226 E156.31137
G1 X102.831 Y85.226 E156.87983
G1 X102.726 Y85.331 E156.88613
G1 X102.726 Y105.700 E157.75223
G1 X98.200 Y110.226 E158.02439
G1 X71.800 Y110.226 E159.14695
G1 X67.274 Y105.700 E159.41910
G1 X67.274 Y85.391 E160.28265
G1 X67.615 Y84.990 F6000.000
G1 F1800
G1 X67.510 Y84.885 E160.28896
G1 X53.941 Y84.885 E160.86591
G1 X49.615 Y80.559 E161.12606
G1 X49.615 Y64.441 E161.81141
G1 X53.941 Y60.115 E162.07155
G1 X116.059 Y60.115 E164.71283
G1 X120.385 Y64.441 E164.97298
G1 X120.385 Y80.559 E165.65833
G1 X116.059 Y84.885 E165.91847
G1 X102.490 Y84.885 E166.49542
G1 X102.385 Y84.990 E166.50173
G1 X102.385 Y105.559 E167.37632
G1 X98.059 Y109.885 E167.63647
G1 X71.941 Y109.885 E168.74702
G1 X67.615 Y105.559 E169.00717
G1 X67.615 Y85.050 E169.87921
G1 X67.956 Y84.649 F6000.000
G1 F1800
G1 X67.851 Y84.544 E169.88551
G1 X54.082 Y84.544 E170.47095
G1 X49.956 Y80.418 E170.71909
G1 X49.956 Y64.582 E171.39243
G1 X54.082 Y60.456 E171.64058
G1 X115.918 Y60.456 E174.26984
G1 X120.044 Y64.582 E174.51798
G1 X120.044 Y80.418 E175.19132
G1 X115.918 Y84.544 E175.43946
G1 X102.149 Y84.544 E176.02490
G1 X102.044 Y84.649 E176.03121
G1 X102.044 Y105.418 E176.91429
G1 X97.918 Y109.544 E177.16243
G1 X72.082 Y109.544 E178.26097
G1 X67.956 Y105.418 E178.50911
G1 X67.956 Y84.709 E179.38964
G1 X68.296 Y84.308 F6000.000
G1 F1800
G1 X68.192 Y84.204 E179.39595
G1 X54.223 Y84.204 E179.98988
G1 X50.296 Y80.277 E180.22601
G1 X50.296 Y64.723 E180.88734
G1 X54.223 Y60.796 E181.12348
G1 X115.777 Y60.796 E183.74073
G1 X119.704 Y64.723 E183.97686
G1 X119.704 Y80.277 E184.63820
G1 X115.777 Y84.204 E184.87433
G1 X101.808 Y84.204 E185.46826
G1 X101.704 Y84.308 E185.47457
G1 X101.704 Y105.277 E186.36614
G1 X97.777 Y109.204 E186.60227
G1 X72.223 Y109.204 E187.68880
G1 X68.296 Y105.277 E187.92494
G1 X68.296 Y84.368 E188.81396
G1 X68.637 Y83.968 F6000.000
G1 F1800
G1 X68.532 Y83.863 E188.82026
G1 X54.364 Y83.863 E189.42269
G1 X50.637 Y80.136 E189.64681
G1 X50.637 Y64.864 E190.29613
G1 X54.364 Y61.137 E190.52026
G1 X115.636 Y61.137 E193.12551
G1 X119.363 Y64.864 E193.34963
G1 X119.363 Y80.136 E193.99895
G1 X115.636 Y83.863 E194.22308
G1 X101.468 Y83.863 E194.82550
G1 X101.363 Y83.968 E194.83181
G1 X101.363 Y105.136 E195.73187
G1 X97.636 Y108.863 E195.95599
G1 X72.364 Y108.863 E197.03052
G1 X68.637 Y105.136 E197.25464
G1 X68.637 Y84.028 E198.15215
G1 X68.978 Y83.627 F6000.000
G1 F1800
G1 X68.873 Y83.522 E198.15846
G1 X54.506 Y83.522 E198.76937
G1 X50.978 Y79.994 E198.98149
G1 X50.978 Y65.006 E199.61881
G1 X54.506 Y61.478 E199.83092
G1 X115.494 Y61.478 E202.42416
G1 X119.022 Y65.006 E202.63627
G1 X119.022 Y79.994 E203.27359
G1 X115.494 Y83.522 E203.48571
G1 X101.127 Y83.522 E204.09662
G1 X101.022 Y83.627 E204.10293
G1 X101.022 Y104.994 E205.01148
G1 X97.494 Y108.522 E205.22360
G1 X72.506 Y108.522 E206.28611
G1 X68.978 Y104.994 E206.49823
G1 X68.978 Y83.687 E207.40423
G1 X69.319 Y83.286 F6000.000
G1 F1800
G1 X69.214 Y83.181 E207.41054
G1 X54.647 Y83.181 E208.02994
G1 X51.319 Y79.853 E208.23005
G1 X51.319 Y65.147 E208.85536
G1 X54.647 Y61.819 E209.05546
G1 X115.353 Y61.819 E211.63669
G1 X118.681 Y65.147 E211.83680
G1 X118.681 Y79.853 E212.46211
G1 X115.353 Y83.181 E212.66222
G1 X100.786 Y83.181 E213.28162
G1 X100.681 Y83.286 E213.28793
G1 X100.681 Y104.853 E214.20497
G1 X97.353 Y108.181 E214.40508
G1 X72.647 Y108.181 E215.45559
G1 X69.319 Y104.853 E215.65569
G1 X69.319 Y83.346 E216.57019
G1 X69.660 Y82.945 F6000.000
G1 F1800
G1 X69.555 Y82.840 E216.57649
G1 X54.788 Y82.840 E217.20439
G1 X51.660 Y79.712 E217.39249
G1 X51.660 Y65.288 E218.00579
G1 X54.788 Y62.160 E218.19389
G1 X115.212 Y62.160 E220.76311
G1 X118.340 Y65.288 E220.95121
G1 X118.340 Y79.712 E221.56451
G1 X115.212 Y82.840 E221.75261
G1 X100.445 Y82.840 E222.38050
G1 X100.340 Y82.945 E222.38681
G1 X100.340 Y104.712 E223.31235
G1 X97.212 Y107.840 E223.50044
G1 X72.788 Y107.840 E224.53894
G1 X69.660 Y104.712 E224.72704
G1 X69.660 Y83.005 E225.65003
G1 X70.001 Y82.604 F6000.000
G1 F1800
G1 X69.896 Y82.499 E225.65633
G1 X54.929 Y82.499 E226.29272
G1 X52.001 Y79.571 E226.46881
G1 X52.001 Y65.429 E227.07010
G1 X54.929 Y62.501 E227.24619
G1 X115.071 Y62.501 E229.80341
G1 X117.999 Y65.429 E229.97950
G1 X117.999 Y79.571 E230.58079
G1 X115.071 Y82.499 E230.75688
G1 X100.104 Y82.499 E231.39326
G1 X99.999 Y82.604 E231.39957
G1 X99.999 Y104.571 E232.33360
G1 X97.071 Y107.499 E232.50969
G1 X72.929 Y107.499 E233.53618
G1 X70.001 Y104.571 E233.71227
G1 X70.001 Y82.664 E234.64375
G1 X70.342 Y82.263 F6000.000
G1 F1800
G1 X70.237 Y82.158 E234.65005
G1 X55.071 Y82.158 E235.29493
G1 X52.342 Y79.429 E235.45901
G1 X52.342 Y65.571 E236.04830
G1 X55.071 Y62.842 E236.21238
G1 X114.929 Y62.842 E238.75758
G1 X117.658 Y65.571 E238.92166
G1 X117.658 Y79.429 E239.51095
G1 X114.929 Y82.158 E239.67503
G1 X99.763 Y82.158 E240.31991
