; generated by Slic3r 1.3.0 on 2021-04-01 at 21:24:37

; external perimeters extrusion width = 0.44mm (5.63mm^3/s)
; perimeters extrusion width = 0.48mm (5.03mm^3/s)
; infill extrusion width = 0.48mm (6.28mm^3/s)
; solid infill extrusion width = 0.48mm (3.77mm^3/s)
; top infill extrusion width = 0.40mm (5.03mm^3/s)
; support material extrusion width = 0.44mm (7.89mm^3/s)

M107
M190 S100 ; set bed temperature and wait for it to be reached
M104 S240 ; set temperature
G28 ; home all axes
G1 Z5 F5000 ; lift nozzle

; Filament gcode

M109 S240 ; set temperature and wait for it to be reached
G21 ; set units to millimeters
G90 ; use absolute coordinates
M82 ; use absolute distances for extrusion
G92 E0
G1 E-6.00000 F2400.00000
G92 E0
G1 Z0.300 F4800.000
G1 X53.814 Y53.884 F4800.000
G1 E6.00000 F2400.00000
G1 F1800
G1 X54.848 Y52.902 E6.05972
G1 X55.784 Y52.101 E6.11128
G1 X56.915 Y51.231 E6.17101
G1 X57.649 Y50.718 E6.20850
G1 X58.678 Y50.059 E6.25965
G1 X59.918 Y49.352 E6.31939
G1 X61.018 Y48.799 E6.37093
G1 X62.324 Y48.225 E6.43067
G1 X63.475 Y47.788 E6.48221
G1 X64.834 Y47.352 E6.54195
G1 X65.689 Y47.119 E6.57904
G1 X66.890 Y46.845 E6.63059
G1 X68.295 Y46.600 E6.69029
G1 X69.185 Y46.486 E6.72785
G1 X70.401 Y46.381 E6.77896
G1 X71.827 Y46.332 E6.83870
G1 X98.173 Y46.332 E7.94152
G1 X99.598 Y46.381 E8.00121
G1 X100.481 Y46.451 E8.03830
G1 X101.362 Y46.552 E8.07540
G1 X102.238 Y46.683 E8.11250
G1 X103.109 Y46.845 E8.14958
G1 X103.976 Y47.036 E8.18673
G1 X105.166 Y47.352 E8.23827
G1 X106.012 Y47.614 E8.27537
G1 X106.849 Y47.905 E8.31246
G1 X107.676 Y48.225 E8.34956
G1 X108.982 Y48.799 E8.40929
G1 X109.777 Y49.192 E8.44639
G1 X110.557 Y49.612 E8.48349
G1 X111.322 Y50.059 E8.52058
G1 X112.072 Y50.532 E8.55768
G1 X113.085 Y51.231 E8.60922
G1 X113.793 Y51.764 E8.64631
G1 X114.482 Y52.321 E8.68341
G1 X115.151 Y52.902 E8.72050
G1 X116.186 Y53.884 E8.78022
G1 X117.034 Y54.777 E8.83178
G1 X117.961 Y55.861 E8.89149
G1 X118.713 Y56.837 E8.94306
G1 X119.523 Y58.011 E9.00275
G1 X119.993 Y58.763 E9.03988
G1 X120.603 Y59.833 E9.09144
G1 X121.244 Y61.108 E9.15118
G1 X121.740 Y62.235 E9.20272
G1 X122.246 Y63.569 E9.26245
G1 X122.525 Y64.420 E9.29995
G1 X122.858 Y65.596 E9.35109
G1 X123.176 Y66.987 E9.41083
G1 X123.387 Y68.200 E9.46238
G1 X123.559 Y69.617 E9.52210
G1 X123.644 Y70.845 E9.57365
G1 X123.671 Y72.001 E9.62207
G1 X123.669 Y98.269 E10.72164
G1 X123.644 Y99.153 E10.75867
G1 X123.588 Y100.050 E10.79627
G1 X123.462 Y101.264 E10.84737
G1 X123.334 Y102.141 E10.88446
G1 X123.176 Y103.013 E10.92156
G1 X122.988 Y103.879 E10.95866
G1 X122.770 Y104.738 E10.99576
G1 X122.357 Y106.104 E11.05549
G1 X122.063 Y106.940 E11.09258
G1 X121.740 Y107.765 E11.12968
G1 X121.244 Y108.892 E11.18122
G1 X120.854 Y109.688 E11.21832
G1 X120.169 Y110.940 E11.27805
G1 X119.710 Y111.697 E11.31515
G1 X119.224 Y112.438 E11.35224
G1 X118.713 Y113.163 E11.38934
G1 X117.962 Y114.138 E11.44088
G1 X117.393 Y114.818 E11.47798
G1 X116.801 Y115.477 E11.51508
G1 X116.186 Y116.116 E11.55217
G1 X115.152 Y117.098 E11.61188
G1 X114.482 Y117.678 E11.64898
G1 X113.519 Y118.447 E11.70055
G1 X112.361 Y119.276 E11.76020
G1 X111.616 Y119.760 E11.79737
G1 X110.557 Y120.388 E11.84892
G1 X109.294 Y121.051 E11.90860
G1 X108.175 Y121.566 E11.96020
G1 X106.849 Y122.095 E12.01993
G1 X105.684 Y122.492 E12.07147
G1 X104.311 Y122.881 E12.13121
G1 X103.438 Y123.086 E12.16874
G1 X102.239 Y123.316 E12.21985
G1 X100.826 Y123.513 E12.27959
G1 X99.599 Y123.619 E12.33113
G1 X98.173 Y123.668 E12.39087
G1 X71.827 Y123.668 E13.49369
G1 X70.942 Y123.647 E13.53078
G1 X70.057 Y123.595 E13.56788
G1 X69.174 Y123.513 E13.60497
G1 X67.762 Y123.317 E13.66466
G1 X66.890 Y123.155 E13.70180
G1 X66.024 Y122.964 E13.73890
G1 X64.834 Y122.648 E13.79044
G1 X63.987 Y122.386 E13.82754
G1 X62.646 Y121.904 E13.88720
G1 X61.826 Y121.567 E13.92434
G1 X61.018 Y121.201 E13.96147
G1 X60.224 Y120.809 E13.99852
G1 X59.443 Y120.388 E14.03566
G1 X58.678 Y119.941 E14.07275
G1 X57.928 Y119.468 E14.10985
G1 X56.915 Y118.769 E14.16139
G1 X56.207 Y118.236 E14.19848
G1 X55.518 Y117.679 E14.23558
G1 X54.849 Y117.098 E14.27267
G1 X53.814 Y116.116 E14.33241
G1 X52.966 Y115.223 E14.38395
G1 X52.038 Y114.138 E14.44369
G1 X51.287 Y113.162 E14.49523
G1 X50.477 Y111.989 E14.55494
G1 X49.830 Y110.940 E14.60651
G1 X49.146 Y109.689 E14.66622
G1 X48.756 Y108.892 E14.70333
G1 X48.260 Y107.765 E14.75489
G1 X47.754 Y106.431 E14.81462
G1 X47.477 Y105.589 E14.85172
G1 X47.142 Y104.404 E14.90326
G1 X46.824 Y103.013 E14.96297
G1 X46.613 Y101.800 E15.01454
G1 X46.441 Y100.384 E15.07426
G1 X46.356 Y99.155 E15.12582
G1 X46.329 Y97.999 E15.17424
G1 X46.331 Y71.734 E16.27369
G1 X46.356 Y70.845 E16.31090
G1 X46.411 Y69.961 E16.34800
G1 X46.498 Y69.068 E16.38553
G1 X46.666 Y67.859 E16.43663
G1 X46.824 Y66.987 E16.47373
G1 X47.012 Y66.121 E16.51082
G1 X47.377 Y64.743 E16.57050
G1 X47.643 Y63.896 E16.60766
G1 X47.937 Y63.060 E16.64475
G1 X48.394 Y61.917 E16.69630
G1 X48.756 Y61.108 E16.73339
G1 X49.146 Y60.312 E16.77049
G1 X49.563 Y59.530 E16.80758
G1 X50.007 Y58.763 E16.84468
G1 X50.477 Y58.012 E16.88178
G1 X51.287 Y56.838 E16.94147
G1 X51.823 Y56.132 E16.97859
G1 X52.382 Y55.445 E17.01568
G1 X52.965 Y54.778 E17.05275
G1 X53.772 Y53.927 E17.10183
G1 X54.053 Y54.120 F4800.000
G1 F1800
G1 X55.071 Y53.153 E17.16058
G1 X55.998 Y52.360 E17.21165
G1 X57.111 Y51.504 E17.27042
G1 X57.835 Y50.997 E17.30742
G1 X58.854 Y50.344 E17.35809
G1 X60.074 Y49.649 E17.41685
G1 X61.163 Y49.101 E17.46791
G1 X62.449 Y48.536 E17.52668
G1 X63.589 Y48.104 E17.57774
G1 X64.926 Y47.675 E17.63650
G1 X66.105 Y47.362 E17.68756
G1 X66.959 Y47.173 E17.72417
G1 X68.341 Y46.932 E17.78291
G1 X69.218 Y46.820 E17.81991
G1 X70.424 Y46.716 E17.87060
G1 X71.827 Y46.667 E17.92937
G1 X98.173 Y46.667 E19.03219
G1 X99.575 Y46.716 E19.09092
G1 X100.446 Y46.785 E19.12752
G1 X101.315 Y46.885 E19.16414
G1 X102.181 Y47.014 E19.20076
G1 X103.040 Y47.173 E19.23735
G1 X103.895 Y47.362 E19.27401
G1 X105.074 Y47.675 E19.32507
G1 X105.910 Y47.933 E19.36168
G1 X106.736 Y48.221 E19.39829
G1 X107.551 Y48.536 E19.43490
G1 X108.836 Y49.101 E19.49366
G1 X109.621 Y49.489 E19.53028
G1 X110.391 Y49.904 E19.56689
G1 X111.440 Y50.526 E19.61794
G1 X112.173 Y51.002 E19.65456
G1 X112.889 Y51.504 E19.69116
G1 X113.588 Y52.030 E19.72778
G1 X114.268 Y52.580 E19.76439
G1 X114.929 Y53.153 E19.80100
G1 X115.947 Y54.119 E19.85975
G1 X116.787 Y55.004 E19.91082
G1 X117.699 Y56.070 E19.96956
G1 X118.443 Y57.038 E20.02064
G1 X119.240 Y58.192 E20.07936
G1 X119.705 Y58.934 E20.11600
G1 X120.309 Y59.994 E20.16708
G1 X120.939 Y61.248 E20.22585
G1 X121.430 Y62.365 E20.27690
G1 X121.928 Y63.677 E20.33567
G1 X122.204 Y64.517 E20.37268
G1 X122.534 Y65.682 E20.42334
G1 X122.846 Y67.051 E20.48211
G1 X123.056 Y68.252 E20.53317
G1 X123.225 Y69.646 E20.59193
G1 X123.309 Y70.863 E20.64299
G1 X123.336 Y72.001 E20.69068
G1 X123.333 Y98.263 E21.79000
G1 X123.309 Y99.136 E21.82655
G1 X123.254 Y100.018 E21.86356
G1 X123.129 Y101.224 E21.91428
G1 X123.002 Y102.089 E21.95089
G1 X122.846 Y102.949 E21.98750
G1 X122.661 Y103.804 E22.02411
G1 X122.445 Y104.652 E22.06073
G1 X122.039 Y105.996 E22.11949
G1 X121.749 Y106.821 E22.15610
G1 X121.430 Y107.635 E22.19271
G1 X120.939 Y108.752 E22.24377
G1 X120.555 Y109.537 E22.28038
G1 X119.881 Y110.769 E22.33915
G1 X119.427 Y111.516 E22.37576
G1 X118.948 Y112.248 E22.41236
G1 X118.443 Y112.962 E22.44898
G1 X117.699 Y113.929 E22.50004
G1 X117.138 Y114.599 E22.53664
G1 X116.553 Y115.250 E22.57326
G1 X115.947 Y115.880 E22.60987
G1 X114.929 Y116.847 E22.66861
G1 X114.260 Y117.427 E22.70568
G1 X113.315 Y118.181 E22.75630
G1 X112.175 Y118.997 E22.81499
G1 X111.440 Y119.474 E22.85167
G1 X110.391 Y120.096 E22.90274
G1 X109.149 Y120.748 E22.96145
G1 X108.040 Y121.259 E23.01256
G1 X106.736 Y121.779 E23.07133
G1 X105.581 Y122.172 E23.12238
G1 X104.230 Y122.555 E23.18115
G1 X103.369 Y122.758 E23.21820
G1 X102.181 Y122.986 E23.26882
G1 X100.791 Y123.179 E23.32759
G1 X99.576 Y123.284 E23.37864
G1 X98.173 Y123.333 E23.43741
G1 X71.827 Y123.333 E24.54023
G1 X70.953 Y123.312 E24.57684
G1 X70.080 Y123.260 E24.61345
G1 X69.209 Y123.179 E24.65006
G1 X67.820 Y122.986 E24.70878
G1 X66.959 Y122.827 E24.74544
G1 X66.105 Y122.638 E24.78205
G1 X64.926 Y122.326 E24.83310
G1 X64.090 Y122.067 E24.86972
G1 X62.771 Y121.592 E24.92841
G1 X61.961 Y121.259 E24.96506
G1 X61.163 Y120.899 E25.00171
G1 X60.380 Y120.511 E25.03827
G1 X59.609 Y120.096 E25.07493
G1 X58.854 Y119.656 E25.11153
G1 X58.114 Y119.189 E25.14815
G1 X57.110 Y118.496 E25.19921
G1 X56.412 Y117.970 E25.23581
G1 X55.732 Y117.420 E25.27243
G1 X55.071 Y116.847 E25.30903
G1 X54.053 Y115.880 E25.36780
G1 X53.213 Y114.996 E25.41886
G1 X52.301 Y113.929 E25.47762
G1 X51.557 Y112.962 E25.52869
G1 X50.760 Y111.808 E25.58742
G1 X50.119 Y110.769 E25.63851
G1 X49.446 Y109.538 E25.69724
G1 X49.061 Y108.752 E25.73387
G1 X48.570 Y107.635 E25.78495
G1 X48.072 Y106.323 E25.84370
G1 X47.799 Y105.492 E25.88032
G1 X47.466 Y104.318 E25.93138
G1 X47.154 Y102.950 E25.99012
G1 X46.944 Y101.748 E26.04121
G1 X46.775 Y100.355 E26.09995
G1 X46.691 Y99.137 E26.15103
G1 X46.664 Y97.999 E26.19872
G1 X46.667 Y71.739 E27.29793
G1 X46.691 Y70.863 E27.33465
G1 X46.745 Y69.990 E27.37127
G1 X46.831 Y69.111 E27.40823
G1 X46.998 Y67.911 E27.45893
G1 X47.154 Y67.050 E27.49554
G1 X47.339 Y66.196 E27.53215
G1 X47.698 Y64.840 E27.59085
G1 X47.961 Y64.004 E27.62753
G1 X48.251 Y63.179 E27.66414
G1 X48.703 Y62.046 E27.71520
G1 X49.061 Y61.248 E27.75181
G1 X49.445 Y60.463 E27.78842
G1 X49.857 Y59.691 E27.82503
G1 X50.295 Y58.934 E27.86164
G1 X50.759 Y58.193 E27.89825
G1 X51.556 Y57.038 E27.95698
G1 X52.085 Y56.341 E27.99361
G1 X52.637 Y55.663 E28.03022
G1 X53.212 Y55.005 E28.06680
G1 X54.011 Y54.162 E28.11540
G1 F3840
G1 X54.431 Y53.749 E27.76554
G1 F3840
G1 X54.438 Y53.742 E27.75939
G1 F3840
G1 X54.438 Y53.742 E27.75932
G1 F3840
G1 X54.681 Y53.511 E27.56050
G1 F3840
G1 X55.071 Y53.153 E27.24630
G1 F3840
G1 X55.079 Y53.146 E27.24015
G1 F3840
G1 X55.079 Y53.146 E27.24001
G1 F3840
G1 X55.330 Y52.924 E27.04119
G1 F3840
G1 X55.732 Y52.580 E26.72709
G1 F3840
G1 X55.740 Y52.574 E26.72094
G1 F3840
G1 X55.740 Y52.573 E26.72068
G1 F3840
G1 X55.998 Y52.360 E26.52185
G1 F3840
G1 X56.410 Y52.031 E26.20878
G1 F3840
G1 X56.418 Y52.025 E26.20263
G1 F3840
G1 X56.420 Y52.024 E26.20138
G1 F3840
G1 X56.685 Y51.819 E26.00256
G1 F3840
G1 X57.111 Y51.504 E25.68823
G1 F3840
G1 X57.391 Y51.303 E25.48326
G1 F3840
G1 X57.826 Y51.003 E25.16956
G1 F3840
G1 X57.835 Y50.997 E25.16341
G1 F3840
G1 X57.835 Y50.996 E25.16280
G1 F3840
G1 X58.114 Y50.811 E24.96398
G1 F3840
G1 X58.560 Y50.525 E24.64961
G1 F3840
G1 X58.854 Y50.344 E24.44464
G1 F3840
G1 X59.309 Y50.075 E24.13062
G1 F3840
G1 X59.318 Y50.070 E24.12447
G1 F3840
G1 X59.318 Y50.069 E24.12419
G1 F3840
G1 X59.609 Y49.904 E23.92537
G1 F3840
G1 X60.074 Y49.649 E23.61103
G1 F3840
G1 X60.379 Y49.489 E23.40606
G1 F3840
G1 X60.852 Y49.251 E23.09173
G1 F3840
G1 X61.163 Y49.101 E22.88676
G1 F3840
G1 X61.644 Y48.880 E22.57241
G1 F3840
G1 X61.886 Y48.773 E22.41540
G1 E22.11540 F2400.00000
G92 E0
G1 X56.076 Y56.108 F4800.000
G1 E6.00000 F2400.00000
G1 F1800
G1 X56.712 Y55.494 E6.03761
G1 X57.455 Y54.836 E6.07980
G1 X58.501 Y54.002 E6.13668
G1 X59.307 Y53.424 E6.17885
G1 X59.957 Y52.997 E6.21191
G1 X61.107 Y52.315 E6.26878
G1 X61.986 Y51.854 E6.31097
G1 X63.201 Y51.294 E6.36785
G1 X64.123 Y50.926 E6.41006
G1 X65.389 Y50.495 E6.46691
G1 X66.344 Y50.225 E6.50912
G1 X67.099 Y50.042 E6.54216
G1 X68.412 Y49.790 E6.59900
G1 X69.394 Y49.654 E6.64116
G1 X70.728 Y49.538 E6.69808
G1 X71.720 Y49.504 E6.74028
G1 X72.496 Y49.508 E6.77328
G1 X73.390 Y49.546 E6.81135
G1 X74.605 Y49.653 E6.86319
G1 X75.375 Y49.757 E6.89622
G1 X76.140 Y49.886 E6.92924
G1 X76.901 Y50.043 E6.96228
G1 X77.657 Y50.225 E6.99531
G1 X78.611 Y50.495 E7.03751
G1 X79.350 Y50.737 E7.07056
G1 X80.079 Y51.003 E7.10356
G1 X81.313 Y51.520 E7.16042
G1 X82.014 Y51.854 E7.19345
G1 X82.704 Y52.211 E7.22648
G1 X83.566 Y52.703 E7.26867
G1 X84.225 Y53.113 E7.30170
G1 X84.943 Y53.599 E7.33853
G1 X85.057 Y53.599 E7.34342
G1 X85.957 Y52.997 E7.38943
G1 X87.107 Y52.315 E7.44630
G1 X87.986 Y51.854 E7.48849
G1 X88.688 Y51.520 E7.52156
G1 X89.921 Y51.003 E7.57839
G1 X90.855 Y50.667 E7.62059
G1 X92.135 Y50.280 E7.67746
G1 X92.889 Y50.091 E7.71049
G1 X93.859 Y49.886 E7.75267
G1 X95.181 Y49.680 E7.80954
G1 X96.168 Y49.577 E7.85173
G1 X96.944 Y49.527 E7.88479
G1 X98.280 Y49.504 E7.94164
G1 X99.272 Y49.538 E7.98382
G1 X100.164 Y49.608 E8.02187
G1 X101.375 Y49.757 E8.07374
G1 X102.140 Y49.886 E8.10676
G1 X102.901 Y50.043 E8.13980
G1 X103.657 Y50.225 E8.17283
G1 X104.611 Y50.495 E8.21502
G1 X105.350 Y50.737 E8.24808
G1 X106.079 Y51.003 E8.28108
G1 X107.313 Y51.520 E8.33794
G1 X108.014 Y51.854 E8.37097
G1 X108.704 Y52.211 E8.40400
G1 X109.566 Y52.703 E8.44619
G1 X110.225 Y53.113 E8.47922
G1 X110.870 Y53.547 E8.51225
G1 X111.944 Y54.344 E8.56911
G1 X112.545 Y54.836 E8.60214
G1 X113.129 Y55.348 E8.63516
G1 X113.848 Y56.031 E8.67735
G1 X114.769 Y57.001 E8.73424
G1 X115.414 Y57.755 E8.77641
G1 X115.896 Y58.365 E8.80946
G1 X116.674 Y59.452 E8.86632
G1 X117.210 Y60.288 E8.90851
G1 X117.603 Y60.958 E8.94157
G1 X118.224 Y62.142 E8.99842
G1 X118.639 Y63.044 E9.04064
G1 X119.135 Y64.286 E9.09750
G1 X119.455 Y65.225 E9.13967
G1 X119.706 Y66.084 E9.17772
G1 X119.996 Y67.269 E9.22959
G1 X120.183 Y68.245 E9.27183
G1 X120.367 Y69.569 E9.32868
G1 X120.453 Y70.558 E9.37089
G1 X120.499 Y71.894 E9.42773
G1 X120.482 Y72.885 E9.46989
G1 X120.438 Y73.660 E9.50289
G1 X120.367 Y74.435 E9.53596
G1 X120.270 Y75.205 E9.56898
G1 X120.146 Y75.972 E9.60203
G1 X119.970 Y76.849 E9.64007
G1 X119.676 Y78.033 E9.69193
G1 X119.455 Y78.778 E9.72495
G1 X119.208 Y79.514 E9.75798
G1 X118.856 Y80.442 E9.80017
G1 X118.552 Y81.157 E9.83322
G1 X118.224 Y81.861 E9.86622
G1 X117.872 Y82.553 E9.89924
G1 X117.496 Y83.233 E9.93228
G1 X117.096 Y83.899 E9.96533
G1 X116.403 Y84.944 E10.01865
G1 X116.403 Y85.056 E10.02339
G1 X117.210 Y86.285 E10.08590
G1 X117.872 Y87.447 E10.14279
G1 X118.318 Y88.334 E10.18499
G1 X118.639 Y89.041 E10.21803
G1 X119.135 Y90.283 E10.27489
G1 X119.455 Y91.222 E10.31706
G1 X119.706 Y92.081 E10.35511
G1 X119.996 Y93.266 E10.40698
G1 X120.183 Y94.242 E10.44922
G1 X120.367 Y95.566 E10.50606
G1 X120.438 Y96.339 E10.53908
G1 X120.489 Y97.331 E10.58133
G1 X120.489 Y98.667 E10.63813
G1 X120.438 Y99.657 E10.68027
G1 X120.367 Y100.432 E10.71335
G1 X120.183 Y101.757 E10.77024
G1 X120.040 Y102.520 E10.80325
G1 X119.871 Y103.278 E10.83629
G1 X119.617 Y104.238 E10.87849
G1 X119.389 Y104.981 E10.91154
G1 X118.936 Y106.238 E10.96838
G1 X118.639 Y106.956 E11.00142
G1 X118.318 Y107.663 E11.03443
G1 X117.972 Y108.359 E11.06746
G1 X117.603 Y109.042 E11.10049
G1 X117.210 Y109.712 E11.13352
G1 X116.794 Y110.368 E11.16655
G1 X116.230 Y111.185 E11.20874
G1 X115.764 Y111.807 E11.24178
G1 X114.912 Y112.837 E11.29863
G1 X114.390 Y113.412 E11.33166
G1 X113.848 Y113.969 E11.36467
G1 X113.129 Y114.652 E11.40686
G1 X112.545 Y115.164 E11.43989
G1 X111.943 Y115.656 E11.47294
G1 X111.230 Y116.196 E11.51096
G1 X110.225 Y116.887 E11.56282
G1 X109.566 Y117.298 E11.59586
G1 X108.893 Y117.685 E11.62889
G1 X108.015 Y118.146 E11.67104
G1 X107.312 Y118.480 E11.70412
G1 X106.598 Y118.790 E11.73720
G1 X105.349 Y119.264 E11.79400
G1 X104.611 Y119.505 E11.82703
G1 X103.865 Y119.720 E11.86006
G1 X102.902 Y119.957 E11.90221
G1 X102.140 Y120.114 E11.93530
G1 X101.375 Y120.243 E11.96828
G1 X100.603 Y120.347 E12.00138
G1 X99.272 Y120.462 E12.05820
G1 X98.280 Y120.496 E12.10039
G1 X96.943 Y120.473 E12.15727
