; generated by Slic3r 1.3.0 on 2021-04-25 at 16:10:43

; external perimeters extrusion width = 0.44mm (6.76mm^3/s)
; perimeters extrusion width = 0.48mm (7.54mm^3/s)
; infill extrusion width = 0.48mm (6.28mm^3/s)
; solid infill extrusion width = 0.48mm (3.77mm^3/s)
; top infill extrusion width = 0.40mm (7.05mm^3/s)
; support material extrusion width = 0.44mm (7.89mm^3/s)

M107
M190 S100 ; set bed temperature and wait for it to be reached
M104 S240 ; set temperature
G28 ; home all axes
G1 Z5 F5000 ; lift nozzle

; Filament gcode

M109 S240 ; set temperature and wait for it to be reached
G21 ; set units to millimeters
G90 ; use absolute coordinates
M82 ; use absolute distances for extrusion
G92 E0
G1 E-6.00000 F2400.00000
G92 E0
G1 Z0.300 F4800.000
G1 X50.859 Y61.125 F4800.000
G1 E6.00000 F2400.00000
G1 F1800
G1 X52.572 Y59.875 E6.08877
G1 X55.000 Y59.329 E6.19294
G1 X115.000 Y59.329 E8.70456
G1 X117.083 Y59.725 E8.79333
G1 X118.875 Y60.859 E8.88209
G1 X120.125 Y62.572 E8.97086
G1 X120.671 Y65.000 E9.07503
G1 X120.671 Y75.000 E9.49363
G1 X120.275 Y77.083 E9.58240
G1 X119.719 Y78.146 E9.63261
G1 X99.719 Y108.146 E11.14190
G1 X98.233 Y109.659 E11.23067
G1 X96.296 Y110.521 E11.31944
G1 X95.000 Y110.671 E11.37404
G1 X75.000 Y110.671 E12.21125
G1 X72.917 Y110.275 E12.30002
G1 X71.125 Y109.141 E12.38879
G1 X70.281 Y108.146 E12.44339
G1 X50.281 Y78.146 E13.95269
G1 X49.456 Y76.193 E14.04146
G1 X49.329 Y75.000 E14.09166
G1 X49.329 Y65.000 E14.51026
G1 X49.725 Y62.917 E14.59903
G1 X50.827 Y61.176 E14.68529
G1 X51.191 Y61.264 F4800.000
G1 F1800
G1 X52.886 Y60.101 E14.77137
G1 X55.000 Y59.664 E14.86172
G1 X115.000 Y59.664 E17.37334
G1 X117.018 Y60.061 E17.45942
G1 X118.736 Y61.191 E17.54550
G1 X119.899 Y62.886 E17.63157
G1 X120.336 Y65.000 E17.72192
G1 X120.336 Y75.000 E18.14053
G1 X119.939 Y77.018 E18.22661
G1 X119.440 Y77.960 E18.27124
G1 X99.440 Y107.960 E19.78054
G1 X97.991 Y109.419 E19.86661
G1 X96.097 Y110.222 E19.95269
G1 X95.000 Y110.336 E19.99888
G1 X75.000 Y110.336 E20.83608
G1 X72.982 Y109.939 E20.92216
G1 X71.264 Y108.809 E21.00824
G1 X70.560 Y107.960 E21.05442
G1 X50.560 Y77.960 E22.56372
G1 X49.771 Y76.061 E22.64980
G1 X49.664 Y75.000 E22.69443
G1 X49.664 Y65.000 E23.11304
G1 X50.061 Y62.982 E23.19912
G1 X51.158 Y61.314 E23.28268
G1 F3840
G1 X52.886 Y60.101 E22.02868
G1 F3840
G1 X55.000 Y59.664 E20.74716
G1 F3840
G1 X60.330 Y59.664 E17.58268
G1 E17.28268 F2400.00000
G92 E0
G1 X70.837 Y79.272 F4800.000
G1 E6.00000 F2400.00000
G1 F1800
G1 X70.728 Y79.163 E6.00692
G1 X53.276 Y79.163 E6.78431
G1 X50.837 Y76.724 E6.93791
G1 X50.837 Y63.276 E7.53697
G1 X53.276 Y60.837 E7.69058
G1 X116.724 Y60.837 E10.51688
G1 X119.163 Y63.276 E10.67049
G1 X119.163 Y76.724 E11.26954
G1 X116.724 Y79.163 E11.42315
G1 X99.272 Y79.163 E12.20054
G1 X99.163 Y79.272 E12.20746
G1 X99.163 Y106.724 E13.43029
G1 X96.724 Y109.163 E13.58390
G1 X73.276 Y109.163 E14.62840
G1 X70.837 Y106.724 E14.78201
G1 X70.837 Y79.332 E16.00217
G1 X71.195 Y78.915 F4800.000
G1 F1800
G1 X71.085 Y78.805 E16.00909
G1 X53.424 Y78.805 E16.79580
G1 X51.195 Y76.576 E16.93623
G1 X51.195 Y63.424 E17.52211
G1 X53.424 Y61.195 E17.66253
G1 X116.576 Y61.195 E20.47565
G1 X118.805 Y63.424 E20.61608
G1 X118.805 Y76.576 E21.20196
G1 X116.576 Y78.805 E21.34239
G1 X98.915 Y78.805 E22.12909
G1 X98.805 Y78.915 E22.13601
G1 X98.805 Y106.576 E23.36817
G1 X96.576 Y108.805 E23.50860
G1 X73.424 Y108.805 E24.53992
G1 X71.195 Y106.576 E24.68035
G1 X71.195 Y78.975 E25.90983
G1 X71.552 Y78.558 F4800.000
G1 F1800
G1 X71.442 Y78.448 E25.91675
G1 X53.572 Y78.448 E26.71278
G1 X51.552 Y76.428 E26.84003
G1 X51.552 Y63.572 E27.41272
G1 X53.572 Y61.552 E27.53997
G1 X116.428 Y61.552 E30.33991
G1 X118.448 Y63.572 E30.46716
G1 X118.448 Y76.428 E31.03986
G1 X116.428 Y78.448 E31.16711
G1 X98.558 Y78.448 E31.96314
G1 X98.448 Y78.558 E31.97005
G1 X98.448 Y106.428 E33.21153
G1 X96.428 Y108.448 E33.33878
G1 X73.572 Y108.448 E34.35692
G1 X71.552 Y106.428 E34.48417
G1 X71.552 Y78.618 E35.72297
G1 X71.909 Y78.201 F4800.000
G1 F1800
G1 X71.799 Y78.091 E35.72989
G1 X53.720 Y78.091 E36.53524
G1 X51.909 Y76.280 E36.64931
G1 X51.909 Y63.720 E37.20883
G1 X53.720 Y61.909 E37.32290
G1 X116.280 Y61.909 E40.10966
G1 X118.091 Y63.720 E40.22373
G1 X118.091 Y76.280 E40.78325
G1 X116.280 Y78.091 E40.89732
G1 X98.201 Y78.091 E41.70266
G1 X98.091 Y78.201 E41.70958
G1 X98.091 Y106.280 E42.96037
G1 X96.280 Y108.091 E43.07444
G1 X73.720 Y108.091 E44.07941
G1 X71.909 Y106.280 E44.19348
G1 X71.909 Y78.261 E45.44160
G1 X72.266 Y77.844 F4800.000
G1 F1800
G1 X72.156 Y77.734 E45.44852
G1 X53.868 Y77.734 E46.26318
G1 X52.266 Y76.132 E46.36407
G1 X52.266 Y63.868 E46.91041
G1 X53.868 Y62.266 E47.01130
G1 X116.132 Y62.266 E49.78488
G1 X117.734 Y63.868 E49.88578
G1 X117.734 Y76.132 E50.43212
G1 X116.132 Y77.734 E50.53301
G1 X97.844 Y77.734 E51.34767
G1 X97.734 Y77.844 E51.35459
G1 X97.734 Y106.132 E52.61470
G1 X96.132 Y107.734 E52.71559
G1 X73.868 Y107.734 E53.70738
G1 X72.266 Y106.132 E53.80827
G1 X72.266 Y77.904 E55.06571
G1 X72.623 Y77.487 F4800.000
G1 F1800
G1 X72.513 Y77.377 E55.07263
G1 X54.015 Y77.377 E55.89661
G1 X52.623 Y75.985 E55.98432
G1 X52.623 Y64.015 E56.51748
G1 X54.015 Y62.623 E56.60519
G1 X115.985 Y62.623 E59.36560
G1 X117.377 Y64.015 E59.45331
G1 X117.377 Y75.985 E59.98647
G1 X115.985 Y77.377 E60.07418
G1 X97.487 Y77.377 E60.89816
G1 X97.377 Y77.487 E60.90508
G1 X97.377 Y105.985 E62.17451
G1 X95.985 Y107.377 E62.26222
G1 X74.015 Y107.377 E63.24083
G1 X72.623 Y105.985 E63.32854
G1 X72.623 Y77.547 E64.59530
G1 X72.980 Y77.130 F4800.000
G1 F1800
G1 X72.870 Y77.020 E64.60222
G1 X54.163 Y77.020 E65.43552
G1 X52.980 Y75.837 E65.51005
G1 X52.980 Y64.163 E66.03004
G1 X54.163 Y62.980 E66.10457
G1 X115.837 Y62.980 E68.85179
G1 X117.020 Y64.163 E68.92632
G1 X117.020 Y75.837 E69.44630
G1 X115.837 Y77.020 E69.52084
G1 X97.130 Y77.020 E70.35414
G1 X97.020 Y77.130 E70.36106
G1 X97.020 Y105.837 E71.63981
G1 X95.837 Y107.020 E71.71434
G1 X74.163 Y107.020 E72.67977
G1 X72.980 Y105.837 E72.75430
G1 X72.980 Y77.190 E74.03038
G1 X73.337 Y76.772 F4800.000
G1 F1800
G1 X73.228 Y76.663 E74.03730
G1 X54.311 Y76.663 E74.87992
G1 X53.337 Y75.689 E74.94127
G1 X53.337 Y64.311 E75.44807
G1 X54.311 Y63.337 E75.50943
G1 X115.689 Y63.337 E78.24347
G1 X116.663 Y64.311 E78.30482
G1 X116.663 Y75.689 E78.81162
G1 X115.689 Y76.663 E78.87298
G1 X96.772 Y76.663 E79.71560
G1 X96.663 Y76.772 E79.72252
G1 X96.663 Y105.689 E81.01059
G1 X95.689 Y106.663 E81.07194
G1 X74.311 Y106.663 E82.02419
G1 X73.337 Y105.689 E82.08554
G1 X73.337 Y76.832 E83.37094
G1 X73.695 Y76.415 F4800.000
G1 F1800
G1 X73.585 Y76.305 E83.37786
G1 X54.459 Y76.305 E84.22980
G1 X53.695 Y75.541 E84.27797
G1 X53.695 Y64.459 E84.77159
G1 X54.459 Y63.695 E84.81977
G1 X115.541 Y63.695 E87.54063
G1 X116.305 Y64.459 E87.58880
G1 X116.305 Y75.541 E88.08243
G1 X115.541 Y76.305 E88.13060
G1 X96.415 Y76.305 E88.98254
G1 X96.305 Y76.415 E88.98946
G1 X96.305 Y105.541 E90.28685
G1 X95.541 Y106.305 E90.33502
G1 X74.459 Y106.305 E91.27409
G1 X73.695 Y105.541 E91.32227
G1 X73.695 Y76.475 E92.61698
G1 X74.052 Y76.058 F4800.000
G1 F1800
G1 X73.942 Y75.948 E92.62390
G1 X54.607 Y75.948 E93.48516
G1 X54.052 Y75.393 E93.52015
G1 X54.052 Y64.607 E94.00060
G1 X54.607 Y64.052 E94.03559
G1 X115.393 Y64.052 E96.74328
G1 X115.948 Y64.607 E96.77827
G1 X115.948 Y75.393 E97.25871
G1 X115.393 Y75.948 E97.29371
G1 X96.058 Y75.948 E98.15497
G1 X95.948 Y76.058 E98.16189
G1 X95.948 Y105.393 E99.46859
G1 X95.393 Y105.948 E99.50359
G1 X74.607 Y105.948 E100.42948
G1 X74.052 Y105.393 E100.46447
G1 X74.052 Y76.118 E101.76851
G1 X74.409 Y75.701 F4800.000
G1 F1800
G1 X74.299 Y75.591 E101.77543
G1 X54.755 Y75.591 E102.64601
G1 X54.409 Y75.245 E102.66782
G1 X54.409 Y64.755 E103.13508
G1 X54.755 Y64.409 E103.15690
G1 X115.245 Y64.409 E105.85140
G1 X115.591 Y64.755 E105.87322
G1 X115.591 Y75.245 E106.34048
G1 X115.245 Y75.591 E106.36230
G1 X95.701 Y75.591 E107.23288
G1 X95.591 Y75.701 E107.23980
G1 X95.591 Y105.245 E108.55582
G1 X95.245 Y105.591 E108.57764
G1 X74.755 Y105.591 E109.49035
G1 X74.409 Y105.245 E109.51217
G1 X74.409 Y75.761 E110.82552
G1 X74.766 Y75.344 F4800.000
G1 F1800
G1 X74.656 Y75.234 E110.83244
G1 X54.903 Y75.234 E111.71234
G1 X54.766 Y75.097 E111.72097
G1 X54.766 Y64.903 E112.17506
G1 X54.903 Y64.766 E112.18369
G1 X115.097 Y64.766 E114.86502
G1 X115.234 Y64.903 E114.87365
G1 X115.234 Y75.097 E115.32774
G1 X115.097 Y75.234 E115.33637
G1 X95.344 Y75.234 E116.21627
G1 X95.234 Y75.344 E116.22319
G1 X95.234 Y105.097 E117.54854
G1 X95.097 Y105.234 E117.55717
G1 X74.903 Y105.234 E118.45670
G1 X74.766 Y105.097 E118.46534
G1 X74.766 Y75.404 E119.78801
G1 F3840
G1 X74.656 Y75.234 E119.66792
G1 F3840
G1 X65.258 Y75.234 E114.08801
G1 E113.78801 F2400.00000
G92 E0
G1 X94.800 Y74.800 F4800.000
G1 E6.00000 F2400.00000
G1 F1800
G1 X94.800 Y104.800 E7.25581
G1 X75.200 Y104.800 E8.07627
G1 X75.200 Y74.800 E9.33208
G1 X55.200 Y74.800 E10.16929
G1 X55.200 Y65.200 E10.57115
G1 X114.800 Y65.200 E13.06602
G1 X114.800 Y74.800 E13.46788
G1 X94.860 Y74.800 E14.30257
G1 X94.404 Y74.859 F4800.000
G1 X94.464 Y74.464 F4800.000
G1 F1800
G1 X94.464 Y104.464 E15.55838
G1 X75.536 Y104.464 E16.35075
G1 X75.536 Y74.464 E17.60656
G1 X55.536 Y74.464 E18.44376
G1 X55.536 Y65.536 E18.81752
G1 X114.464 Y65.536 E21.28430
G1 X114.464 Y74.464 E21.65806
G1 X94.524 Y74.464 E22.49275
G1 X94.129 Y74.129 F4800.000
G1 F1800
G1 X94.129 Y104.129 E23.74856
G1 X75.871 Y104.129 E24.51283
G1 X75.871 Y74.129 E25.76864
G1 X55.871 Y74.129 E26.60584
G1 X55.871 Y65.871 E26.95151
G1 X114.129 Y65.871 E29.39018
G1 X114.129 Y74.129 E29.73585
G1 X94.189 Y74.129 E30.57054
G1 X93.639 Y73.974 F4800.000
G1 F1800
G1 X93.639 Y73.947 E30.57164
G1 X93.665 Y73.947 E30.57273
G1 X101.560 Y66.053 E31.04122
G1 X102.036 Y66.053 E31.06118
G1 X94.141 Y73.947 E31.52967
G1 X94.617 Y73.947 E31.54964
G1 X102.511 Y66.053 E32.01813
G1 X102.987 Y66.053 E32.03809
G1 X95.092 Y73.947 E32.50658
G1 X95.568 Y73.947 E32.52654
G1 X103.463 Y66.053 E32.99503
G1 X103.939 Y66.053 E33.01500
G1 X96.044 Y73.947 E33.48349
G1 X96.520 Y73.947 E33.50345
G1 X104.415 Y66.053 E33.97194
G1 X104.890 Y66.053 E33.99190
G1 X96.995 Y73.947 E34.46039
G1 X97.471 Y73.947 E34.48035
G1 X105.366 Y66.053 E34.94884
G1 X105.842 Y66.053 E34.96881
G1 X97.947 Y73.947 E35.43730
G1 X98.423 Y73.947 E35.45726
G1 X106.318 Y66.053 E35.92575
G1 X106.793 Y66.053 E35.94571
G1 X98.899 Y73.947 E36.41420
G1 X99.374 Y73.947 E36.43417
G1 X107.269 Y66.053 E36.90265
G1 X107.745 Y66.053 E36.92262
G1 X99.850 Y73.947 E37.39111
G1 X100.326 Y73.947 E37.41107
G1 X108.221 Y66.053 E37.87956
G1 X108.696 Y66.053 E37.89952
G1 X100.802 Y73.947 E38.36801
G1 X101.277 Y73.947 E38.38798
G1 X109.172 Y66.053 E38.85647
G1 X109.648 Y66.053 E38.87643
G1 X101.753 Y73.947 E39.34492
G1 X102.229 Y73.947 E39.36488
G1 X110.124 Y66.053 E39.83337
G1 X110.600 Y66.053 E39.85334
G1 X102.705 Y73.947 E40.32182
G1 X103.180 Y73.947 E40.34179
G1 X111.075 Y66.053 E40.81028
G1 X111.551 Y66.053 E40.83024
G1 X103.656 Y73.947 E41.29873
G1 X104.132 Y73.947 E41.31869
G1 X112.027 Y66.053 E41.78718
G1 X112.503 Y66.053 E41.80715
G1 X104.608 Y73.947 E42.27564
G1 X105.084 Y73.947 E42.29560
G1 X112.978 Y66.053 E42.76409
G1 X113.454 Y66.053 E42.78405
G1 X105.559 Y73.947 E43.25254
G1 X106.035 Y73.947 E43.27251
G1 X113.947 Y66.053 E43.74151
G1 X113.947 Y66.511 E43.76074
G1 X106.511 Y73.947 E44.20203
G1 X106.987 Y73.947 E44.22200
G1 X113.947 Y66.987 E44.63506
G1 X113.947 Y67.462 E44.65502
G1 X107.462 Y73.947 E45.03985
G1 X107.938 Y73.947 E45.05981
G1 X113.947 Y67.938 E45.41640
G1 X113.947 Y68.414 E45.43636
G1 X108.414 Y73.947 E45.76472
G1 X108.890 Y73.947 E45.78469
G1 X113.947 Y68.890 E46.08481
G1 X113.947 Y69.366 E46.10478
G1 X109.366 Y73.947 E46.37667
G1 X109.841 Y73.947 E46.39663
G1 X113.947 Y69.841 E46.64029
G1 X113.947 Y70.317 E46.66026
G1 X110.317 Y73.947 E46.87569
G1 X110.793 Y73.947 E46.89565
G1 X113.947 Y70.793 E47.08284
G1 X113.947 Y71.269 E47.10281
G1 X111.269 Y73.947 E47.26177
G1 X111.744 Y73.947 E47.28173
G1 X113.947 Y71.744 E47.41246
G1 X113.947 Y72.220 E47.43242
G1 X112.220 Y73.947 E47.53492
G1 X112.696 Y73.947 E47.55488
G1 X113.947 Y72.696 E47.62915
G1 X113.947 Y73.172 E47.64911
G1 X113.172 Y73.947 E47.69514
G1 F3840
G1 X113.947 Y73.172 E47.04381
G1 F3840
G1 X113.947 Y72.696 E46.76132
G1 F3840
G1 X112.696 Y73.947 E45.71050
G1 F3840
G1 X112.220 Y73.947 E45.42801
G1 F3840
G1 X113.947 Y72.220 E43.97768
G1 F3840
G1 X113.947 Y71.744 E43.69519
G1 F3840
G1 X111.923 Y73.769 E41.99514
G1 E41.69514 F2400.00000
G92 E0
G1 X114.000 Y74.000 F4800.000
G1 X110.000 Y70.000 F4800.000
G1 X94.000 Y70.000 F4800.000
G1 X86.000 Y74.000 F4800.000
G1 X85.000 Y75.000 F4800.000
G1 X85.000 Y95.000 F4800.000
G1 X94.000 Y104.000 F4800.000
G1 X93.639 Y103.947 F4800.000
G1 E6.00000 F2400.00000
G1 F1800
G1 X93.947 Y103.639 E6.01832
G1 X93.947 Y103.163 E6.03828
G1 X93.163 Y103.947 E6.08483
G1 X92.687 Y103.947 E6.10479
G1 X93.947 Y102.687 E6.17957
G1 X93.947 Y102.211 E6.19954
G1 X92.211 Y103.947 E6.30255
G1 X91.736 Y103.947 E6.32252
G1 X93.947 Y101.736 E6.45376
G1 X93.947 Y101.260 E6.47373
G1 X91.260 Y103.947 E6.63321
G1 X90.784 Y103.947 E6.65317
G1 X93.947 Y100.784 E6.84089
G1 X93.947 Y100.308 E6.86085
G1 X90.308 Y103.947 E7.07680
G1 X89.833 Y103.947 E7.09676
G1 X93.947 Y99.833 E7.34094
G1 X93.947 Y99.357 E7.36090
G1 X89.357 Y103.947 E7.63332
G1 X88.881 Y103.947 E7.65328
G1 X93.947 Y98.881 E7.95393
G1 X93.947 Y98.405 E7.97389
G1 X88.405 Y103.947 E8.30277
G1 X87.929 Y103.947 E8.32273
G1 X93.947 Y97.929 E8.67984
G1 X93.947 Y97.454 E8.69981
G1 X87.454 Y103.947 E9.08515
G1 X86.978 Y103.947 E9.10512
G1 X93.947 Y96.978 E9.51869
G1 X93.947 Y96.502 E9.53866
G1 X86.502 Y103.947 E9.98047
G1 X86.026 Y103.947 E10.00043
G1 X93.947 Y96.026 E10.47047
G1 X93.947 Y95.551 E10.49044
G1 X85.551 Y103.947 E10.98872
G1 X85.075 Y103.947 E11.00868
G1 X93.947 Y95.075 E11.53519
G1 X93.947 Y94.599 E11.55515
G1 X84.599 Y103.947 E12.10989
G1 X84.123 Y103.947 E12.12986
G1 X93.947 Y94.123 E12.71283
G1 X93.947 Y93.648 E12.73280
G1 X83.648 Y103.947 E13.34401
G1 X83.172 Y103.947 E13.36397
G1 X93.947 Y93.172 E14.00341
G1 X93.947 Y92.696 E14.02337
G1 X82.696 Y103.947 E14.69105
G1 X82.220 Y103.947 E14.71101
G1 X93.947 Y92.220 E15.40692
G1 X93.947 Y91.744 E15.42688
G1 X81.744 Y103.947 E16.15102
G1 X81.269 Y103.947 E16.17099
G1 X93.947 Y91.269 E16.92336
G1 X93.947 Y90.793 E16.94332
G1 X80.793 Y103.947 E17.72393
G1 X80.317 Y103.947 E17.74389
G1 X93.947 Y90.317 E18.55273
G1 X93.947 Y89.841 E18.57270
G1 X79.841 Y103.947 E19.40977
G1 X79.366 Y103.947 E19.42973
G1 X93.947 Y89.366 E20.29504
G1 X93.947 Y88.890 E20.31500
G1 X78.890 Y103.947 E21.20854
G1 X78.414 Y103.947 E21.22850
G1 X93.947 Y88.414 E22.15028
G1 X93.947 Y87.938 E22.17024
G1 X77.938 Y103.947 E23.12024
G1 X77.462 Y103.947 E23.14021
G1 X93.947 Y87.462 E24.11844
G1 X93.947 Y86.987 E24.13841
G1 X76.987 Y103.947 E25.14488
G1 X76.511 Y103.947 E25.16484
G1 X93.947 Y86.511 E26.19955
G1 X93.947 Y86.035 E26.21951
G1 X76.053 Y103.930 E27.28141
G1 X76.053 Y103.454 E27.30137
G1 X93.947 Y85.559 E28.36327
G1 X93.947 Y85.084 E28.38324
G1 X76.053 Y102.978 E29.44514
G1 X76.053 Y102.503 E29.46510
G1 X93.947 Y84.608 E30.52700
G1 X93.947 Y84.132 E30.54697
G1 X76.053 Y102.027 E31.60887
G1 X76.053 Y101.551 E31.62883
G1 X93.947 Y83.656 E32.69073
G1 X93.947 Y83.180 E32.71069
G1 X76.053 Y101.075 E33.77259
G1 X76.053 Y100.600 E33.79256
G1 X93.947 Y82.705 E34.85446
G1 X93.947 Y82.229 E34.87442
G1 X76.053 Y100.124 E35.93632
G1 X76.053 Y99.648 E35.95629
G1 X93.947 Y81.753 E37.01819
