; generated by Slic3r 1.3.0 on 2021-04-11 at 10:24:57

; external perimeters extrusion width = 0.44mm (6.76mm^3/s)
; perimeters extrusion width = 0.48mm (7.54mm^3/s)
; infill extrusion width = 0.48mm (6.28mm^3/s)
; solid infill extrusion width = 0.48mm (3.77mm^3/s)
; top infill extrusion width = 0.40mm (7.05mm^3/s)
; support material extrusion width = 0.44mm (7.89mm^3/s)

M107
M190 S100 ; set bed temperature and wait for it to be reached
M104 S240 ; set temperature
G28 ; home all axes
G1 Z5 F5000 ; lift nozzle

; Filament gcode

M109 S240 ; set temperature and wait for it to be reached
G21 ; set units to millimeters
G90 ; use absolute coordinates
M82 ; use absolute distances for extrusion
G92 E0
G1 E-6.00000 F2400.00000
G92 E0
G1 Z0.300 F6000.000
G1 X30.919 Y38.919 F6000.000
G1 E6.00000 F2400.00000
G1 F1800
G1 X33.684 Y36.717 E6.14798
G1 X36.873 Y35.191 E6.29596
G1 X42.000 Y34.329 E6.51358
G1 X128.000 Y34.329 E10.11357
G1 X131.513 Y34.727 E10.26155
G1 X134.846 Y35.903 E10.40953
G1 X139.081 Y38.919 E10.62715
G1 X141.081 Y40.919 E10.74555
G1 X143.283 Y43.684 E10.89353
G1 X144.809 Y46.873 E11.04151
G1 X145.671 Y52.000 E11.25913
G1 X145.671 Y118.000 E14.02191
G1 X145.273 Y121.513 E14.16989
G1 X144.097 Y124.846 E14.31787
G1 X141.081 Y129.081 E14.53549
G1 X139.081 Y131.081 E14.65389
G1 X136.316 Y133.283 E14.80187
G1 X133.127 Y134.809 E14.94985
G1 X128.000 Y135.671 E15.16747
G1 X42.000 Y135.671 E18.76746
G1 X38.487 Y135.273 E18.91544
G1 X35.154 Y134.097 E19.06342
G1 X30.919 Y131.081 E19.28104
G1 X28.919 Y129.081 E19.39944
G1 X26.717 Y126.316 E19.54742
G1 X25.191 Y123.127 E19.69540
G1 X24.329 Y118.000 E19.91302
G1 X24.329 Y52.000 E22.67580
G1 X24.727 Y48.487 E22.82378
G1 X25.903 Y45.154 E22.97176
G1 X28.919 Y40.919 E23.18938
G1 X30.876 Y38.961 E23.30527
G1 X31.156 Y39.156 F6000.000
G1 F1800
G1 X33.895 Y36.981 E23.45165
G1 X37.055 Y35.484 E23.59804
G1 X42.000 Y34.664 E23.80788
G1 X128.000 Y34.664 E27.40786
G1 X131.474 Y35.063 E27.55425
G1 X134.768 Y36.238 E27.70063
G1 X138.844 Y39.156 E27.91047
G1 X140.844 Y41.156 E28.02887
G1 X143.019 Y43.895 E28.17525
G1 X144.516 Y47.055 E28.32163
G1 X145.336 Y52.000 E28.53147
G1 X145.336 Y118.000 E31.29425
G1 X144.937 Y121.474 E31.44064
G1 X143.762 Y124.768 E31.58702
G1 X140.844 Y128.844 E31.79686
G1 X138.844 Y130.844 E31.91526
G1 X136.105 Y133.019 E32.06164
G1 X132.945 Y134.516 E32.20802
G1 X128.000 Y135.336 E32.41786
G1 X42.000 Y135.336 E36.01785
G1 X38.526 Y134.937 E36.16423
G1 X35.232 Y133.762 E36.31062
G1 X31.156 Y130.844 E36.52046
G1 X29.156 Y128.844 E36.63886
G1 X26.981 Y126.105 E36.78524
G1 X25.484 Y122.945 E36.93162
G1 X24.664 Y118.000 E37.14146
G1 X24.664 Y52.000 E39.90424
G1 X25.063 Y48.526 E40.05062
G1 X26.238 Y45.232 E40.19701
G1 X29.156 Y41.156 E40.40684
G1 X31.114 Y39.198 E40.52273
G1 F4800
G1 X33.895 Y36.981 E38.83338
G1 F4800
G1 X37.055 Y35.484 E37.17234
G1 F4800
G1 X41.935 Y34.675 E34.82273
G1 E34.52273 F2400.00000
G92 E0
G1 X33.162 Y41.162 F6000.000
G1 E6.00000 F2400.00000
G1 F1800
G1 X34.920 Y39.404 E6.10571
G1 X39.514 Y37.501 E6.31714
G1 X130.486 Y37.501 E10.18529
G1 X135.080 Y39.404 E10.39672
G1 X140.596 Y44.920 E10.72842
G1 X142.499 Y49.514 E10.93984
G1 X142.499 Y120.486 E13.95759
G1 X140.596 Y125.080 E14.16902
G1 X135.080 Y130.596 E14.50072
G1 X130.486 Y132.499 E14.71214
G1 X39.514 Y132.499 E18.58030
G1 X34.920 Y130.596 E18.79172
G1 X29.404 Y125.080 E19.12342
G1 X27.501 Y120.486 E19.33484
G1 X27.501 Y49.514 E22.35259
G1 X29.404 Y44.920 E22.56402
G1 X33.119 Y41.204 E22.78745
G1 X33.403 Y41.403 F6000.000
G1 F1800
G1 X35.113 Y39.693 E22.89028
G1 X39.582 Y37.842 E23.09594
G1 X130.418 Y37.842 E26.95833
G1 X134.887 Y39.693 E27.16399
G1 X140.307 Y45.113 E27.48992
G1 X142.158 Y49.582 E27.69558
G1 X142.158 Y120.418 E30.70756
G1 X140.307 Y124.887 E30.91322
G1 X134.887 Y130.307 E31.23915
G1 X130.418 Y132.158 E31.44481
G1 X39.582 Y132.158 E35.30720
G1 X35.113 Y130.307 E35.51286
G1 X29.693 Y124.887 E35.83879
G1 X27.842 Y120.418 E36.04445
G1 X27.842 Y49.582 E39.05643
G1 X29.693 Y45.113 E39.26209
G1 X33.360 Y41.445 E39.48264
G1 X33.644 Y41.644 F6000.000
G1 F1800
G1 X35.306 Y39.982 E39.58258
G1 X39.649 Y38.183 E39.78248
G1 X130.351 Y38.183 E43.63910
G1 X134.694 Y39.982 E43.83899
G1 X140.018 Y45.306 E44.15915
G1 X141.817 Y49.649 E44.35905
G1 X141.817 Y120.351 E47.36526
G1 X140.018 Y124.694 E47.56516
G1 X134.694 Y130.018 E47.88532
G1 X130.351 Y131.817 E48.08521
G1 X39.649 Y131.817 E51.94183
G1 X35.306 Y130.018 E52.14173
G1 X29.982 Y124.694 E52.46189
G1 X28.183 Y120.351 E52.66178
G1 X28.183 Y49.649 E55.66800
G1 X29.982 Y45.306 E55.86789
G1 X33.602 Y41.686 E56.08556
G1 X33.885 Y41.885 F6000.000
G1 F1800
G1 X35.499 Y40.271 E56.18262
G1 X39.717 Y38.524 E56.37675
G1 X130.283 Y38.524 E60.22760
G1 X134.501 Y40.271 E60.42173
G1 X139.729 Y45.499 E60.73612
G1 X141.476 Y49.717 E60.93025
G1 X141.476 Y120.283 E63.93070
G1 X139.729 Y124.501 E64.12483
G1 X134.501 Y129.729 E64.43922
G1 X130.283 Y131.476 E64.63335
G1 X39.717 Y131.476 E68.48420
G1 X35.499 Y129.729 E68.67833
G1 X30.271 Y124.501 E68.99272
G1 X28.524 Y120.283 E69.18685
G1 X28.524 Y49.717 E72.18730
G1 X30.271 Y45.499 E72.38143
G1 X33.843 Y41.927 E72.59621
G1 X34.126 Y42.126 F6000.000
G1 F1800
G1 X35.692 Y40.560 E72.69039
G1 X39.785 Y38.865 E72.87875
G1 X130.215 Y38.865 E76.72384
G1 X134.308 Y40.560 E76.91220
G1 X139.440 Y45.692 E77.22082
G1 X141.135 Y49.785 E77.40918
G1 X141.135 Y120.215 E80.40387
G1 X139.440 Y124.308 E80.59223
G1 X134.308 Y129.440 E80.90086
G1 X130.215 Y131.135 E81.08922
G1 X39.785 Y131.135 E84.93430
G1 X35.692 Y129.440 E85.12267
G1 X30.560 Y124.308 E85.43129
G1 X28.865 Y120.215 E85.61965
G1 X28.865 Y49.785 E88.61434
G1 X30.560 Y45.692 E88.80270
G1 X34.084 Y42.169 E89.01459
G1 X34.367 Y42.367 F6000.000
G1 F1800
G1 X35.885 Y40.849 E89.10589
G1 X39.853 Y39.206 E89.28849
G1 X130.147 Y39.206 E93.12780
G1 X134.115 Y40.849 E93.31040
G1 X139.151 Y45.885 E93.61326
G1 X140.794 Y49.853 E93.79585
G1 X140.794 Y120.147 E96.78477
G1 X139.151 Y124.115 E96.96737
G1 X134.115 Y129.151 E97.27023
G1 X130.147 Y130.794 E97.45282
G1 X39.853 Y130.794 E101.29214
G1 X35.885 Y129.151 E101.47473
G1 X30.849 Y124.115 E101.77759
G1 X29.206 Y120.147 E101.96019
G1 X29.206 Y49.853 E104.94911
G1 X30.849 Y45.885 E105.13170
G1 X34.325 Y42.410 E105.34071
G1 X34.608 Y42.608 F6000.000
G1 F1800
G1 X36.079 Y41.138 E105.42913
G1 X39.921 Y39.546 E105.60595
G1 X130.079 Y39.546 E109.43951
G1 X133.921 Y41.138 E109.61633
G1 X138.862 Y46.079 E109.91343
G1 X140.454 Y49.921 E110.09026
G1 X140.454 Y120.079 E113.07341
G1 X138.862 Y123.921 E113.25024
G1 X133.921 Y128.862 E113.54733
G1 X130.079 Y130.454 E113.72416
G1 X39.921 Y130.454 E117.55771
G1 X36.079 Y128.862 E117.73454
G1 X31.138 Y123.921 E118.03163
G1 X29.546 Y120.079 E118.20846
G1 X29.546 Y49.921 E121.19161
G1 X31.138 Y46.079 E121.36843
G1 X34.566 Y42.651 E121.57457
G1 X34.849 Y42.849 F6000.000
G1 F1800
G1 X36.272 Y41.427 E121.66010
G1 X39.988 Y39.887 E121.83116
G1 X130.012 Y39.887 E125.65894
G1 X133.728 Y41.427 E125.83000
G1 X138.573 Y46.272 E126.12133
G1 X140.113 Y49.988 E126.29239
G1 X140.113 Y120.012 E129.26978
G1 X138.573 Y123.728 E129.44084
G1 X133.728 Y128.573 E129.73216
G1 X130.012 Y130.113 E129.90323
G1 X39.988 Y130.113 E133.73101
G1 X36.272 Y128.573 E133.90207
G1 X31.427 Y123.728 E134.19340
G1 X29.887 Y120.012 E134.36446
G1 X29.887 Y49.988 E137.34184
G1 X31.427 Y46.272 E137.51290
G1 X34.807 Y42.892 E137.71615
G1 X35.090 Y43.090 F6000.000
G1 F1800
G1 X36.465 Y41.716 E137.79880
G1 X40.056 Y40.228 E137.96409
G1 X129.944 Y40.228 E141.78611
G1 X133.535 Y41.716 E141.95141
G1 X138.284 Y46.465 E142.23697
G1 X139.772 Y50.056 E142.40226
G1 X139.772 Y119.944 E145.37388
G1 X138.284 Y123.535 E145.53917
G1 X133.535 Y128.284 E145.82473
G1 X129.944 Y129.772 E145.99003
G1 X40.056 Y129.772 E149.81205
G1 X36.465 Y128.284 E149.97734
G1 X31.716 Y123.535 E150.26290
G1 X30.228 Y119.944 E150.42820
G1 X30.228 Y50.056 E153.39981
G1 X31.716 Y46.465 E153.56511
G1 X35.048 Y43.133 E153.76547
G1 X35.331 Y43.331 F6000.000
G1 F1800
G1 X36.658 Y42.005 E153.84524
G1 X40.124 Y40.569 E154.00476
G1 X129.876 Y40.569 E157.82102
G1 X133.342 Y42.005 E157.98054
G1 X137.995 Y46.658 E158.26034
G1 X139.431 Y50.124 E158.41986
G1 X139.431 Y119.876 E161.38572
G1 X137.995 Y123.342 E161.54524
G1 X133.342 Y127.995 E161.82504
G1 X129.876 Y129.431 E161.98457
G1 X40.124 Y129.431 E165.80082
G1 X36.658 Y127.995 E165.96035
G1 X32.005 Y123.342 E166.24014
G1 X30.569 Y119.876 E166.39967
G1 X30.569 Y50.124 E169.36552
G1 X32.005 Y46.658 E169.52504
G1 X35.289 Y43.374 E169.72252
G1 X35.572 Y43.572 F6000.000
G1 F1800
G1 X36.851 Y42.294 E169.79941
G1 X40.192 Y40.910 E169.95317
G1 X129.808 Y40.910 E173.76365
G1 X133.149 Y42.294 E173.91741
G1 X137.706 Y46.851 E174.19144
G1 X139.090 Y50.192 E174.34520
G1 X139.090 Y119.808 E177.30529
G1 X137.706 Y123.149 E177.45905
G1 X133.149 Y127.706 E177.73307
G1 X129.808 Y129.090 E177.88684
G1 X40.192 Y129.090 E181.69732
G1 X36.851 Y127.706 E181.85108
G1 X32.294 Y123.149 E182.12511
G1 X30.910 Y119.808 E182.27887
G1 X30.910 Y50.192 E185.23895
G1 X32.294 Y46.851 E185.39271
G1 X35.530 Y43.615 E185.58731
G1 X35.813 Y43.813 F6000.000
G1 F1800
G1 X37.044 Y42.583 E185.66131
G1 X40.260 Y41.251 E185.80930
G1 X129.740 Y41.251 E189.61402
G1 X132.956 Y42.583 E189.76202
G1 X137.417 Y47.044 E190.03028
G1 X138.749 Y50.260 E190.17827
G1 X138.749 Y119.740 E193.13259
G1 X137.417 Y122.956 E193.28058
G1 X132.956 Y127.417 E193.54884
G1 X129.740 Y128.749 E193.69684
G1 X40.260 Y128.749 E197.50156
G1 X37.044 Y127.417 E197.64955
G1 X32.583 Y122.956 E197.91781
G1 X31.251 Y119.740 E198.06581
G1 X31.251 Y50.260 E201.02012
G1 X32.583 Y47.044 E201.16812
G1 X35.771 Y43.856 E201.35983
G1 X36.055 Y44.055 F6000.000
G1 F1800
G1 X37.237 Y42.872 E201.43095
G1 X40.328 Y41.592 E201.57317
G1 X129.672 Y41.592 E205.37213
G1 X132.763 Y42.872 E205.51435
G1 X137.128 Y47.237 E205.77685
G1 X138.408 Y50.328 E205.91907
G1 X138.408 Y119.672 E208.86763
G1 X137.128 Y122.763 E209.00985
G1 X132.763 Y127.128 E209.27235
G1 X129.672 Y128.408 E209.41458
G1 X40.328 Y128.408 E213.21353
G1 X37.237 Y127.128 E213.35576
G1 X32.872 Y122.763 E213.61825
G1 X31.592 Y119.672 E213.76048
G1 X31.592 Y50.328 E216.70903
G1 X32.872 Y47.237 E216.85125
G1 X36.012 Y44.097 E217.04008
G1 X36.296 Y44.296 F6000.000
G1 F1800
G1 X37.430 Y43.161 E217.10832
G1 X40.395 Y41.933 E217.24478
G1 X129.605 Y41.933 E221.03796
G1 X132.570 Y43.161 E221.17442
G1 X136.839 Y47.430 E221.43115
G1 X138.067 Y50.395 E221.56761
G1 X138.067 Y119.605 E224.51040
G1 X136.839 Y122.570 E224.64686
G1 X132.570 Y126.839 E224.90358
G1 X129.605 Y128.067 E225.04005
G1 X40.395 Y128.067 E228.83323
G1 X37.430 Y126.839 E228.96969
G1 X33.161 Y122.570 E229.22642
G1 X31.933 Y119.605 E229.36288
G1 X31.933 Y50.395 E232.30567
G1 X33.161 Y47.430 E232.44212
G1 X36.253 Y44.338 E232.62807
G1 X36.537 Y44.537 F6000.000
G1 F1800
G1 X37.623 Y43.450 E232.69342
G1 X40.463 Y42.274 E232.82411
G1 X129.537 Y42.274 E236.61153
G1 X132.377 Y43.450 E236.74223
G1 X136.550 Y47.623 E236.99319
G1 X137.726 Y50.463 E237.12388
G1 X137.726 Y119.537 E240.06090
G1 X136.550 Y122.377 E240.19160
G1 X132.377 Y126.550 E240.44256
G1 X129.537 Y127.726 E240.57325
G1 X40.463 Y127.726 E244.36067
G1 X37.623 Y126.550 E244.49136
G1 X33.450 Y122.377 E244.74232
G1 X32.274 Y119.537 E244.87302
G1 X32.274 Y50.463 E247.81004
G1 X33.450 Y47.623 E247.94073
G1 X36.494 Y44.579 E248.12379
G1 X36.778 Y44.778 F6000.000
G1 F1800
G1 X37.817 Y43.739 E248.18626
G1 X40.531 Y42.615 E248.31118
G1 X129.469 Y42.615 E252.09284
G1 X132.183 Y43.739 E252.21776
G1 X136.261 Y47.817 E252.46296
G1 X137.385 Y50.531 E252.58789
G1 X137.385 Y119.469 E255.51914
G1 X136.261 Y122.183 E255.64407
G1 X132.183 Y126.261 E255.88926
G1 X129.469 Y127.385 E256.01419
G1 X40.531 Y127.385 E259.79584
G1 X37.817 Y126.261 E259.92077
G1 X33.739 Y122.183 E260.16596
G1 X32.615 Y119.469 E260.29089
G1 X32.615 Y50.531 E263.22214
G1 X33.739 Y47.817 E263.34707
G1 X36.735 Y44.820 E263.52725
G1 X37.019 Y45.019 F6000.000
G1 F1800
G1 X38.010 Y44.028 E263.58683
G1 X40.599 Y42.956 E263.70599
G1 X129.401 Y42.956 E267.48187
G1 X131.990 Y44.028 E267.60104
G1 X135.972 Y48.010 E267.84046
G1 X137.044 Y50.599 E267.95962
G1 X137.044 Y119.401 E270.88511
G1 X135.972 Y121.990 E271.00427
G1 X131.990 Y125.972 E271.24370
G1 X129.401 Y127.044 E271.36286
G1 X40.599 Y127.044 E275.13874
G1 X38.010 Y125.972 E275.25791
G1 X34.028 Y121.990 E275.49733
G1 X32.956 Y119.401 E275.61649
G1 X32.956 Y50.599 E278.54198
G1 X34.028 Y48.010 E278.66114
G1 X36.976 Y45.061 E278.83843
G1 X37.260 Y45.260 F6000.000
G1 F1800
G1 X38.203 Y44.317 E278.89513
G1 X40.667 Y43.296 E279.00853
G1 X129.333 Y43.296 E282.77865
G1 X131.797 Y44.317 E282.89204
G1 X135.683 Y48.203 E283.12570
G1 X136.704 Y50.667 E283.23910
G1 X136.704 Y119.333 E286.15881
G1 X135.683 Y121.797 E286.27221
G1 X131.797 Y125.683 E286.50587
G1 X129.333 Y126.704 E286.61926
G1 X40.667 Y126.704 E290.38938
G1 X38.203 Y125.683 E290.50278
G1 X34.317 Y121.797 E290.73644
G1 X33.296 Y119.333 E290.84983
G1 X33.296 Y50.667 E293.76955
G1 X34.317 Y48.203 E293.88294
G1 X37.217 Y45.302 E294.05736
G1 X37.501 Y45.501 F6000.000
G1 F1800
G1 X38.396 Y44.606 E294.11117
G1 X40.734 Y43.637 E294.21880
G1 X129.266 Y43.637 E297.98315
G1 X131.604 Y44.606 E298.09078
G1 X135.394 Y48.396 E298.31867
G1 X136.363 Y50.734 E298.42630
G1 X136.363 Y119.266 E301.34025
G1 X135.394 Y121.604 E301.44788
G1 X131.604 Y125.394 E301.67577
G1 X129.266 Y126.363 E301.78340
G1 X40.734 Y126.363 E305.54775
G1 X38.396 Y125.394 E305.65538
G1 X34.606 Y121.604 E305.88327
G1 X33.637 Y119.266 E305.99090
G1 X33.637 Y50.734 E308.90485
G1 X34.606 Y48.396 E309.01248
G1 X37.458 Y45.543 E309.18401
G1 X37.742 Y45.742 F6000.000
G1 F1800
G1 X38.589 Y44.895 E309.23494
G1 X40.802 Y43.978 E309.33680
G1 X129.198 Y43.978 E313.09539
G1 X131.411 Y44.895 E313.19725
G1 X135.105 Y48.589 E313.41938
G1 X136.022 Y50.802 E313.52124
G1 X136.022 Y119.198 E316.42942
G1 X135.105 Y121.411 E316.53128
G1 X131.411 Y125.105 E316.75341
G1 X129.198 Y126.022 E316.85527
G1 X40.802 Y126.022 E320.61386
G1 X38.589 Y125.105 E320.71572
G1 X34.895 Y121.411 E320.93785
G1 X33.978 Y119.198 E321.03971
G1 X33.978 Y50.802 E323.94789
G1 X34.895 Y48.589 E324.04975
G1 X37.700 Y45.784 E324.21840
G1 X37.983 Y45.983 F6000.000
G1 F1800
G1 X38.782 Y45.184 E324.26645
G1 X40.870 Y44.319 E324.36254
G1 X129.130 Y44.319 E328.11536
G1 X131.218 Y45.184 E328.21145
G1 X134.816 Y48.782 E328.42781
G1 X135.681 Y50.870 E328.52391
G1 X135.681 Y119.130 E331.42633
G1 X134.816 Y121.218 E331.52242
G1 X131.218 Y124.816 E331.73878
G1 X129.130 Y125.681 E331.83488
G1 X40.870 Y125.681 E335.58770
G1 X38.782 Y124.816 E335.68379
G1 X35.184 Y121.218 E335.90015
G1 X34.319 Y119.130 E335.99625
G1 X34.319 Y50.870 E338.89866
G1 X35.184 Y48.782 E338.99476
G1 X37.941 Y46.025 E339.16052
G1 X38.224 Y46.224 F6000.000
G1 F1800
G1 X38.975 Y45.473 E339.20568
G1 X40.938 Y44.660 E339.29601
G1 X129.062 Y44.660 E343.04306
G1 X131.025 Y45.473 E343.13339
G1 X134.527 Y48.975 E343.34399
G1 X135.340 Y50.938 E343.43431
G1 X135.340 Y119.062 E346.33097
G1 X134.527 Y121.025 E346.42129
G1 X131.025 Y124.527 E346.63189
G1 X129.062 Y125.340 E346.72222
G1 X40.938 Y125.340 E350.46927
G1 X38.975 Y124.527 E350.55960
G1 X35.473 Y121.025 E350.77019
G1 X34.660 Y119.062 E350.86052
G1 X34.660 Y50.938 E353.75717
G1 X35.473 Y48.975 E353.84750
G1 X38.182 Y46.267 E354.01038
G1 X38.465 Y46.465 F6000.000
G1 F1800
G1 X39.168 Y45.762 E354.05266
G1 X41.006 Y45.001 E354.13722
G1 X128.994 Y45.001 E357.87850
G1 X130.832 Y45.762 E357.96306
G1 X134.238 Y49.168 E358.16789
