; generated by Slic3r 1.3.0 on 2021-04-24 at 16:35:20

; external perimeters extrusion width = 0.44mm (6.76mm^3/s)
; perimeters extrusion width = 0.48mm (7.54mm^3/s)
; infill extrusion width = 0.48mm (6.28mm^3/s)
; solid infill extrusion width = 0.48mm (3.77mm^3/s)
; top infill extrusion width = 0.40mm (7.05mm^3/s)
; support material extrusion width = 0.44mm (7.89mm^3/s)

M107
M190 S100 ; set bed temperature and wait for it to be reached
M104 S240 ; set temperature
G28 ; home all axes
G1 Z5 F5000 ; lift nozzle

; Filament gcode

M109 S240 ; set temperature and wait for it to be reached
G21 ; set units to millimeters
G90 ; use absolute coordinates
M82 ; use absolute distances for extrusion
G92 E0
G1 E-6.00000 F2400.00000
G92 E0
G1 Z0.300 F4800.000
G1 X32.572 Y69.875 F4800.000
G1 E6.00000 F2400.00000
G1 F1800
G1 X35.000 Y69.329 E6.10417
G1 X135.000 Y69.329 E10.29020
G1 X137.083 Y69.725 E10.37897
G1 X138.875 Y70.859 E10.46774
G1 X140.125 Y72.572 E10.55651
G1 X140.671 Y75.000 E10.66067
G1 X140.671 Y93.000 E11.41416
G1 X140.275 Y95.083 E11.50293
G1 X139.011 Y97.009 E11.59936
G1 X137.010 Y99.010 E11.71781
G1 X135.257 Y100.203 E11.80658
G1 X133.000 Y100.671 E11.90306
G1 X37.000 Y100.671 E15.92165
G1 X34.917 Y100.275 E16.01042
G1 X32.990 Y99.010 E16.10690
G1 X30.990 Y97.010 E16.22530
G1 X29.797 Y95.257 E16.31407
G1 X29.329 Y93.000 E16.41055
G1 X29.329 Y75.000 E17.16404
G1 X29.725 Y72.917 E17.25281
G1 X30.859 Y71.125 E17.34158
G1 X32.524 Y69.910 E17.42784
G1 X32.886 Y70.101 F4800.000
G1 F1800
G1 X35.000 Y69.664 E17.51819
G1 X135.000 Y69.664 E21.70422
G1 X137.018 Y70.061 E21.79029
G1 X138.736 Y71.191 E21.87637
G1 X139.899 Y72.886 E21.96245
G1 X140.336 Y75.000 E22.05280
G1 X140.336 Y93.000 E22.80629
G1 X139.939 Y95.018 E22.89237
G1 X138.774 Y96.772 E22.98054
G1 X136.773 Y98.773 E23.09898
G1 X135.066 Y99.919 E23.18506
G1 X133.000 Y100.336 E23.27327
G1 X37.000 Y100.336 E27.29186
G1 X34.982 Y99.939 E27.37794
G1 X33.227 Y98.773 E27.46616
G1 X31.227 Y96.773 E27.58456
G1 X30.081 Y95.066 E27.67063
G1 X29.664 Y93.000 E27.75885
G1 X29.664 Y75.000 E28.51234
G1 X30.061 Y72.982 E28.59841
G1 X31.191 Y71.264 E28.68449
G1 X32.837 Y70.135 E28.76806
G1 X33.276 Y70.837 F4800.000
G1 F1800
G1 X136.724 Y70.837 E33.37615
G1 X139.163 Y73.276 E33.52976
G1 X139.163 Y93.828 E34.44524
G1 X138.529 Y95.357 E34.51899
G1 X137.936 Y95.950 E34.55634
G1 X135.358 Y98.529 E34.71877
G1 X133.828 Y99.163 E34.79254
G1 X36.172 Y99.163 E39.14261
G1 X34.642 Y98.529 E39.21637
G1 X31.471 Y95.358 E39.41613
G1 X30.837 Y93.828 E39.48990
G1 X30.837 Y73.276 E40.40539
G1 X33.233 Y70.880 E40.55632
G1 X33.424 Y71.195 F4800.000
G1 F1800
G1 X136.576 Y71.195 E45.15124
G1 X138.805 Y73.424 E45.29167
G1 X138.805 Y93.757 E46.19740
G1 X138.226 Y95.155 E46.26482
G1 X137.684 Y95.698 E46.29901
G1 X135.156 Y98.226 E46.45827
G1 X133.757 Y98.805 E46.52571
G1 X36.243 Y98.805 E50.86945
G1 X34.844 Y98.226 E50.93688
G1 X31.774 Y95.156 E51.13031
G1 X31.195 Y93.757 E51.19775
G1 X31.195 Y73.424 E52.10349
G1 X33.381 Y71.237 E52.24124
G1 X33.572 Y71.552 F4800.000
G1 F1800
G1 X136.428 Y71.552 E56.82297
G1 X138.448 Y73.572 E56.95022
G1 X138.448 Y93.686 E57.84620
G1 X137.924 Y94.953 E57.90729
G1 X137.431 Y95.445 E57.93832
G1 X134.953 Y97.923 E58.09442
G1 X133.686 Y98.448 E58.15552
G1 X36.314 Y98.448 E62.49293
G1 X35.047 Y97.923 E62.55404
G1 X32.077 Y94.953 E62.74114
G1 X31.552 Y93.686 E62.80225
G1 X31.552 Y73.572 E63.69823
G1 X33.529 Y71.594 E63.82281
G1 X33.720 Y71.909 F4800.000
G1 F1800
G1 X136.280 Y71.909 E68.39136
G1 X138.091 Y73.720 E68.50543
G1 X138.091 Y93.615 E69.39166
G1 X137.621 Y94.751 E69.44642
G1 X137.179 Y95.193 E69.47428
G1 X134.751 Y97.621 E69.62721
G1 X133.615 Y98.091 E69.68199
G1 X36.385 Y98.091 E74.01307
G1 X35.249 Y97.621 E74.06785
G1 X32.379 Y94.751 E74.24862
G1 X31.909 Y93.615 E74.30340
G1 X31.909 Y73.720 E75.18963
G1 X33.677 Y71.951 E75.30103
G1 X33.868 Y72.266 F4800.000
G1 F1800
G1 X136.132 Y72.266 E79.85640
G1 X137.734 Y73.868 E79.95730
G1 X137.734 Y93.544 E80.83377
G1 X137.318 Y94.548 E80.88220
G1 X136.926 Y94.940 E80.90690
G1 X134.549 Y97.318 E81.05666
G1 X133.544 Y97.734 E81.10511
G1 X36.456 Y97.734 E85.42987
G1 X35.451 Y97.318 E85.47832
G1 X32.682 Y94.549 E85.65276
G1 X32.266 Y93.544 E85.70121
G1 X32.266 Y73.868 E86.57768
G1 X33.825 Y72.308 E86.67590
G1 X34.015 Y72.623 F4800.000
G1 F1800
G1 X135.985 Y72.623 E91.21810
G1 X137.377 Y74.015 E91.30581
G1 X137.377 Y93.473 E92.17253
G1 X137.015 Y94.346 E92.21464
G1 X136.673 Y94.688 E92.23617
G1 X134.346 Y97.015 E92.38276
G1 X133.473 Y97.377 E92.42489
G1 X36.527 Y97.377 E96.74331
G1 X35.654 Y97.015 E96.78543
G1 X32.985 Y94.346 E96.95354
G1 X32.623 Y93.473 E96.99566
G1 X32.623 Y74.015 E97.86239
G1 X33.973 Y72.666 E97.94743
G1 X34.163 Y72.980 F4800.000
G1 F1800
G1 X135.837 Y72.980 E102.47644
G1 X137.020 Y74.163 E102.55097
G1 X137.020 Y93.402 E103.40794
G1 X136.712 Y94.144 E103.44372
G1 X136.421 Y94.435 E103.46209
G1 X134.144 Y96.712 E103.60552
G1 X133.402 Y97.020 E103.64131
G1 X36.598 Y97.020 E107.95340
G1 X35.856 Y96.712 E107.98920
G1 X33.288 Y94.144 E108.15098
G1 X32.980 Y93.402 E108.18677
G1 X32.980 Y74.163 E109.04374
G1 X34.121 Y73.023 E109.11560
G1 X34.311 Y73.337 F4800.000
G1 F1800
G1 X135.689 Y73.337 E113.63144
G1 X136.663 Y74.311 E113.69279
G1 X136.663 Y93.331 E114.54000
G1 X136.410 Y93.942 E114.56946
G1 X136.168 Y94.183 E114.58466
G1 X133.942 Y96.409 E114.72492
G1 X133.331 Y96.663 E114.75438
G1 X36.669 Y96.663 E119.06015
G1 X36.058 Y96.409 E119.08961
G1 X33.591 Y93.942 E119.24507
G1 X33.337 Y93.331 E119.27453
G1 X33.337 Y74.311 E120.12175
G1 X34.269 Y73.380 E120.18043
G1 X34.459 Y73.695 F4800.000
G1 F1800
G1 X135.541 Y73.695 E124.68308
G1 X136.305 Y74.459 E124.73126
G1 X136.305 Y93.260 E125.56871
G1 X136.107 Y93.739 E125.59184
G1 X135.916 Y93.930 E125.60388
G1 X133.739 Y96.107 E125.74098
G1 X133.260 Y96.305 E125.76411
G1 X36.740 Y96.305 E130.06355
G1 X36.261 Y96.107 E130.08668
G1 X33.893 Y93.739 E130.23581
G1 X33.695 Y93.260 E130.25894
G1 X33.695 Y74.459 E131.09640
G1 X34.417 Y73.737 E131.14190
G1 X34.607 Y74.052 F4800.000
G1 F1800
G1 X135.393 Y74.052 E135.63138
G1 X135.948 Y74.607 E135.66638
G1 X135.948 Y93.189 E136.49408
G1 X135.804 Y93.537 E136.51088
G1 X135.663 Y93.678 E136.51976
G1 X133.537 Y95.804 E136.65368
G1 X133.189 Y95.948 E136.67049
G1 X36.811 Y95.948 E140.96360
G1 X36.463 Y95.804 E140.98040
G1 X34.196 Y93.537 E141.12320
G1 X34.052 Y93.189 E141.14000
G1 X34.052 Y74.607 E141.96771
G1 X34.565 Y74.094 E142.00003
G1 X34.755 Y74.409 F4800.000
G1 F1800
G1 X135.245 Y74.409 E146.47633
G1 X135.591 Y74.755 E146.49815
G1 X135.591 Y93.118 E147.31610
G1 X135.501 Y93.335 E147.32657
G1 X135.411 Y93.425 E147.33228
G1 X133.335 Y95.501 E147.46304
G1 X133.118 Y95.591 E147.47352
G1 X36.882 Y95.591 E151.76030
G1 X36.665 Y95.501 E151.77077
G1 X34.499 Y93.335 E151.90724
G1 X34.409 Y93.118 E151.91772
G1 X34.409 Y74.755 E152.73567
G1 X34.713 Y74.451 E152.75481
G1 X34.903 Y74.766 F4800.000
G1 F1800
G1 X135.097 Y74.766 E157.21793
G1 X135.234 Y74.903 E157.22657
G1 X135.234 Y93.047 E158.03477
G1 X135.198 Y93.133 E158.03891
G1 X135.158 Y93.173 E158.04146
G1 X133.133 Y95.198 E158.16905
G1 X133.047 Y95.234 E158.17320
G1 X36.953 Y95.234 E162.45365
G1 X36.867 Y95.198 E162.45780
G1 X34.802 Y93.133 E162.58794
G1 X34.766 Y93.047 E162.59208
G1 X34.766 Y74.903 E163.40028
G1 X34.861 Y74.808 E163.40625
G1 X35.200 Y75.200 F4800.000
G1 F1800
G1 X134.800 Y75.200 E167.57553
G1 X134.800 Y92.917 E168.31718
G1 X132.917 Y94.800 E168.42864
G1 X37.083 Y94.800 E172.44030
G1 X35.200 Y92.917 E172.55176
G1 X35.200 Y75.260 E173.29089
G1 X35.553 Y75.389 F4800.000
G1 X35.536 Y75.536 F4800.000
G1 F1800
G1 X134.464 Y75.536 E177.43208
G1 X134.464 Y92.778 E178.15386
G1 X132.778 Y94.464 E178.25368
G1 X37.222 Y94.464 E182.25370
G1 X35.536 Y92.778 E182.35352
G1 X35.536 Y75.596 E183.07279
G1 X35.871 Y75.871 F4800.000
G1 F1800
G1 X134.129 Y75.871 E187.18588
G1 X134.129 Y92.639 E187.88779
G1 X132.639 Y94.129 E187.97597
G1 X37.361 Y94.129 E191.96435
G1 X35.871 Y92.639 E192.05253
G1 X35.871 Y75.931 E192.75193
G1 F3840
G1 X45.471 Y75.925 E187.05193
G1 E186.75193 F2400.00000
G92 E0
G1 X98.350 Y84.391 F4800.000
G1 E6.00000 F2400.00000
G1 F1800
G1 X98.439 Y83.993 E6.01707
G1 X98.572 Y83.608 E6.03413
G1 X98.746 Y83.239 E6.05120
G1 X98.959 Y82.892 E6.06826
G1 X99.210 Y82.570 E6.08533
G1 X99.494 Y82.278 E6.10239
G1 X99.809 Y82.018 E6.11946
G1 X100.150 Y81.795 E6.13653
G1 X100.514 Y81.611 E6.15359
G1 X100.895 Y81.468 E6.17066
G1 X101.291 Y81.368 E6.18772
G1 X101.694 Y81.312 E6.20479
G1 X102.095 Y81.301 E6.22154
G1 X102.508 Y81.335 E6.23891
G1 X102.908 Y81.413 E6.25598
G1 X103.297 Y81.535 E6.27305
G1 X103.671 Y81.698 E6.29012
G1 X104.024 Y81.902 E6.30718
G1 X104.352 Y82.144 E6.32425
G1 X104.652 Y82.420 E6.34131
G1 X104.920 Y82.727 E6.35838
G1 X105.152 Y83.062 E6.37544
G1 X105.346 Y83.421 E6.39251
G1 X105.500 Y83.799 E6.40958
G1 X105.611 Y84.191 E6.42664
G1 X105.678 Y84.593 E6.44371
G1 X105.700 Y85.000 E6.46077
G1 X105.678 Y85.407 E6.47784
G1 X105.611 Y85.809 E6.49490
G1 X105.500 Y86.201 E6.51197
G1 X105.346 Y86.579 E6.52904
G1 X105.152 Y86.938 E6.54610
G1 X104.920 Y87.273 E6.56317
G1 X104.652 Y87.580 E6.58023
G1 X104.352 Y87.856 E6.59730
G1 X104.024 Y88.098 E6.61436
G1 X103.671 Y88.302 E6.63143
G1 X103.304 Y88.462 E6.64818
G1 X102.909 Y88.587 E6.66555
G1 X102.508 Y88.665 E6.68263
G1 X102.102 Y88.699 E6.69969
G1 X101.694 Y88.688 E6.71676
G1 X101.291 Y88.632 E6.73382
G1 X100.895 Y88.532 E6.75089
G1 X100.514 Y88.389 E6.76795
G1 X100.150 Y88.205 E6.78502
G1 X99.809 Y87.982 E6.80209
G1 X99.494 Y87.722 E6.81915
G1 X99.210 Y87.430 E6.83622
G1 X98.959 Y87.108 E6.85328
G1 X98.746 Y86.761 E6.87035
G1 X98.572 Y86.392 E6.88741
G1 X98.439 Y86.007 E6.90448
G1 X98.350 Y85.609 E6.92155
G1 X98.305 Y85.204 E6.93861
G1 X98.305 Y84.796 E6.95568
G1 X98.344 Y84.451 E6.97023
G1 X98.350 Y84.391 F4800.000
G1 X98.017 Y84.354 F4800.000
G1 F1800
G1 X98.116 Y83.902 E6.98962
G1 X98.260 Y83.481 E7.00823
G1 X98.450 Y83.079 E7.02685
G1 X98.683 Y82.700 E7.04547
G1 X98.956 Y82.349 E7.06408
G1 X99.266 Y82.030 E7.08270
G1 X99.609 Y81.748 E7.10131
G1 X99.982 Y81.504 E7.11993
G1 X100.379 Y81.304 E7.13855
G1 X100.795 Y81.148 E7.15716
G1 X101.226 Y81.038 E7.17578
G1 X101.667 Y80.977 E7.19439
G1 X102.103 Y80.965 E7.21268
G1 X102.554 Y81.002 E7.23160
G1 X102.991 Y81.087 E7.25024
G1 X103.415 Y81.220 E7.26886
G1 X103.823 Y81.398 E7.28747
G1 X104.208 Y81.621 E7.30609
G1 X104.566 Y81.884 E7.32470
G1 X104.893 Y82.185 E7.34332
G1 X105.185 Y82.521 E7.36194
G1 X105.439 Y82.886 E7.38055
G1 X105.650 Y83.277 E7.39917
G1 X105.818 Y83.689 E7.41778
G1 X105.939 Y84.117 E7.43640
G1 X106.012 Y84.556 E7.45502
G1 X106.036 Y85.000 E7.47363
G1 X106.012 Y85.444 E7.49225
G1 X105.939 Y85.883 E7.51086
G1 X105.818 Y86.311 E7.52948
G1 X105.650 Y86.723 E7.54810
G1 X105.439 Y87.114 E7.56671
G1 X105.185 Y87.479 E7.58533
G1 X104.893 Y87.815 E7.60394
G1 X104.566 Y88.116 E7.62256
G1 X104.208 Y88.379 E7.64117
G1 X103.823 Y88.602 E7.65979
G1 X103.422 Y88.777 E7.67808
G1 X102.991 Y88.913 E7.69700
G1 X102.554 Y88.998 E7.71564
G1 X102.111 Y89.035 E7.73425
G1 X101.667 Y89.023 E7.75287
G1 X101.226 Y88.962 E7.77149
G1 X100.795 Y88.852 E7.79010
G1 X100.379 Y88.696 E7.80872
G1 X99.982 Y88.496 E7.82733
G1 X99.609 Y88.252 E7.84595
G1 X99.266 Y87.970 E7.86456
G1 X98.956 Y87.651 E7.88318
G1 X98.683 Y87.300 E7.90180
G1 X98.450 Y86.921 E7.92041
G1 X98.260 Y86.519 E7.93903
G1 X98.116 Y86.098 E7.95764
G1 X98.019 Y85.664 E7.97626
G1 X97.970 Y85.222 E7.99488
G1 X97.970 Y84.778 E8.01349
G1 X98.010 Y84.414 E8.02882
G1 X97.683 Y84.317 F4800.000
G1 F1800
G1 X97.792 Y83.810 E8.05053
G1 X97.949 Y83.355 E8.07070
G1 X98.154 Y82.919 E8.09086
G1 X98.407 Y82.508 E8.11103
G1 X98.703 Y82.128 E8.13119
G1 X99.039 Y81.783 E8.15136
G1 X99.410 Y81.477 E8.17153
G1 X99.814 Y81.213 E8.19169
G1 X100.244 Y80.996 E8.21186
G1 X100.695 Y80.827 E8.23203
G1 X101.162 Y80.709 E8.25219
G1 X101.639 Y80.642 E8.27236
G1 X102.112 Y80.629 E8.29218
G1 X102.600 Y80.669 E8.31265
G1 X103.073 Y80.761 E8.33285
G1 X103.533 Y80.905 E8.35302
G1 X103.974 Y81.099 E8.37319
G1 X104.392 Y81.339 E8.39335
G1 X104.780 Y81.625 E8.41352
G1 X105.134 Y81.951 E8.43369
G1 X105.451 Y82.314 E8.45385
G1 X105.725 Y82.710 E8.47402
G1 X105.954 Y83.134 E8.49418
G1 X106.136 Y83.580 E8.51435
G1 X106.267 Y84.044 E8.53452
G1 X106.346 Y84.519 E8.55468
G1 X106.373 Y85.000 E8.57485
G1 X106.346 Y85.481 E8.59501
G1 X106.267 Y85.956 E8.61518
G1 X106.136 Y86.420 E8.63535
G1 X105.954 Y86.866 E8.65551
G1 X105.725 Y87.290 E8.67568
G1 X105.451 Y87.686 E8.69585
G1 X105.134 Y88.049 E8.71601
G1 X104.780 Y88.375 E8.73618
G1 X104.392 Y88.661 E8.75634
G1 X103.974 Y88.901 E8.77651
G1 X103.541 Y89.092 E8.79634
G1 X103.074 Y89.239 E8.81680
G1 X102.601 Y89.331 E8.83701
G1 X102.120 Y89.371 E8.85717
G1 X101.639 Y89.358 E8.87734
G1 X101.162 Y89.291 E8.89751
G1 X100.695 Y89.173 E8.91767
G1 X100.244 Y89.004 E8.93784
G1 X99.814 Y88.787 E8.95800
G1 X99.410 Y88.523 E8.97817
G1 X99.039 Y88.217 E8.99834
G1 X98.703 Y87.872 E9.01850
G1 X98.407 Y87.492 E9.03867
G1 X98.154 Y87.081 E9.05883
G1 X97.949 Y86.645 E9.07900
G1 X97.792 Y86.190 E9.09917
G1 X97.687 Y85.720 E9.11933
G1 X97.634 Y85.241 E9.13950
G1 X97.634 Y84.759 E9.15967
G1 X97.676 Y84.377 E9.17577
G1 F3840
G1 X97.687 Y84.280 E9.11816
G1 F3840
G1 X97.792 Y83.810 E8.83212
G1 F3840
G1 X97.949 Y83.355 E8.54608
G1 F3840
G1 X98.154 Y82.919 E8.26004
G1 F3840
G1 X98.407 Y82.508 E7.97400
G1 F3840
G1 X98.703 Y82.128 E7.68796
G1 F3840
G1 X99.039 Y81.783 E7.40193
G1 F3840
G1 X99.410 Y81.477 E7.11589
G1 F3840
G1 X99.814 Y81.213 E6.82985
G1 F3840
G1 X100.244 Y80.996 E6.54381
G1 F3840
G1 X100.695 Y80.827 E6.25777
G1 F3840
G1 X101.162 Y80.709 E5.97173
G1 F3840
G1 X101.639 Y80.642 E5.68570
G1 F3840
G1 X102.112 Y80.629 E5.40448
G1 F3840
G1 X102.600 Y80.669 E5.11417
G1 F3840
G1 X103.073 Y80.761 E4.82760
G1 F3840
G1 X103.533 Y80.905 E4.54157
G1 F3840
G1 X103.974 Y81.099 E4.25553
G1 F3840
G1 X104.392 Y81.339 E3.96949
G1 F3840
G1 X104.780 Y81.625 E3.68345
G1 F3840
G1 X105.037 Y81.862 E3.47577
G1 E3.17577 F2400.00000
G92 E0
G1 X68.700 Y85.000 F4800.000
G1 E6.00000 F2400.00000
G1 F1800
G1 X68.678 Y85.407 E6.01707
G1 X68.611 Y85.809 E6.03413
G1 X68.500 Y86.201 E6.05120
G1 X68.346 Y86.579 E6.06826
G1 X68.152 Y86.938 E6.08533
G1 X67.920 Y87.273 E6.10239
G1 X67.652 Y87.580 E6.11946
G1 X67.352 Y87.856 E6.13653
G1 X67.024 Y88.098 E6.15359
G1 X66.671 Y88.302 E6.17066
G1 X66.297 Y88.465 E6.18772
G1 X65.908 Y88.587 E6.20479
G1 X65.508 Y88.665 E6.22185
G1 X65.102 Y88.699 E6.23892
G1 X64.694 Y88.688 E6.25599
G1 X64.291 Y88.632 E6.27305
G1 X63.895 Y88.532 E6.29012
G1 X63.514 Y88.389 E6.30718
G1 X63.150 Y88.205 E6.32425
G1 X62.809 Y87.982 E6.34131
G1 X62.494 Y87.722 E6.35838
G1 X62.210 Y87.430 E6.37545
G1 X61.959 Y87.108 E6.39251
G1 X61.746 Y86.761 E6.40958
G1 X61.572 Y86.392 E6.42664
G1 X61.439 Y86.007 E6.44371
G1 X61.350 Y85.609 E6.46077
G1 X61.305 Y85.204 E6.47784
G1 X61.305 Y84.796 E6.49491
G1 X61.350 Y84.391 E6.51197
G1 X61.439 Y83.993 E6.52904
G1 X61.572 Y83.608 E6.54610
G1 X61.746 Y83.239 E6.56317
G1 X61.959 Y82.892 E6.58024
G1 X62.210 Y82.570 E6.59730
G1 X62.494 Y82.278 E6.61437
G1 X62.809 Y82.018 E6.63143
G1 X63.150 Y81.795 E6.64850
G1 X63.514 Y81.611 E6.66556
G1 X63.895 Y81.468 E6.68263
G1 X64.291 Y81.368 E6.69970
G1 X64.694 Y81.312 E6.71676
G1 X65.095 Y81.301 E6.73352
G1 X65.508 Y81.335 E6.75088
G1 X65.908 Y81.413 E6.76796
G1 X66.297 Y81.535 E6.78502
G1 X66.671 Y81.698 E6.80209
G1 X67.024 Y81.902 E6.81915
G1 X67.352 Y82.144 E6.83622
G1 X67.652 Y82.420 E6.85328
