; generated by Slic3r 1.3.0 on 2021-01-25 at 20:33:34

; external perimeters extrusion width = 0.66mm (15.94mm^3/s)
; perimeters extrusion width = 0.63mm (12.03mm^3/s)
; infill extrusion width = 0.63mm (12.03mm^3/s)
; solid infill extrusion width = 0.63mm (6.01mm^3/s)
; top infill extrusion width = 0.60mm (16.96mm^3/s)
; support material extrusion width = 0.66mm (19.12mm^3/s)

M107
G28 ; home all axes
G1 Z5 F5000 ; lift nozzle

; Filament gcode

G21 ; set units to millimeters
G90 ; use absolute coordinates
M82 ; use absolute distances for extrusion
G92 E0
G1 E-6.00000 F2400.00000
G92 E0
G1 Z0.500 F4800.000
G1 Z0.600 F4800.000
G1 Z1.100 F4800.000
G1 X120.735 Y184.462 F4800.000
G1 Z0.600 F4800.000
G1 E6.00000 F2400.00000
G1 F1800
G1 X119.695 Y184.937 E6.13437
G1 X119.116 Y185.169 E6.20766
G1 X118.561 Y185.356 E6.27658
G1 X118.023 Y185.500 E6.34203
G1 X117.239 Y185.637 E6.43556
G1 X116.426 Y185.716 E6.53163
G1 X115.842 Y185.731 E6.60027
G1 X115.182 Y185.699 E6.67789
G1 X114.541 Y185.601 E6.75412
G1 X113.929 Y185.435 E6.82869
G1 X113.349 Y185.200 E6.90224
G1 X112.806 Y184.897 E6.97539
G1 X112.303 Y184.527 E7.04879
G1 X111.842 Y184.094 E7.12305
G1 X111.425 Y183.601 E7.19901
G1 X111.058 Y183.053 E7.27658
G1 X110.815 Y182.601 E7.33686
G1 X110.600 Y182.126 E7.39813
G1 X110.363 Y181.457 E7.48164
G1 X110.175 Y180.741 E7.56864
G1 X110.067 Y180.168 E7.63713
G1 X109.984 Y179.574 E7.70761
G1 X109.916 Y178.745 E7.80538
G1 X109.893 Y177.866 E7.90878
G1 X109.931 Y176.628 E8.05441
G1 X110.025 Y175.670 E8.16749
G1 X110.172 Y174.780 E8.27360
G1 X110.380 Y173.961 E8.37294
G1 X110.646 Y173.211 E8.46644
G1 X110.905 Y172.663 E8.53772
G1 X111.064 Y172.383 E8.57550
G1 X111.396 Y171.902 E8.64421
G1 X111.790 Y171.468 E8.71319
G1 X112.238 Y171.096 E8.78158
G1 X112.723 Y170.800 E8.84843
G1 X113.008 Y170.664 E8.88551
G1 X113.429 Y170.510 E8.93821
G1 X114.144 Y170.340 E9.02464
G1 X114.778 Y170.276 E9.09946
G1 X115.456 Y170.279 E9.17919
G1 X116.161 Y170.359 E9.26260
G1 X116.864 Y170.519 E9.34741
G1 X117.554 Y170.754 E9.43311
G1 X117.916 Y170.907 E9.47921
G1 X118.581 Y171.238 E9.56653
G1 X119.230 Y171.622 E9.65521
G1 X119.858 Y172.056 E9.74499
G1 X120.735 Y172.756 E9.87687
G1 X120.735 Y184.372 E11.24227
G1 X120.264 Y184.159 F4800.000
G1 F1800
G1 X119.509 Y184.504 E11.33973
G1 X118.953 Y184.726 E11.41017
G1 X118.425 Y184.905 E11.47576
G1 X117.921 Y185.039 E11.53700
G1 X117.176 Y185.170 E11.62596
G1 X116.397 Y185.245 E11.71792
G1 X115.847 Y185.259 E11.78256
G1 X115.230 Y185.229 E11.85527
G1 X114.639 Y185.139 E11.92550
G1 X114.080 Y184.987 E11.99361
G1 X113.553 Y184.774 E12.06039
G1 X113.061 Y184.500 E12.12665
G1 X112.605 Y184.164 E12.19322
G1 X112.185 Y183.770 E12.26094
G1 X111.802 Y183.317 E12.33066
G1 X111.462 Y182.809 E12.40245
G1 X111.238 Y182.392 E12.45816
G1 X111.037 Y181.950 E12.51520
G1 X110.813 Y181.318 E12.59400
G1 X110.635 Y180.637 E12.67672
G1 X110.533 Y180.092 E12.74200
G1 X110.452 Y179.522 E12.80960
G1 X110.386 Y178.720 E12.90421
G1 X110.364 Y177.867 E13.00447
G1 X110.402 Y176.658 E13.14669
G1 X110.492 Y175.732 E13.25609
G1 X110.634 Y174.877 E13.35799
G1 X110.832 Y174.098 E13.45245
G1 X111.082 Y173.391 E13.54059
G1 X111.324 Y172.880 E13.60703
G1 X111.464 Y172.634 E13.64031
G1 X111.766 Y172.196 E13.70288
G1 X112.117 Y171.809 E13.76425
G1 X112.513 Y171.481 E13.82473
G1 X112.948 Y171.215 E13.88466
G1 X113.191 Y171.099 E13.91630
G1 X113.565 Y170.962 E13.96316
G1 X114.223 Y170.806 E14.04261
G1 X114.800 Y170.748 E14.11089
G1 X115.428 Y170.750 E14.18467
G1 X116.081 Y170.824 E14.26197
G1 X116.736 Y170.973 E14.34085
G1 X117.386 Y171.195 E14.42164
G1 X117.719 Y171.335 E14.46405
G1 X118.356 Y171.652 E14.54767
G1 X118.976 Y172.019 E14.63236
G1 X119.577 Y172.435 E14.71827
G1 X120.264 Y172.983 E14.82160
G1 X120.264 Y184.069 E16.12475
G1 X120.444 Y184.731 F4800.000
G1 F3840
G1 X119.509 Y184.504 E15.60797
G1 F3840
G1 X118.953 Y184.726 E15.25217
G1 F3840
G1 X118.425 Y184.905 E14.92087
G1 F3840
G1 X117.921 Y185.039 E14.61159
G1 F3840
G1 X117.176 Y185.170 E14.16224
G1 F3840
G1 X116.397 Y185.245 E13.69773
G1 F3840
G1 X115.847 Y185.259 E13.37125
G1 F3840
G1 X115.230 Y185.229 E13.00397
G1 F3840
G1 X114.639 Y185.139 E12.64925
G1 F3840
G1 X114.080 Y184.987 E12.30523
G1 F3840
G1 X113.553 Y184.774 E11.96794
G1 F3840
G1 X113.061 Y184.500 E11.63326
G1 F3840
G1 X112.605 Y184.164 E11.29698
G1 F3840
G1 X112.185 Y183.770 E10.95496
G1 F3840
G1 X111.802 Y183.317 E10.60279
G1 F3840
G1 X111.635 Y183.068 E10.42475
G1 E10.12475 F2400.00000
G92 E0
G1 Z1.100 F4800.000
G1 X117.323 Y186.103 F4800.000
G1 Z0.600 F4800.000
G1 E6.00000 F2400.00000
G1 F1800
G1 X117.368 Y186.361 E6.03082
G1 X116.978 Y186.459 E6.07804
G1 X116.204 Y186.573 E6.16999
G1 X115.331 Y186.612 E6.27275
G1 X114.654 Y186.575 E6.35241
G1 X114.365 Y186.534 E6.38676
G1 X113.885 Y186.429 E6.44459
G1 X113.411 Y186.286 E6.50269
G1 X113.133 Y186.179 E6.53774
G1 X112.502 Y185.876 E6.62008
G1 X112.243 Y185.725 E6.65528
G1 X111.690 Y185.344 E6.73417
G1 X111.195 Y184.918 E6.81093
G1 X110.746 Y184.442 E6.88785
G1 X110.293 Y183.834 E6.97702
G1 X109.985 Y183.341 E7.04536
G1 X109.701 Y182.820 E7.11514
G1 X109.363 Y182.066 E7.21220
G1 X109.079 Y181.254 E7.31335
G1 X108.972 Y180.854 E7.36202
G1 X108.832 Y180.163 E7.44488
G1 X108.727 Y179.425 E7.53253
G1 X108.683 Y178.926 E7.59141
G1 X108.646 Y177.795 E7.72443
G1 X108.653 Y177.267 E7.78652
G1 X108.713 Y176.206 E7.91143
G1 X108.762 Y175.734 E7.96723
G1 X108.908 Y174.797 E8.07865
G1 X109.111 Y173.933 E8.18302
G1 X109.426 Y172.982 E8.30079
G1 X109.648 Y172.452 E8.36834
G1 X109.795 Y172.153 E8.40751
G1 X110.153 Y171.543 E8.49066
G1 X110.318 Y171.307 E8.52449
G1 X110.731 Y170.807 E8.60070
G1 X110.912 Y170.623 E8.63106
G1 X111.363 Y170.240 E8.70061
G1 X111.835 Y169.930 E8.76702
G1 X112.347 Y169.678 E8.83402
G1 X112.904 Y169.482 E8.90346
G1 X113.149 Y169.419 E8.93320
G1 X113.768 Y169.317 E9.00703
G1 X114.045 Y169.295 E9.03967
G1 X114.572 Y169.291 E9.10162
G1 X115.148 Y169.323 E9.16946
G1 X115.743 Y169.422 E9.24031
G1 X116.331 Y169.596 E9.31242
G1 X116.608 Y169.713 E9.34775
G1 X116.529 Y169.960 E9.37821
G1 X116.240 Y169.894 E9.41302
G1 X115.483 Y169.807 E9.50254
G1 X114.755 Y169.805 E9.58822
G1 X114.066 Y169.874 E9.66959
G1 X113.293 Y170.058 E9.76299
G1 X112.825 Y170.229 E9.82151
G1 X112.499 Y170.385 E9.86405
G1 X111.963 Y170.712 E9.93783
G1 X111.464 Y171.126 E10.01411
G1 X111.026 Y171.609 E10.09070
G1 X110.664 Y172.133 E10.16557
G1 X110.487 Y172.446 E10.20783
G1 X110.210 Y173.031 E10.28396
G1 X109.929 Y173.824 E10.38281
G1 X109.711 Y174.683 E10.48705
G1 X109.557 Y175.609 E10.59735
G1 X109.461 Y176.598 E10.71412
G1 X109.422 Y177.865 E10.86315
G1 X109.445 Y178.771 E10.96969
G1 X109.515 Y179.627 E11.07062
G1 X109.602 Y180.245 E11.14399
G1 X109.715 Y180.844 E11.21569
G1 X109.912 Y181.595 E11.30696
G1 X110.162 Y182.303 E11.39518
G1 X110.392 Y182.810 E11.46068
G1 X110.654 Y183.296 E11.52554
G1 X111.049 Y183.885 E11.60888
G1 X111.500 Y184.419 E11.69108
G1 X112.001 Y184.890 E11.77189
G1 X112.551 Y185.294 E11.85211
G1 X113.145 Y185.626 E11.93216
G1 X113.779 Y185.882 E12.01248
G1 X114.444 Y186.063 E12.09350
G1 X115.135 Y186.168 E12.17574
G1 X115.837 Y186.202 E12.25827
G1 X116.454 Y186.187 E12.33091
G1 X117.233 Y186.111 E12.42289
G1 F3840
G1 X117.368 Y186.361 E12.25455
G1 F3840
G1 X116.978 Y186.459 E12.01603
G1 F3840
G1 X116.204 Y186.573 E11.55160
G1 F3840
G1 X115.331 Y186.612 E11.03252
G1 F3840
G1 X114.654 Y186.575 E10.63020
G1 F3840
G1 X114.365 Y186.534 E10.45669
G1 F3840
G1 X113.885 Y186.429 E10.16460
G1 F3840
G1 X113.411 Y186.286 E9.87114
G1 F3840
G1 X113.133 Y186.179 E9.69408
G1 F3840
G1 X112.502 Y185.876 E9.27820
G1 F3840
G1 X112.243 Y185.725 E9.10041
G1 F3840
G1 X111.690 Y185.344 E8.70190
G1 F3840
G1 X111.195 Y184.918 E8.31419
G1 F3840
G1 X110.746 Y184.442 E7.92568
G1 F3840
G1 X110.293 Y183.834 E7.47530
G1 F3840
G1 X109.985 Y183.341 E7.13009
G1 F3840
G1 X109.701 Y182.820 E6.77761
G1 F3840
G1 X109.663 Y182.736 E6.72289
G1 E6.42289 F2400.00000
G92 E0
G1 Z1.100 F4800.000
G1 X118.169 Y186.002 F4800.000
G1 X120.895 Y184.859 F4800.000
G1 X120.964 Y185.005 F4800.000
G1 X121.544 Y185.005 F4800.000
G1 X121.544 Y193.103 F4800.000
G1 X120.964 Y193.683 F4800.000
G1 X121.206 Y193.441 F4800.000
G1 Z0.600 F4800.000
G1 E6.00000 F2400.00000
G1 F1800
G1 X121.206 Y169.812 E8.77765
G1 X121.882 Y169.812 E8.85706
G1 X121.882 Y193.441 E11.63470
G1 X121.296 Y193.441 E11.70353
G1 F3840
G1 X121.259 Y183.841 E6.00353
G1 E5.70353 F2400.00000
G92 E0
G1 Z1.100 F4800.000
G1 X120.735 Y185.296 F4800.000
G1 Z0.600 F4800.000
G1 E6.00000 F2400.00000
G1 F1800
G1 X119.048 Y186.193 E6.22457
G1 X118.528 Y186.437 E6.29214
G1 X118.026 Y186.641 E6.35575
G1 X117.548 Y186.802 E6.41510
G1 X117.070 Y186.922 E6.47294
G1 X116.249 Y187.043 E6.57053
G1 X115.328 Y187.084 E6.67888
G1 X114.609 Y187.044 E6.76363
G1 X114.282 Y186.998 E6.80243
G1 X113.766 Y186.885 E6.86448
G1 X113.259 Y186.733 E6.92677
G1 X112.946 Y186.612 E6.96616
G1 X112.281 Y186.292 E7.05291
G1 X111.990 Y186.124 E7.09242
G1 X111.402 Y185.718 E7.17642
G1 X110.869 Y185.260 E7.25901
G1 X110.385 Y184.746 E7.34202
G1 X109.903 Y184.100 E7.43667
G1 X109.578 Y183.579 E7.50896
G1 X109.278 Y183.029 E7.58254
G1 X108.925 Y182.241 E7.68410
G1 X108.629 Y181.393 E7.78964
G1 X108.513 Y180.962 E7.84210
G1 X108.368 Y180.243 E7.92833
G1 X108.259 Y179.479 E8.01906
G1 X108.213 Y178.955 E8.08093
G1 X108.174 Y177.800 E8.21677
G1 X108.182 Y177.250 E8.28135
G1 X108.243 Y176.168 E8.40876
G1 X108.294 Y175.673 E8.46727
G1 X108.445 Y174.707 E8.58220
G1 X108.655 Y173.812 E8.69030
G1 X108.776 Y173.406 E8.74005
G1 X108.987 Y172.812 E8.81416
G1 X109.219 Y172.257 E8.88493
G1 X109.380 Y171.930 E8.92778
G1 X109.756 Y171.289 E9.01512
G1 X109.942 Y171.021 E9.05341
G1 X110.380 Y170.491 E9.13430
G1 X110.591 Y170.277 E9.16954
G1 X111.080 Y169.862 E9.24500
G1 X111.601 Y169.520 E9.31822
G1 X112.163 Y169.243 E9.39193
G1 X112.767 Y169.030 E9.46711
G1 X113.052 Y168.957 E9.50172
G1 X113.711 Y168.849 E9.58027
G1 X114.025 Y168.823 E9.61724
G1 X114.584 Y168.819 E9.68297
G1 X115.193 Y168.854 E9.75470
G1 X115.857 Y168.964 E9.83381
G1 X116.490 Y169.152 E9.91144
G1 X117.109 Y169.412 E9.99041
G1 X117.415 Y169.565 E10.03054
G1 X117.990 Y169.906 E10.10918
G1 X118.506 Y170.286 E10.18452
G1 X120.735 Y172.090 E10.52156
G1 X120.735 Y169.340 E10.84475
G1 X122.353 Y169.340 E11.03495
G1 X122.353 Y193.912 E13.92339
G1 X120.735 Y193.912 E14.11358
G1 X120.735 Y185.386 E15.11581
G1 X120.264 Y186.080 F4800.000
G1 F1800
G1 X119.259 Y186.615 E15.24957
G1 X118.716 Y186.869 E15.32002
G1 X118.190 Y187.083 E15.38681
G1 X117.681 Y187.254 E15.44995
G1 X117.163 Y187.385 E15.51274
G1 X116.294 Y187.513 E15.61596
G1 X115.326 Y187.556 E15.72990
G1 X114.563 Y187.514 E15.81975
G1 X114.198 Y187.462 E15.86300
G1 X113.648 Y187.342 E15.92926
G1 X113.106 Y187.179 E15.99574
G1 X112.759 Y187.045 E16.03948
G1 X112.060 Y186.709 E16.13063
G1 X111.738 Y186.522 E16.17446
G1 X111.114 Y186.091 E16.26355
G1 X110.543 Y185.601 E16.35198
G1 X110.023 Y185.049 E16.44108
G1 X109.514 Y184.367 E16.54122
G1 X109.171 Y183.817 E16.61745
G1 X108.856 Y183.239 E16.69483
G1 X108.487 Y182.415 E16.80090
G1 X108.178 Y181.532 E16.91081
G1 X108.054 Y181.070 E16.96708
G1 X107.903 Y180.323 E17.05667
G1 X107.791 Y179.533 E17.15049
G1 X107.742 Y178.983 E17.21535
G1 X107.703 Y177.804 E17.35400
G1 X107.711 Y177.234 E17.42107
G1 X107.773 Y176.131 E17.55097
G1 X107.827 Y175.612 E17.61220
G1 X107.982 Y174.617 E17.73064
G1 X108.199 Y173.691 E17.84246
G1 X108.328 Y173.260 E17.89529
G1 X108.547 Y172.642 E17.97238
G1 X108.790 Y172.062 E18.04637
G1 X108.965 Y171.706 E18.09291
G1 X109.359 Y171.035 E18.18444
G1 X109.566 Y170.736 E18.22718
G1 X110.030 Y170.175 E18.31275
G1 X110.270 Y169.932 E18.35288
G1 X110.797 Y169.484 E18.43424
G1 X111.367 Y169.110 E18.51428
G1 X111.980 Y168.808 E18.59469
G1 X112.630 Y168.579 E18.67562
G1 X112.955 Y168.496 E18.71508
G1 X113.654 Y168.380 E18.79837
G1 X114.004 Y168.352 E18.83966
G1 X114.595 Y168.348 E18.90918
G1 X115.238 Y168.384 E18.98479
G1 X115.971 Y168.506 E19.07217
G1 X116.649 Y168.708 E19.15531
G1 X117.306 Y168.984 E19.23910
G1 X117.640 Y169.151 E19.28302
G1 X118.251 Y169.512 E19.36645
G1 X118.794 Y169.913 E19.44584
G1 X120.264 Y171.102 E19.66802
G1 X120.264 Y168.869 E19.93052
G1 X122.824 Y168.869 E20.23150
G1 X122.824 Y194.383 E23.23073
G1 X120.264 Y194.383 E23.53172
G1 X120.264 Y186.170 E24.49716
G1 X120.016 Y185.534 F4800.000
G1 X119.850 Y185.309 F4800.000
G1 F1800
G1 X119.263 Y185.582 E24.53615
G1 F1800
G1 X118.835 Y185.767 E24.57280
G1 F1800
G1 X118.506 Y185.892 E24.60507
G1 F1800
G1 X118.125 Y186.024 E24.64952
G1 F1800
G1 X117.576 Y186.182 E24.71995
G1 F3840
G1 X118.125 Y186.024 E24.38055
G1 E18.71995 F2400.00000
G92 E0
G1 Z1.100 F4800.000
G1 X119.850 Y185.309 F4800.000
G1 Z0.600 F4800.000
G1 E6.00000 F2400.00000
G1 F1800
G1 X120.970 Y184.757 E6.05413
G1 F3840
G1 X119.850 Y185.309 E5.31251
G1 E0.05413 F2400.00000
G92 E0
G1 Z1.100 F4800.000
G1 X121.544 Y193.205 F4800.000
G1 Z0.600 F4800.000
G1 E6.00000 F2400.00000
G1 F1800
G1 X121.544 Y170.047 E6.43613
G1 F3840
G1 X121.544 Y179.647 E0.73613
G1 E0.43613 F2400.00000
G92 E0
G1 Z1.100 F4800.000
G1 X119.386 Y171.374 F4800.000
G1 Z0.600 F4800.000
G1 E6.00000 F2400.00000
G1 F1800
G1 X118.963 Y171.080 E6.00286
G1 F1800
G1 X118.580 Y170.823 E6.01406
G1 F1800
G1 X118.253 Y170.613 E6.03193
G1 F1800
G1 X118.090 Y170.514 E6.04422
G1 F1800
G1 X117.733 Y170.310 E6.07583
G1 F1800
G1 X117.530 Y170.216 E6.09593
G1 F1800
G1 X117.154 Y170.043 E6.14190
G1 F1800
G1 X116.797 Y169.894 E6.18996
G1 F3840
G1 X117.154 Y170.043 E5.96039
G1 E0.18996 F2400.00000
G92 E0
G1 Z1.100 F4800.000
G1 X114.014 Y169.588 F4800.000
G1 Z0.600 F4800.000
G1 E6.00000 F2400.00000
G1 F1800
G1 X113.193 Y169.746 E6.00271
G1 F1800
G1 X112.698 Y169.914 E6.01250
G1 X112.326 Y170.079 E6.02012
G1 F1800
G1 X111.745 Y170.423 E6.04255
G1 X111.167 Y170.897 E6.06740
G1 X110.618 Y171.535 E6.09533
G1 X110.354 Y171.932 E6.11117
G1 X110.126 Y172.331 E6.12644
G1 X109.778 Y173.118 E6.15502
G1 X109.583 Y173.669 E6.17444
G1 X109.481 Y174.031 E6.18693
G1 X109.288 Y174.871 E6.21555
G1 X109.178 Y175.554 E6.23852
G1 X109.077 Y176.578 E6.27269
G1 F1800
G1 X109.035 Y177.791 E6.32931
G1 X109.069 Y178.903 E6.38118
G1 X109.142 Y179.672 E6.41725
G1 X109.329 Y180.770 E6.46919
G1 F1800
G1 X109.588 Y181.690 E6.50081
G1 F1800
G1 X109.867 Y182.418 E6.51507
G1 X110.117 Y182.944 E6.52571
G1 F1800
G1 X110.402 Y183.451 E6.52750
G1 X110.820 Y184.061 E6.52976
G1 X111.297 Y184.615 E6.53200
G1 X111.824 Y185.099 E6.53420
G1 F3840
G1 X111.297 Y184.615 E6.10947
G1 F3840
G1 X110.820 Y184.061 E5.67536
G1 F3840
G1 X110.402 Y183.451 E5.23641
G1 F3840
G1 X110.117 Y182.944 E4.89090
G1 E0.53420 F2400.00000
G92 E0
G1 Z1.100 F4800.000
G1 X126.609 Y180.614 F4800.000
G1 X138.928 Y179.244 F4800.000
G1 Z0.600 F4800.000
G1 E6.00000 F2400.00000
G1 F1800
G1 X135.228 Y178.888 E6.43687
G1 X134.386 Y178.790 E6.53660
G1 X133.263 Y178.603 E6.67038
G1 X132.302 Y178.365 E6.78671
G1 X131.787 Y178.182 E6.85099
G1 X131.297 Y177.968 E6.91385
G1 X130.700 Y177.628 E6.99460
G1 X130.167 Y177.228 E7.07291
G1 X129.902 Y176.986 E7.11507
G1 X129.657 Y176.719 E7.15766
G1 X129.431 Y176.408 E7.20288
G1 X129.180 Y175.926 E7.26678
G1 X128.998 Y175.406 E7.33159
G1 X128.917 Y175.016 E7.37833
G1 X128.871 Y174.626 E7.42454
G1 X128.855 Y174.212 E7.47324
G1 X128.896 Y173.554 E7.55073
G1 X129.005 Y172.935 E7.62457
G1 X129.132 Y172.530 E7.67455
G1 X129.295 Y172.157 E7.72234
G1 X129.498 Y171.810 E7.76965
G1 X129.741 Y171.492 E7.81671
G1 X130.021 Y171.207 E7.86370
