; generated by Slic3r 1.3.0 on 2021-01-23 at 13:43:58

; external perimeters extrusion width = 0.66mm (15.94mm^3/s)
; perimeters extrusion width = 0.63mm (12.03mm^3/s)
; infill extrusion width = 0.63mm (12.03mm^3/s)
; solid infill extrusion width = 0.63mm (6.01mm^3/s)
; top infill extrusion width = 0.60mm (16.96mm^3/s)
; support material extrusion width = 0.66mm (19.12mm^3/s)

M107
G28 ; home all axes
G1 Z5 F5000 ; lift nozzle

; Filament gcode

G21 ; set units to millimeters
G90 ; use absolute coordinates
M82 ; use absolute distances for extrusion
G92 E0
G1 E-6.00000 F2400.00000
G92 E0
G1 Z0.500 F4800.000
G1 Z0.600 F4800.000
G1 Z1.100 F4800.000
G1 X65.351 Y82.851 F4800.000
G1 Z0.600 F4800.000
G1 E6.00000 F2400.00000
G1 F1800
G1 X65.434 Y82.834 E6.01212
G1 F1800
G1 X65.600 Y82.800 E6.03346
G1 X164.400 Y82.800 E18.49317
G1 X164.483 Y82.817 E18.50384
G1 F1800
G1 X164.649 Y82.851 E18.52807
G1 X164.666 Y82.934 E18.54019
G1 F1800
G1 X164.700 Y83.100 E18.56153
G1 X164.700 Y231.900 E37.32680
G1 X164.683 Y231.983 E37.33747
G1 F1800
G1 X164.649 Y232.149 E37.36170
G1 X164.566 Y232.166 E37.37382
G1 F1800
G1 X164.400 Y232.200 E37.39516
G1 X65.600 Y232.200 E49.85489
G1 X65.517 Y232.183 E49.86556
G1 F1800
G1 X65.351 Y232.149 E49.88980
G1 X65.334 Y232.066 E49.90191
G1 F1800
G1 X65.300 Y231.900 E49.92325
G1 X65.300 Y83.100 E68.68845
G1 X65.317 Y83.017 E68.69911
G1 F1800
G1 X65.333 Y82.940 E68.71046
G1 X65.429 Y82.818 F4800.000
G1 F3840;_WIPE
G1 X65.434 Y82.834 E68.62379
G1 E62.71046 F2400.00000
G92 E0
G1 Z1.100 F4800.000
; Filament-specific end gcode 
;END gcode for filament

M104 S0 ; turn off temperature
G28 X0  ; home X axis
M84     ; disable motors

M140 S0 ; set bed temperature
; filament used = 62.7mm (0.2cm3)
; filament used = 0.2g
; filament cost = 0.0
; total filament cost = 0.0

; avoid_crossing_perimeters = 1
; bed_shape = 0x0,230x0,230x315,0x315
; bed_temperature = 0
; before_layer_gcode = 
; between_objects_gcode = 
; bridge_acceleration = 0
; bridge_fan_speed = 100
; brim_connections_width = 0
; brim_width = 0
; complete_objects = 0
; cooling = 1
; default_acceleration = 0
; disable_fan_first_layers = 3
; duplicate_distance = 6
; end_filament_gcode = "; Filament-specific end gcode \n;END gcode for filament\n"
; end_gcode = M104 S0 ; turn off temperature\nG28 X0  ; home X axis\nM84     ; disable motors\n
; extruder_clearance_height = 20
; extruder_clearance_radius = 20
; extruder_offset = 0x0
; extrusion_axis = E
; extrusion_multiplier = 1
; fan_always_on = 0
; fan_below_layer_time = 60
; filament_colour = #0080C0
; filament_cost = 95
; filament_density = 1.53
; filament_diameter = 1.75
; filament_max_volumetric_speed = 0
; filament_notes = ""
; first_layer_acceleration = 0
; first_layer_bed_temperature = 0
; first_layer_extrusion_width = 0.6
; first_layer_speed = 30
; first_layer_temperature = 0
; gcode_arcs = 0
; gcode_comments = 0
; gcode_flavor = repetier
; has_heatbed = 1
; infill_acceleration = 0
; infill_first = 0
; interior_brim_width = 0
; layer_gcode = 
; max_fan_speed = 100
; max_layer_height = 0.6
; max_print_speed = 80
; max_volumetric_speed = 0
; min_fan_speed = 35
; min_layer_height = 0.15
; min_print_speed = 10
; min_skirt_length = 0
; notes = 
; nozzle_diameter = 0.6
; only_retract_when_crossing_perimeters = 1
; ooze_prevention = 0
; output_filename_format = [input_filename_base].gcode
; perimeter_acceleration = 0
; post_process = 
; pressure_advance = 0
; printer_notes = 
; resolution = 0
; retract_before_travel = 2
; retract_layer_change = 1
; retract_length = 6
; retract_length_toolchange = 10
; retract_lift = 0.5
; retract_lift_above = 0
; retract_lift_below = 0
; retract_restart_extra = 0
; retract_restart_extra_toolchange = 0
; retract_speed = 40
; skirt_distance = 3
; skirt_height = 1
; skirts = 0
; slowdown_below_layer_time = 5
; spiral_vase = 0
; standby_temperature_delta = -5
; start_filament_gcode = "; Filament gcode\n"
; start_gcode = G28 ; home all axes\nG1 Z5 F5000 ; lift nozzle\n
; temperature = 0
; threads = 4
; toolchange_gcode = 
; travel_speed = 80
; use_firmware_retraction = 0
; use_relative_e_distances = 0
; use_set_and_wait_bed = 0
; use_set_and_wait_extruder = 0
; use_volumetric_e = 0
; vibration_limit = 0
; wipe = 1
; z_offset = 0
; z_steps_per_mm = 0
; adaptive_slicing = 0
; adaptive_slicing_quality = 75%
; dont_support_bridges = 0
; extrusion_width = 0
; first_layer_height = 0.6
; infill_only_where_needed = 0
; interface_shells = 0
; layer_height = 0.6
; match_horizontal_surfaces = 0
; raft_layers = 0
; regions_overlap = 0
; seam_position = aligned
; sequential_print_priority = 0
; support_material = 1
; support_material_angle = 0
; support_material_buildplate_only = 0
; support_material_contact_distance = 0.2
; support_material_enforce_layers = 0
; support_material_extruder = 1
; support_material_extrusion_width = 0
; support_material_interface_extruder = 1
; support_material_interface_extrusion_width = 0
; support_material_interface_layers = 1
; support_material_interface_spacing = 3
; support_material_interface_speed = 100%
; support_material_max_layers = 0
; support_material_pattern = rectilinear
; support_material_spacing = 5
; support_material_speed = 60
; support_material_threshold = 20
; xy_size_compensation = 0
; bottom_infill_pattern = rectilinear
; bottom_solid_layers = 3
; bridge_flow_ratio = 1
; bridge_speed = 30
; external_perimeter_extrusion_width = 0
; external_perimeter_speed = 50
; external_perimeters_first = 0
; extra_perimeters = 1
; fill_angle = 45
; fill_density = 25%
; fill_gaps = 1
; fill_pattern = honeycomb
; gap_fill_speed = 20
; infill_every_layers = 1
; infill_extruder = 1
; infill_extrusion_width = 0
; infill_overlap = 65%
; infill_speed = 40
; overhangs = 1
; perimeter_extruder = 1
; perimeter_extrusion_width = 0
; perimeter_speed = 40
; perimeters = 3
; small_perimeter_speed = 10
; solid_infill_below_area = 70
; solid_infill_every_layers = 0
; solid_infill_extruder = 1
; solid_infill_extrusion_width = 0
; solid_infill_speed = 20
; thin_walls = 1
; top_infill_extrusion_width = 0.6
; top_infill_pattern = rectilinear
; top_solid_infill_speed = 60
; top_solid_layers = 3
