; generated by Slic3r 1.3.0 on 2021-01-24 at 20:37:53

; external perimeters extrusion width = 0.66mm (15.94mm^3/s)
; perimeters extrusion width = 0.63mm (12.03mm^3/s)
; infill extrusion width = 0.63mm (12.03mm^3/s)
; solid infill extrusion width = 0.63mm (6.01mm^3/s)
; top infill extrusion width = 0.60mm (16.96mm^3/s)
; support material extrusion width = 0.66mm (19.12mm^3/s)

M107
G28 ; home all axes
G1 Z5 F5000 ; lift nozzle

; Filament gcode

G21 ; set units to millimeters
G90 ; use absolute coordinates
M82 ; use absolute distances for extrusion
G92 E0
G1 E-6.00000 F2400.00000
G92 E0
G1 Z0.500 F4800.000
G1 Z0.600 F4800.000
G1 Z1.100 F4800.000
G1 X114.338 Y233.330 F4800.000
G1 Z0.600 F4800.000
G1 E6.00000 F2400.00000
G1 F1800
G1 X115.439 Y233.330 E6.12942
G1 X115.439 Y234.127 E6.22311
G1 X114.338 Y234.127 E6.35253
G1 X114.338 Y233.420 E6.43565
G1 X113.867 Y232.858 F4800.000
G1 F1800
G1 X115.910 Y232.858 E6.67585
G1 X115.910 Y234.598 E6.88034
G1 X113.867 Y234.598 E7.12054
G1 X113.867 Y232.948 E7.31445
G1 X113.396 Y232.387 F4800.000
G1 F1800
G1 X116.382 Y232.387 E7.66545
G1 X116.382 Y235.069 E7.98072
G1 X113.396 Y235.069 E8.33171
G1 X113.396 Y232.477 E8.63641
G1 X113.978 Y232.532 F4800.000
G1 F3840
G1 X116.382 Y232.387 E6.86273
G1 F3840
G1 X116.382 Y235.069 E5.27028
G1 F3840
G1 X113.396 Y235.069 E3.49740
G1 F3840
G1 X113.396 Y234.124 E2.93641
G1 E2.63641 F2400.00000
G92 E0
G1 Z1.100 F4800.000
G1 X111.096 Y230.967 F4800.000
G1 X114.744 Y227.725 F4800.000
G1 Z0.600 F4800.000
G1 E6.00000 F2400.00000
G1 F1800
G1 X114.736 Y210.312 E8.04683
G1 X114.691 Y209.402 E8.15403
G1 X114.611 Y208.572 E8.25204
G1 X114.516 Y208.025 E8.31726
G1 X114.372 Y207.502 E8.38106
G1 X114.177 Y207.005 E8.44377
G1 X113.930 Y206.552 E8.50444
G1 X113.603 Y206.088 E8.57118
G1 X113.169 Y205.663 E8.64260
G1 X112.667 Y205.322 E8.71393
G1 X112.119 Y205.066 E8.78507
G1 X111.538 Y204.883 E8.85656
G1 X110.926 Y204.761 E8.92993
G1 X110.279 Y204.691 E9.00652
G1 X109.581 Y204.669 E9.08859
G1 X109.292 Y204.683 E9.12257
G1 X109.274 Y204.405 E9.15528
G1 X109.705 Y204.370 E9.20613
G1 X110.190 Y204.359 E9.26317
G1 X110.840 Y204.383 E9.33964
G1 X111.434 Y204.450 E9.40984
G1 X111.979 Y204.559 E9.47514
G1 X112.476 Y204.709 E9.53622
G1 X112.930 Y204.896 E9.59394
G1 X113.344 Y205.121 E9.64932
G1 X113.723 Y205.385 E9.70353
G1 X114.068 Y205.686 E9.75742
G1 X114.373 Y206.023 E9.81086
G1 X114.638 Y206.395 E9.86456
G1 X114.866 Y206.810 E9.92027
G1 X115.058 Y207.274 E9.97927
G1 X115.211 Y207.791 E10.04265
G1 X115.324 Y208.364 E10.11127
G1 X115.394 Y208.994 E10.18578
G1 X115.419 Y209.702 E10.26906
G1 X115.419 Y227.725 E12.38767
G1 X114.834 Y227.725 E12.45642
G1 X114.272 Y227.125 F4800.000
G1 F1800
G1 X114.264 Y210.324 E14.43138
G1 X114.221 Y209.436 E14.53595
G1 X114.144 Y208.635 E14.63051
G1 X114.055 Y208.128 E14.69097
G1 X113.925 Y207.651 E14.74915
G1 X113.749 Y207.205 E14.80547
G1 X113.529 Y206.801 E14.85955
G1 X113.243 Y206.395 E14.91799
G1 X112.869 Y206.029 E14.97941
G1 X112.433 Y205.733 E15.04140
G1 X111.948 Y205.506 E15.10441
G1 X111.421 Y205.341 E15.16924
G1 X110.855 Y205.228 E15.23714
G1 X110.246 Y205.162 E15.30918
G1 X109.585 Y205.140 E15.38693
G1 X109.103 Y205.164 E15.44358
G1 X108.518 Y205.245 E15.51299
G1 X108.518 Y203.993 E15.66021
G1 X109.681 Y203.900 E15.79732
G1 X110.194 Y203.888 E15.85758
G1 X110.876 Y203.912 E15.93780
G1 X111.507 Y203.984 E16.01252
G1 X112.093 Y204.102 E16.08276
G1 X112.634 Y204.264 E16.14920
G1 X113.133 Y204.470 E16.21264
G1 X113.592 Y204.720 E16.27400
G1 X114.013 Y205.013 E16.33433
G1 X114.398 Y205.349 E16.39447
G1 X114.741 Y205.727 E16.45440
G1 X115.038 Y206.144 E16.51464
G1 X115.292 Y206.606 E16.57663
G1 X115.503 Y207.117 E16.64155
G1 X115.669 Y207.678 E16.71038
G1 X115.791 Y208.292 E16.78395
G1 X115.865 Y208.960 E16.86290
G1 X115.890 Y209.694 E16.94923
G1 X115.890 Y228.196 E19.12419
G1 X110.889 Y228.196 E19.71210
G1 X110.889 Y227.125 E19.83799
G1 X114.182 Y227.125 E20.22517
G1 X113.801 Y226.654 F4800.000
G1 F1800
G1 X113.793 Y210.336 E22.14337
G1 X113.751 Y209.470 E22.24530
G1 X113.677 Y208.698 E22.33642
G1 X113.595 Y208.231 E22.39211
G1 X113.477 Y207.800 E22.44469
G1 X113.321 Y207.405 E22.49460
G1 X113.128 Y207.050 E22.54209
G1 X112.882 Y206.701 E22.59224
G1 X112.570 Y206.396 E22.64366
G1 X112.199 Y206.144 E22.69631
G1 X111.776 Y205.946 E22.75119
G1 X111.304 Y205.798 E22.80934
G1 X110.783 Y205.694 E22.87178
G1 X110.213 Y205.632 E22.93928
G1 X109.588 Y205.612 E23.01270
G1 X109.147 Y205.633 E23.06460
G1 X108.690 Y205.697 E23.11892
G1 X108.047 Y205.826 E23.19594
G1 X108.047 Y203.580 E23.45995
G1 X108.413 Y203.529 E23.50339
G1 X109.657 Y203.429 E23.65006
G1 X110.197 Y203.416 E23.71353
G1 X110.911 Y203.442 E23.79751
G1 X111.580 Y203.518 E23.87674
G1 X112.207 Y203.644 E23.95193
G1 X112.792 Y203.820 E24.02373
G1 X113.336 Y204.044 E24.09288
G1 X113.839 Y204.318 E24.16022
G1 X114.304 Y204.641 E24.22667
G1 X114.729 Y205.012 E24.29307
G1 X115.109 Y205.431 E24.35948
G1 X115.438 Y205.893 E24.42625
G1 X115.718 Y206.403 E24.49454
G1 X115.948 Y206.959 E24.56537
G1 X116.128 Y207.565 E24.63965
G1 X116.257 Y208.220 E24.71817
G1 X116.335 Y208.926 E24.80156
G1 X116.361 Y209.686 E24.89095
G1 X116.361 Y228.667 E27.12226
G1 X110.418 Y228.667 E27.82096
G1 X110.418 Y226.654 E28.05764
G1 X113.711 Y226.654 E28.44479
G1 X114.391 Y226.547 F4800.000
G1 X114.508 Y227.661 F4800.000
G1 F1800
G1 X111.124 Y227.661 E28.84235
G1 F3840
G1 X114.508 Y227.661 E26.83316
G1 E22.84235 F2400.00000
G92 E0
G1 Z1.100 F4800.000
G1 X115.081 Y227.489 F4800.000
G1 Z0.600 F4800.000
G1 E6.00000 F2400.00000
G1 F1800
G1 X115.077 Y210.307 E6.35626
G1 X115.049 Y209.373 E6.37563
G1 F1800
G1 X114.973 Y208.518 E6.40535
G1 X114.855 Y207.879 E6.42783
G1 X114.717 Y207.395 E6.44526
G1 X114.544 Y206.965 E6.46131
G1 X114.217 Y206.380 E6.48449
G1 F1800
G1 X113.852 Y205.906 E6.49480
G1 F1800
G1 X113.344 Y205.454 E6.49743
G1 F3840
G1 X113.852 Y205.906 E6.09359
G1 E0.49743 F2400.00000
G92 E0
G1 Z1.100 F4800.000
G1 X108.914 Y204.952 F4800.000
G1 Z0.600 F4800.000
G1 E6.00000 F2400.00000
G1 F1800
G1 X108.889 Y204.200 E6.03386
G1 F3840
G1 X108.914 Y204.952 E5.58665
G1 E0.03386 F2400.00000
G92 E0
G1 Z1.100 F4800.000
G1 X105.266 Y223.660 F4800.000
G1 Z0.600 F4800.000
G1 E6.00000 F2400.00000
G1 F1800
G1 X105.012 Y224.318 E6.08290
G1 X104.705 Y224.922 E6.16257
G1 X104.345 Y225.468 E6.23947
G1 X103.937 Y225.954 E6.31399
G1 X103.484 Y226.378 E6.38696
G1 X102.986 Y226.740 E6.45932
G1 X102.446 Y227.035 E6.53168
G1 X101.869 Y227.264 E6.60466
G1 X101.258 Y227.425 E6.67891
G1 X100.617 Y227.520 E6.75507
G1 X99.947 Y227.551 E6.83391
G1 X99.277 Y227.520 E6.91276
G1 X98.636 Y227.425 E6.98896
G1 X98.025 Y227.264 E7.06327
G1 X97.447 Y227.036 E7.13633
G1 X96.906 Y226.740 E7.20878
G1 X96.406 Y226.379 E7.28124
G1 X95.951 Y225.955 E7.35433
G1 X95.541 Y225.470 E7.42899
G1 X95.179 Y224.924 E7.50606
G1 X94.869 Y224.320 E7.58588
G1 X94.613 Y223.661 E7.66890
G1 X94.407 Y222.951 E7.75584
G1 X94.249 Y222.189 E7.84732
G1 X94.138 Y221.375 E7.94393
G1 X94.072 Y220.508 E8.04612
G1 X94.050 Y219.587 E8.15442
G1 X94.072 Y218.688 E8.26007
G1 X94.138 Y217.839 E8.36022
G1 X94.249 Y217.038 E8.45529
G1 X94.407 Y216.285 E8.54574
G1 X94.613 Y215.580 E8.63210
G1 X94.869 Y214.923 E8.71494
G1 X95.176 Y214.316 E8.79492
G1 X95.536 Y213.762 E8.87255
G1 X95.944 Y213.266 E8.94809
G1 X96.398 Y212.831 E9.02203
G1 X96.898 Y212.459 E9.09520
G1 X97.439 Y212.155 E9.16822
G1 X98.019 Y211.919 E9.24175
G1 X98.632 Y211.753 E9.31643
G1 X99.275 Y211.655 E9.39293
G1 X99.947 Y211.623 E9.47202
G1 X100.614 Y211.655 E9.55050
G1 X101.252 Y211.751 E9.62640
G1 X101.861 Y211.914 E9.70050
G1 X102.437 Y212.146 E9.77345
G1 X102.976 Y212.445 E9.84590
G1 X103.474 Y212.810 E9.91845
G1 X103.927 Y213.238 E9.99174
G1 X104.336 Y213.727 E10.06667
G1 X104.697 Y214.277 E10.14394
G1 X105.005 Y214.882 E10.22382
G1 X105.261 Y215.540 E10.30677
G1 X105.467 Y216.248 E10.39348
G1 X105.625 Y217.006 E10.48455
G1 X105.736 Y217.815 E10.58054
G1 X105.802 Y218.675 E10.68192
G1 X105.824 Y219.587 E10.78913
G1 X105.802 Y220.508 E10.89739
G1 X105.737 Y221.374 E10.99954
G1 X105.627 Y222.188 E11.09609
G1 X105.470 Y222.950 E11.18750
G1 X105.291 Y223.573 E11.26376
G1 X104.819 Y223.509 F4800.000
G1 F1800
G1 X104.581 Y224.125 E11.34142
G1 X104.297 Y224.685 E11.41518
G1 X103.967 Y225.186 E11.48572
G1 X103.594 Y225.629 E11.55369
G1 X103.183 Y226.014 E11.61991
G1 X102.733 Y226.341 E11.68530
G1 X102.245 Y226.608 E11.75070
G1 X101.722 Y226.815 E11.81693
G1 X101.163 Y226.963 E11.88481
G1 X100.572 Y227.051 E11.95510
G1 X99.947 Y227.080 E12.02857
G1 X99.323 Y227.051 E12.10206
G1 X98.731 Y226.963 E12.17241
G1 X98.172 Y226.816 E12.24036
G1 X97.647 Y226.608 E12.30670
G1 X97.158 Y226.341 E12.37222
G1 X96.706 Y226.014 E12.43775
G1 X96.293 Y225.629 E12.50412
G1 X95.919 Y225.187 E12.57226
G1 X95.586 Y224.686 E12.64296
G1 X95.300 Y224.126 E12.71685
G1 X95.060 Y223.510 E12.79459
G1 X94.865 Y222.838 E12.87688
G1 X94.714 Y222.109 E12.96430
G1 X94.607 Y221.325 E13.05736
G1 X94.543 Y220.485 E13.15645
G1 X94.522 Y219.587 E13.26197
G1 X94.543 Y218.712 E13.36482
G1 X94.607 Y217.890 E13.46181
G1 X94.714 Y217.119 E13.55331
G1 X94.865 Y216.399 E13.63972
G1 X95.060 Y215.731 E13.72151
G1 X95.300 Y215.115 E13.79924
G1 X95.585 Y214.551 E13.87354
G1 X95.916 Y214.041 E13.94508
G1 X96.290 Y213.587 E14.01421
G1 X96.703 Y213.191 E14.08142
G1 X97.155 Y212.855 E14.14760
G1 X97.644 Y212.580 E14.21359
G1 X98.169 Y212.367 E14.28025
G1 X98.729 Y212.215 E14.34843
G1 X99.322 Y212.125 E14.41892
G1 X99.947 Y212.095 E14.49250
G1 X100.568 Y212.124 E14.56550
G1 X101.156 Y212.213 E14.63545
G1 X101.712 Y212.362 E14.70311
G1 X102.234 Y212.572 E14.76928
G1 X102.721 Y212.842 E14.83475
G1 X103.171 Y213.173 E14.90037
G1 X103.583 Y213.562 E14.96698
G1 X103.957 Y214.009 E15.03547
G1 X104.289 Y214.514 E15.10649
G1 X104.575 Y215.075 E15.18055
G1 X104.815 Y215.691 E15.25828
G1 X105.010 Y216.362 E15.34037
G1 X105.160 Y217.087 E15.42739
G1 X105.268 Y217.865 E15.51982
G1 X105.332 Y218.699 E15.61808
G1 X105.353 Y219.587 E15.72252
G1 X105.332 Y220.484 E15.82802
G1 X105.268 Y221.325 E15.92710
G1 X105.162 Y222.109 E16.02012
G1 X105.012 Y222.837 E16.10750
G1 X104.844 Y223.423 E16.17914
G1 X104.819 Y223.509 F4800.000
G1 F3840
G1 X104.819 Y223.509 E16.12571
G1 F3840
G1 X104.581 Y224.125 E15.73349
G1 F3840
G1 X104.297 Y224.685 E15.36091
G1 F3840
G1 X103.967 Y225.186 E15.00461
G1 F3840
G1 X103.594 Y225.629 E14.66128
G1 F3840
G1 X103.183 Y226.014 E14.32680
G1 F3840
G1 X102.733 Y226.341 E13.99651
G1 F3840
G1 X102.245 Y226.608 E13.66621
G1 F3840
G1 X101.722 Y226.815 E13.33169
G1 F3840
G1 X101.163 Y226.963 E12.98883
G1 F3840
G1 X100.572 Y227.051 E12.63376
G1 F3840
G1 X99.947 Y227.080 E12.26266
G1 F3840
G1 X99.323 Y227.051 E11.89148
G1 F3840
G1 X98.731 Y226.963 E11.53616
G1 F3840
G1 X98.172 Y226.816 E11.19291
G1 F3840
G1 X97.647 Y226.608 E10.85786
G1 F3840
G1 X97.158 Y226.341 E10.52692
G1 F3840
G1 X97.093 Y226.294 E10.47914
G1 E10.17914 F2400.00000
G92 E0
G1 Z1.100 F4800.000
G1 X105.704 Y222.979 F4800.000
G1 X106.247 Y223.161 F4800.000
G1 X105.492 Y225.034 F4800.000
G1 X104.674 Y226.169 F4800.000
G1 X103.676 Y227.052 F4800.000
G1 X102.507 Y227.678 F4800.000
G1 X101.128 Y228.041 F4800.000
G1 X99.547 Y228.113 F4800.000
G1 X97.667 Y227.921 F4800.000
G1 Z0.600 F4800.000
G1 E6.00000 F2400.00000
G1 F1800
G1 X97.355 Y227.827 E6.03823
G1 X96.723 Y227.556 E6.11904
G1 X96.131 Y227.219 E6.19913
G1 X95.575 Y226.812 E6.28015
G1 X95.051 Y226.333 E6.36360
G1 X94.566 Y225.785 E6.44965
G1 X94.139 Y225.180 E6.53672
G1 X93.770 Y224.513 E6.62631
G1 X93.457 Y223.780 E6.72000
G1 X93.203 Y222.976 E6.81905
G1 X93.009 Y222.100 E6.92451
G1 X92.878 Y221.150 E7.03723
G1 X92.811 Y220.126 E7.15791
G1 X92.811 Y219.062 E7.28297
G1 X92.876 Y218.062 E7.40082
G1 X93.003 Y217.129 E7.51149
G1 X93.191 Y216.263 E7.61561
G1 X93.438 Y215.464 E7.71398
G1 X93.743 Y214.728 E7.80759
G1 X94.104 Y214.053 E7.89759
G1 X94.521 Y213.434 E7.98529
G1 X94.992 Y212.874 E8.07131
G1 X95.501 Y212.389 E8.15406
G1 X96.049 Y211.977 E8.23459
G1 X96.638 Y211.634 E8.31473
G1 X97.275 Y211.358 E8.39630
G1 X97.965 Y211.149 E8.48105
G1 X98.156 Y211.112 E8.50397
G1 X98.218 Y211.377 E8.53596
G1 X97.868 Y211.472 E8.57856
G1 X97.234 Y211.729 E8.65895
G1 X96.640 Y212.063 E8.73901
G1 X96.093 Y212.470 E8.81917
G1 X95.598 Y212.945 E8.89983
G1 X95.155 Y213.483 E8.98177
G1 X94.767 Y214.081 E9.06551
G1 X94.438 Y214.731 E9.15116
G1 X94.167 Y215.428 E9.23912
G1 X93.950 Y216.170 E9.33004
G1 X93.785 Y216.957 E9.42453
G1 X93.669 Y217.788 E9.52317
G1 X93.601 Y218.664 E9.62647
G1 X93.579 Y219.587 E9.73493
G1 X93.601 Y220.531 E9.84601
G1 X93.669 Y221.425 E9.95131
G1 X93.784 Y222.269 E10.05146
G1 X93.949 Y223.065 E10.14701
G1 X94.166 Y223.813 E10.23859
G1 X94.439 Y224.513 E10.32689
G1 X94.771 Y225.162 E10.41265
G1 X95.164 Y225.754 E10.49608
G1 X95.610 Y226.281 E10.57726
G1 X96.106 Y226.744 E10.65707
G1 X96.654 Y227.139 E10.73646
G1 X97.246 Y227.463 E10.81585
G1 X97.756 Y227.665 E10.88024
G1 X97.696 Y227.836 E10.90156
G1 F3840
G1 X97.355 Y227.827 E10.69912
G1 F3840
G1 X96.723 Y227.556 E10.29092
G1 F3840
G1 X96.131 Y227.219 E9.88639
G1 F3840
G1 X95.575 Y226.812 E9.47715
G1 F3840
G1 X95.051 Y226.333 E9.05568
G1 F3840
G1 X94.566 Y225.785 E8.62104
G1 F3840
G1 X94.139 Y225.180 E8.18126
G1 F3840
G1 X93.770 Y224.513 E7.72871
G1 F3840
G1 X93.457 Y223.780 E7.25549
G1 F3840
G1 X93.203 Y222.976 E6.75519
G1 F3840
G1 X93.009 Y222.100 E6.22251
G1 F3840
G1 X92.878 Y221.150 E5.65314
G1 F3840
G1 X92.829 Y220.391 E5.20156
G1 E4.90156 F2400.00000
G92 E0
G1 Z1.100 F4800.000
G1 X102.137 Y227.956 F4800.000
G1 Z0.600 F4800.000
G1 E6.00000 F2400.00000
G1 F1800
G1 X102.048 Y227.700 E6.03186
G1 X102.647 Y227.463 E6.10754
G1 X103.239 Y227.138 E6.18686
G1 X103.785 Y226.742 E6.26619
G1 X104.280 Y226.278 E6.34592
G1 X104.723 Y225.750 E6.42698
G1 X105.113 Y225.159 E6.51024
G1 X105.442 Y224.510 E6.59582
G1 X105.713 Y223.810 E6.68397
G1 X105.928 Y223.063 E6.77542
G1 X106.092 Y222.267 E6.87087
G1 X106.206 Y221.424 E6.97095
G1 X106.273 Y220.531 E7.07618
G1 X106.295 Y219.587 E7.18719
G1 X106.273 Y218.652 E7.29718
G1 X106.205 Y217.765 E7.40168
G1 X106.090 Y216.926 E7.50122
G1 X105.925 Y216.134 E7.59635
G1 X105.708 Y215.388 E7.68767
G1 X105.436 Y214.689 E7.77583
G1 X105.105 Y214.039 E7.86154
G1 X104.714 Y213.446 E7.94506
G1 X104.270 Y212.915 E8.02643
G1 X103.776 Y212.448 E8.10640
G1 X103.231 Y212.047 E8.18589
G1 X102.640 Y211.719 E8.26530
G1 X101.958 Y211.445 E8.35176
G1 X102.047 Y211.190 E8.38352
G1 X102.565 Y211.345 E8.44710
G1 X103.198 Y211.614 E8.52790
G1 X103.788 Y211.948 E8.60756
G1 X104.339 Y212.349 E8.68779
G1 X104.856 Y212.822 E8.77011
G1 X105.333 Y213.363 E8.85491
G1 X105.753 Y213.964 E8.94106
G1 X106.116 Y214.629 E9.03014
G1 X106.425 Y215.363 E9.12370
G1 X106.676 Y216.169 E9.22299
G1 X106.867 Y217.051 E9.32904
G1 X106.997 Y218.008 E9.44264
G1 X107.063 Y219.043 E9.56446
G1 X107.063 Y220.129 E9.69219
G1 X106.997 Y221.159 E9.81349
G1 X106.867 Y222.113 E9.92671
G1 X106.676 Y222.993 E10.03250
G1 X106.425 Y223.798 E10.13168
G1 X106.116 Y224.532 E10.22526
G1 X105.752 Y225.198 E10.31449
G1 X105.332 Y225.801 E10.40090
G1 X104.854 Y226.345 E10.48598
G1 X104.338 Y226.820 E10.56848
G1 X103.786 Y227.223 E10.64881
G1 X103.196 Y227.558 E10.72854
G1 X102.564 Y227.828 E10.80935
G1 X102.223 Y227.930 E10.85111
G1 X102.273 Y228.407 F4800.000
G1 F1800
G1 X101.995 Y228.490 E10.88519
G1 X101.215 Y228.638 E10.97848
G1 X100.383 Y228.713 E11.07673
G1 X99.517 Y228.713 E11.17853
G1 X98.693 Y228.638 E11.27578
G1 X97.919 Y228.490 E11.36837
