; generated by Slic3r 1.3.0 on 2021-01-23 at 13:54:00

; external perimeters extrusion width = 1.10mm (29.14mm^3/s)
; perimeters extrusion width = 1.40mm (30.51mm^3/s)
; infill extrusion width = 1.25mm (26.91mm^3/s)
; solid infill extrusion width = 1.40mm (15.25mm^3/s)
; top infill extrusion width = 0.60mm (16.96mm^3/s)
; support material extrusion width = 1.10mm (34.96mm^3/s)

M107
G28 ; home all axes
G1 Z5 F5000 ; lift nozzle

; Filament gcode

G21 ; set units to millimeters
G90 ; use absolute coordinates
M82 ; use absolute distances for extrusion
G92 E0
G1 E-6.00000 F2400.00000
G92 E0
G1 Z0.500 F4800.000
G1 Z0.600 F4800.000
G1 Z1.100 F4800.000
G1 X57.155 Y219.234 F4800.000
G1 Z0.600 F4800.000
G1 E6.00000 F2400.00000
G1 F1800
G1 X62.485 Y219.234 E6.62648
G1 X63.123 Y219.248 E6.70152
G1 X63.740 Y219.291 E6.77427
G1 X64.329 Y219.363 E6.84401
G1 X64.894 Y219.465 E6.91146
G1 X65.435 Y219.606 E6.97722
G1 X65.946 Y219.793 E7.04117
G1 X66.421 Y220.027 E7.10338
G1 X66.858 Y220.309 E7.16447
G1 X67.253 Y220.641 E7.22518
G1 X67.602 Y221.024 E7.28607
G1 X67.902 Y221.451 E7.34748
G1 X68.156 Y221.924 E7.41058
G1 X68.356 Y222.450 E7.47673
G1 X68.496 Y223.024 E7.54618
G1 X68.577 Y223.638 E7.61903
G1 X68.604 Y224.300 E7.69691
G1 X68.572 Y224.884 E7.76556
G1 X68.471 Y225.439 E7.83188
G1 X68.296 Y225.958 E7.89635
G1 X68.047 Y226.427 E7.95868
G1 X67.744 Y226.834 E8.01833
G1 X67.398 Y227.189 E8.07662
G1 X67.007 Y227.496 E8.13507
G1 X66.583 Y227.749 E8.19305
G1 X66.125 Y227.965 E8.25263
G1 X65.641 Y228.141 E8.31313
G1 X65.134 Y228.278 E8.37494
G1 X64.605 Y228.376 E8.43818
G1 X63.819 Y228.465 E8.53108
G1 X63.019 Y228.517 E8.62539
G1 X57.155 Y228.527 E9.31464
G1 X57.155 Y219.384 E10.38937
G1 X57.627 Y219.706 F4800.000
G1 F1800
G1 X62.480 Y219.706 E10.95984
G1 X63.102 Y219.719 E11.03298
G1 X63.696 Y219.760 E11.10297
G1 X64.259 Y219.829 E11.16964
G1 X64.792 Y219.926 E11.23339
G1 X65.295 Y220.057 E11.29443
G1 X65.761 Y220.227 E11.35277
G1 X66.189 Y220.437 E11.40880
G1 X66.577 Y220.688 E11.46314
G1 X66.926 Y220.982 E11.51673
G1 X67.234 Y221.319 E11.57046
G1 X67.500 Y221.699 E11.62496
G1 X67.726 Y222.120 E11.68118
G1 X67.905 Y222.590 E11.74033
G1 X68.032 Y223.111 E11.80331
G1 X68.107 Y223.679 E11.87065
G1 X68.132 Y224.297 E11.94337
G1 X68.103 Y224.828 E12.00593
G1 X68.013 Y225.321 E12.06475
G1 X67.862 Y225.771 E12.12064
G1 X67.648 Y226.174 E12.17423
G1 X67.384 Y226.527 E12.22601
G1 X67.082 Y226.838 E12.27697
G1 X66.739 Y227.107 E12.32820
G1 X66.362 Y227.332 E12.37992
G1 X65.943 Y227.530 E12.43426
G1 X65.499 Y227.691 E12.48983
G1 X65.029 Y227.818 E12.54703
G1 X64.535 Y227.909 E12.60614
G1 X63.777 Y227.996 E12.69576
G1 X63.003 Y228.046 E12.78697
G1 X57.627 Y228.055 E13.41899
G1 X57.627 Y219.856 E14.38283
G1 X57.437 Y218.724 F4800.000
G1 F3840
G1 X62.480 Y219.706 E11.49997
G1 F3840
G1 X63.102 Y219.719 E11.13057
G1 F3840
G1 X63.696 Y219.760 E10.77704
G1 F3840
G1 X64.259 Y219.829 E10.44029
G1 F3840
G1 X64.792 Y219.926 E10.11827
G1 F3840
G1 X65.295 Y220.057 E9.81000
G1 F3840
G1 X65.761 Y220.227 E9.51531
G1 F3840
G1 X66.189 Y220.437 E9.23232
G1 F3840
G1 X66.577 Y220.688 E8.95783
G1 F3840
G1 X66.926 Y220.982 E8.68715
G1 F3840
G1 X66.930 Y220.987 E8.68283
G1 E8.38283 F2400.00000
G92 E0
G1 Z1.100 F4800.000
G1 X56.927 Y218.996 F4800.000
G1 X56.929 Y218.733 F4800.000
G1 X64.640 Y218.784 F4800.000
G1 X68.355 Y220.762 F4800.000
G1 Z0.600 F4800.000
G1 E6.00000 F2400.00000
G1 F1800
G1 X68.788 Y221.133 E6.06707
G1 X69.140 Y221.562 E6.13225
G1 X69.429 Y222.073 E6.20131
G1 X69.659 Y222.688 E6.27850
G1 X69.745 Y223.029 E6.31979
G1 X69.807 Y223.399 E6.36395
G1 X69.846 Y223.806 E6.41195
G1 X69.859 Y224.251 E6.46435
G1 X69.850 Y224.615 E6.50717
G1 X69.776 Y225.342 E6.59300
G1 X69.721 Y225.631 E6.62763
G1 X69.561 Y226.167 E6.69337
G1 X69.358 Y226.596 E6.74917
G1 X69.071 Y227.024 E6.80968
G1 X68.749 Y227.390 E6.86698
G1 X68.380 Y227.711 E6.92452
G1 X67.950 Y227.996 E6.98513
G1 X67.454 Y228.250 E7.05066
G1 X66.901 Y228.470 E7.12062
G1 X66.547 Y228.576 E7.16403
G1 X66.453 Y228.331 E7.19488
G1 X66.805 Y228.165 E7.24061
G1 X67.274 Y227.885 E7.30484
G1 X67.714 Y227.540 E7.37053
G1 X68.103 Y227.140 E7.43616
G1 X68.446 Y226.679 E7.50367
G1 X68.730 Y226.146 E7.57474
G1 X68.928 Y225.557 E7.64779
G1 X69.041 Y224.939 E7.72160
G1 X69.076 Y224.304 E7.79635
G1 X69.047 Y223.598 E7.87939
G1 X68.960 Y222.937 E7.95775
G1 X68.807 Y222.310 E8.03366
G1 X68.585 Y221.728 E8.10682
G1 X68.304 Y221.203 E8.17680
G1 X68.041 Y220.829 E8.23059
G1 X68.206 Y220.661 E8.25825
G1 X68.231 Y220.678 E8.26176
G1 F3840
G1 X68.584 Y220.942 E7.99970
G1 F3840
G1 X68.788 Y221.133 E7.83381
G1 F3840
G1 X68.973 Y221.339 E7.66947
G1 F3840
G1 X69.140 Y221.562 E7.50423
G1 F3840
G1 X69.292 Y221.805 E7.33414
G1 F3840
G1 X69.429 Y222.073 E7.15513
G1 F3840
G1 X69.553 Y222.369 E6.96490
G1 F3840
G1 X69.659 Y222.688 E6.76497
G1 F3840
G1 X69.745 Y223.029 E6.55642
G1 F3840
G1 X69.807 Y223.399 E6.33336
G1 F3840
G1 X69.846 Y223.806 E6.09091
G1 F3840
G1 X69.859 Y224.251 E5.82624
G1 F3840
G1 X69.850 Y224.615 E5.60995
G1 F3840
G1 X69.776 Y225.342 E5.17644
G1 F3840
G1 X69.721 Y225.631 E5.00154
G1 F3840
G1 X69.647 Y225.912 E4.82934
G1 F3840
G1 X69.561 Y226.167 E4.66924
G1 F3840
G1 X69.462 Y226.398 E4.51989
G1 F3840
G1 X69.358 Y226.596 E4.38719
G1 F3840
G1 X69.071 Y227.024 E4.08156
G1 F3840
G1 X68.749 Y227.390 E3.79210
G1 F3840
G1 X68.380 Y227.711 E3.50147
G1 F3840
G1 X67.950 Y227.996 E3.19537
G1 F3840
G1 X67.454 Y228.250 E2.86433
G1 F3840
G1 X66.980 Y228.438 E2.56176
G1 E2.26176 F2400.00000
G92 E0
G1 Z1.100 F4800.000
G1 X68.090 Y220.711 F4800.000
G1 X66.618 Y219.724 F4800.000
G1 X64.962 Y219.034 F4800.000
G1 X64.982 Y218.575 F4800.000
G1 X68.654 Y217.232 F4800.000
G1 Z0.600 F4800.000
G1 E6.00000 F2400.00000
G1 F1800
G1 X68.511 Y217.024 E6.02963
G1 X68.767 Y216.799 E6.06971
G1 X69.188 Y216.336 E6.14341
G1 X69.557 Y215.827 E6.21719
G1 X69.873 Y215.271 E6.29235
G1 X70.128 Y214.663 E6.36991
G1 X70.310 Y214.014 E6.44914
G1 X70.416 Y213.338 E6.52963
G1 X70.450 Y212.636 E6.61219
G1 X70.416 Y211.935 E6.69475
G1 X70.310 Y211.258 E6.77524
G1 X70.128 Y210.609 E6.85447
G1 X69.873 Y210.001 E6.93203
G1 X69.557 Y209.445 E7.00719
G1 X69.188 Y208.937 E7.08097
G1 X68.767 Y208.473 E7.15467
G1 X68.295 Y208.058 E7.22854
G1 X67.780 Y207.694 E7.30263
G1 X67.228 Y207.383 E7.37715
G1 X66.784 Y207.187 E7.43423
G1 X66.871 Y206.939 E7.46506
G1 X67.706 Y207.216 E7.56850
G1 X68.164 Y207.419 E7.62730
G1 X68.592 Y207.643 E7.68410
G1 X69.137 Y207.998 E7.76060
G1 X69.349 Y208.162 E7.79207
G1 X69.811 Y208.592 E7.86630
G1 X69.987 Y208.790 E7.89747
G1 X70.267 Y209.159 E7.95189
G1 X70.511 Y209.542 E8.00519
G1 X70.800 Y210.126 E8.08184
G1 X71.004 Y210.725 E8.15627
G1 X71.081 Y211.048 E8.19524
G1 X71.194 Y211.809 E8.28569
G1 X71.233 Y212.642 E8.38367
G1 X71.212 Y213.198 E8.44909
G1 X71.151 Y213.716 E8.51042
G1 X71.052 Y214.191 E8.56741
G1 X70.915 Y214.631 E8.62166
G1 X70.744 Y215.047 E8.67450
G1 X70.546 Y215.431 E8.72533
G1 X70.326 Y215.780 E8.77385
G1 X70.080 Y216.100 E8.82120
G1 X69.808 Y216.394 E8.86831
G1 X69.515 Y216.662 E8.91504
G1 X69.201 Y216.903 E8.96152
G1 X68.787 Y217.161 E9.01891
G1 F3840
G1 X68.511 Y217.024 E8.83620
G1 F3840
G1 X68.767 Y216.799 E8.63378
G1 F3840
G1 X69.188 Y216.336 E8.26151
G1 F3840
G1 X69.557 Y215.827 E7.88886
G1 F3840
G1 X69.873 Y215.271 E7.50923
G1 F3840
G1 X70.128 Y214.663 E7.11746
G1 F3840
G1 X70.310 Y214.014 E6.71725
G1 F3840
G1 X70.416 Y213.338 E6.31072
G1 F3840
G1 X70.450 Y212.636 E5.89371
G1 F3840
G1 X70.416 Y211.935 E5.47669
G1 F3840
G1 X70.310 Y211.258 E5.07017
G1 F3840
G1 X70.128 Y210.609 E4.66996
G1 F3840
G1 X69.873 Y210.001 E4.27819
G1 F3840
G1 X69.557 Y209.445 E3.89856
G1 F3840
G1 X69.188 Y208.937 E3.52591
G1 F3840
G1 X68.954 Y208.679 E3.31891
G1 E3.01891 F2400.00000
G92 E0
G1 Z1.100 F4800.000
G1 X57.155 Y218.241 F4800.000
G1 Z0.600 F4800.000
G1 E6.00000 F2400.00000
G1 F1800
G1 X57.155 Y207.031 E7.31783
G1 X63.389 Y207.031 E8.05061
G1 X64.033 Y207.051 E8.12632
G1 X64.670 Y207.114 E8.20164
G1 X65.290 Y207.220 E8.27549
G1 X65.891 Y207.369 E8.34836
G1 X66.470 Y207.563 E8.42011
G1 X67.016 Y207.805 E8.49033
G1 X67.528 Y208.093 E8.55932
G1 X68.002 Y208.428 E8.62762
G1 X68.436 Y208.809 E8.69547
G1 X68.822 Y209.234 E8.76300
G1 X69.160 Y209.700 E8.83064
G1 X69.449 Y210.209 E8.89948
G1 X69.683 Y210.764 E8.97026
G1 X69.849 Y211.358 E9.04275
G1 X69.946 Y211.983 E9.11704
G1 X69.978 Y212.636 E9.19394
G1 X69.946 Y213.289 E9.27083
G1 X69.849 Y213.914 E9.34512
G1 X69.683 Y214.508 E9.41762
G1 X69.449 Y215.063 E9.48840
G1 X69.160 Y215.572 E9.55723
G1 X68.822 Y216.038 E9.62487
G1 X68.436 Y216.463 E9.69240
G1 X68.002 Y216.844 E9.76025
G1 X67.528 Y217.179 E9.82855
G1 X67.016 Y217.467 E9.89755
G1 X66.470 Y217.709 E9.96776
G1 X65.891 Y217.903 E10.03951
G1 X65.290 Y218.052 E10.11238
G1 X64.670 Y218.158 E10.18623
G1 X64.033 Y218.221 E10.26156
G1 X63.389 Y218.241 E10.33726
G1 X57.305 Y218.241 E11.05241
G1 X57.627 Y217.770 F4800.000
G1 F1800
G1 X57.627 Y207.502 E12.25945
G1 X63.382 Y207.502 E12.93596
G1 X64.002 Y207.522 E13.00894
G1 X64.608 Y207.581 E13.08046
G1 X65.193 Y207.681 E13.15030
G1 X65.759 Y207.822 E13.21887
G1 X66.299 Y208.003 E13.28583
G1 X66.805 Y208.226 E13.35082
G1 X67.276 Y208.491 E13.41429
G1 X67.710 Y208.798 E13.47680
G1 X68.105 Y209.146 E13.53862
G1 X68.456 Y209.532 E13.59998
G1 X68.763 Y209.956 E13.66149
G1 X69.026 Y210.418 E13.72399
G1 X69.237 Y210.920 E13.78800
G1 X69.387 Y211.458 E13.85375
G1 X69.477 Y212.031 E13.92184
G1 X69.507 Y212.636 E13.99307
G1 X69.477 Y213.241 E14.06431
G1 X69.387 Y213.814 E14.13240
G1 X69.237 Y214.352 E14.19815
G1 X69.026 Y214.854 E14.26216
G1 X68.763 Y215.316 E14.32466
G1 X68.456 Y215.740 E14.38617
G1 X68.105 Y216.126 E14.44753
G1 X67.710 Y216.474 E14.50934
G1 X67.276 Y216.781 E14.57186
G1 X66.805 Y217.046 E14.63533
G1 X66.299 Y217.269 E14.70031
G1 X65.759 Y217.450 E14.76728
G1 X65.193 Y217.591 E14.83585
G1 X64.608 Y217.691 E14.90569
G1 X64.002 Y217.750 E14.97721
G1 X63.382 Y217.770 E15.05019
G1 X57.777 Y217.770 E15.70906
G1 X56.627 Y217.771 F4800.000
G1 F3840
G1 X57.636 Y208.171 E10.00906
G1 E9.70906 F2400.00000
G92 E0
G1 Z1.100 F4800.000
G1 X56.684 Y206.512 F4800.000
G1 Z0.600 F4800.000
G1 E6.00000 F2400.00000
G1 F1800
G1 X56.684 Y229.048 E8.64912
G1 X55.899 Y229.048 E8.74142
G1 X55.899 Y206.511 E11.39067
G1 X56.534 Y206.511 E11.46533
G1 F3840
G1 X56.598 Y216.111 E5.76533
G1 E5.46533 F2400.00000
G92 E0
G1 Z1.100 F4800.000
G1 X56.291 Y206.904 F4800.000
G1 X56.319 Y218.733 F4800.000
G1 X63.821 Y218.749 F4800.000
G1 X64.640 Y218.784 F4800.000
G1 X64.962 Y219.034 F4800.000
G1 X65.070 Y218.816 F4800.000
G1 X65.310 Y218.817 F4800.000
G1 Z0.600 F4800.000
G1 E6.00000 F2400.00000
G1 F1800
G1 X67.723 Y219.850 E6.30856
G1 X68.349 Y220.189 E6.39223
G1 X68.633 Y220.381 E6.43251
G1 X68.892 Y220.584 E6.47124
G1 X69.125 Y220.803 E6.50886
G1 X69.337 Y221.040 E6.54622
G1 X69.529 Y221.295 E6.58374
G1 X69.702 Y221.572 E6.62211
G1 X69.857 Y221.874 E6.66204
G1 X69.994 Y222.203 E6.70391
G1 X70.112 Y222.556 E6.74766
G1 X70.206 Y222.932 E6.79327
G1 X70.275 Y223.338 E6.84161
G1 X70.316 Y223.776 E6.89339
G1 X70.330 Y224.250 E6.94907
G1 X70.321 Y224.645 E6.99553
G1 X70.243 Y225.410 E7.08597
G1 X70.099 Y226.047 E7.16273
G1 X69.888 Y226.601 E7.23239
G1 X69.763 Y226.838 E7.26385
G1 X69.445 Y227.312 E7.33094
G1 X69.082 Y227.725 E7.39559
G1 X68.666 Y228.087 E7.46044
G1 X68.188 Y228.403 E7.52776
G1 X67.649 Y228.679 E7.59901
G1 X67.056 Y228.915 E7.67399
G1 X66.413 Y229.109 E7.75290
G1 X65.715 Y229.258 E7.83691
G1 X64.965 Y229.372 E7.92597
G1 X64.181 Y229.453 E8.01862
G1 X63.367 Y229.502 E8.11448
G1 X62.516 Y229.519 E8.21457
G1 X55.428 Y229.519 E9.04783
G1 X55.428 Y206.039 E11.80795
G1 X63.843 Y206.051 E12.79714
G1 X64.288 Y206.063 E12.84946
G1 X65.160 Y206.137 E12.95241
G1 X65.995 Y206.259 E13.05154
G1 X66.796 Y206.431 E13.14794
G1 X67.159 Y206.530 E13.19216
G1 X67.879 Y206.777 E13.28161
G1 X68.369 Y206.994 E13.34460
G1 X68.830 Y207.236 E13.40582
G1 X69.411 Y207.614 E13.48721
G1 X69.655 Y207.803 E13.52350
G1 X70.148 Y208.263 E13.60279
G1 X70.352 Y208.491 E13.63875
G1 X70.654 Y208.890 E13.69761
G1 X70.922 Y209.309 E13.75612
G1 X71.233 Y209.938 E13.83853
G1 X71.459 Y210.602 E13.92099
G1 X71.544 Y210.958 E13.96405
G1 X71.664 Y211.763 E14.05972
G1 X71.704 Y212.639 E14.16285
G1 X71.682 Y213.234 E14.23279
G1 X71.617 Y213.792 E14.29879
G1 X71.509 Y214.309 E14.36088
G1 X71.359 Y214.791 E14.42027
G1 X71.172 Y215.245 E14.47792
G1 X70.956 Y215.665 E14.53353
G1 X70.713 Y216.051 E14.58708
G1 X70.441 Y216.404 E14.63947
G1 X70.141 Y216.728 E14.69140
G1 X69.818 Y217.024 E14.74286
G1 X69.472 Y217.289 E14.79411
G1 X69.100 Y217.527 E14.84606
G1 X68.706 Y217.738 E14.89855
G1 X68.304 Y217.920 E14.95045
G1 X67.895 Y218.071 E15.00169
G1 X65.454 Y218.775 E15.30033
G1 X66.709 Y218.903 F4800.000
G1 F1800
G1 X67.922 Y219.423 E15.45537
G1 X68.269 Y219.597 E15.50112
G1 X68.911 Y219.999 E15.59013
G1 X69.199 Y220.227 E15.63329
G1 X69.462 Y220.473 E15.67570
G1 X69.702 Y220.741 E15.71788
G1 X69.918 Y221.028 E15.76021
G1 X70.112 Y221.339 E15.80328
G1 X70.285 Y221.675 E15.84769
G1 X70.436 Y222.037 E15.89378
G1 X70.565 Y222.424 E15.94169
G1 X70.668 Y222.836 E15.99162
G1 X70.742 Y223.276 E16.04413
G1 X70.787 Y223.747 E16.09969
G1 X70.802 Y224.248 E16.15865
G1 X70.792 Y224.674 E16.20876
G1 X70.710 Y225.479 E16.30382
G1 X70.640 Y225.840 E16.34701
G1 X70.442 Y226.504 E16.42850
G1 X70.314 Y226.804 E16.46680
G1 X70.168 Y227.079 E16.50344
G1 X69.820 Y227.600 E16.57711
G1 X69.415 Y228.060 E16.64910
G1 X68.952 Y228.462 E16.72127
G1 X68.426 Y228.810 E16.79531
G1 X67.844 Y229.109 E16.87226
G1 X67.212 Y229.361 E16.95228
G1 X66.531 Y229.565 E17.03584
G1 X65.799 Y229.722 E17.12379
G1 X65.025 Y229.839 E17.21583
G1 X64.220 Y229.923 E17.31096
G1 X63.386 Y229.973 E17.40915
G1 X62.521 Y229.990 E17.51091
G1 X54.956 Y229.990 E18.40011
G1 X54.956 Y205.567 E21.27109
G1 X63.849 Y205.579 E22.31647
G1 X64.314 Y205.592 E22.37109
G1 X65.214 Y205.668 E22.47732
G1 X66.078 Y205.795 E22.57997
G1 X66.908 Y205.973 E22.67969
G1 X67.298 Y206.079 E22.72725
G1 X68.051 Y206.338 E22.82088
G1 X68.574 Y206.570 E22.88806
G1 X69.068 Y206.829 E22.95371
G1 X69.684 Y207.229 E23.04000
G1 X69.960 Y207.443 E23.08110
G1 X70.485 Y207.933 E23.16545
G1 X70.716 Y208.191 E23.20619
G1 X71.041 Y208.621 E23.26951
G1 X71.333 Y209.077 E23.33322
G1 X71.666 Y209.749 E23.42138
G1 X71.799 Y210.103 E23.46575
G1 X72.007 Y210.868 E23.55905
G1 X72.134 Y211.717 E23.65994
G1 X72.176 Y212.637 E23.76820
G1 X72.153 Y213.270 E23.84267
G1 X72.082 Y213.867 E23.91333
G1 X71.966 Y214.427 E23.98051
G1 X71.803 Y214.951 E24.04505
G1 X71.600 Y215.443 E24.10752
G1 X71.365 Y215.899 E24.16790
G1 X71.099 Y216.321 E24.22648
G1 X70.801 Y216.708 E24.28391
G1 X70.474 Y217.063 E24.34066
G1 X70.121 Y217.385 E24.39686
G1 X69.743 Y217.675 E24.45287
G1 X69.339 Y217.934 E24.50931
G1 X68.915 Y218.161 E24.56583
G1 X68.482 Y218.356 E24.62161
G1 X68.042 Y218.519 E24.67679
G1 X66.853 Y218.862 E24.82222
G1 X66.070 Y219.672 F4800.000
G1 X66.902 Y217.948 F4800.000
G1 F1800
G1 X67.388 Y217.761 E24.85190
G1 F1800
G1 X67.744 Y217.611 E24.88279
G1 F1800
G1 X67.800 Y217.585 E24.88847
G1 F1800
G1 X68.102 Y217.426 E24.92437
G1 F1800
G1 X68.389 Y217.262 E24.96324
G1 X66.902 Y217.948 F4800.000
G1 F1800
G1 X65.996 Y218.246 E24.99688
G1 X65.361 Y218.416 E25.02010
G1 F1800
G1 X64.719 Y218.563 E25.05551
G1 F1800
G1 X64.558 Y218.594 E25.06728
G1 X64.517 Y218.620 E25.07079
G1 F1800
G1 X64.435 Y218.672 E25.07993
G1 F1800
G1 X64.353 Y218.724 E25.09119
G1 F1800
G1 X64.270 Y218.776 E25.10458
